{
  "compressionlevel": -1,
  "height": 104,
  "infinite": false,
  "nextlayerid": 102,
  "nextobjectid": 1200,
  "orientation": "orthogonal",
  "renderorder": "right-down",
  "tiledversion": "1.11.0",
  "tileheight": 96,
  "tilesets": [
    {
      "firstgid": 1,
      "source": "tilesets/spacecraft_tiles.tsj"
    },
    {
      "firstgid": 101,
      "source": "tilesets/spacecraft_areas.tsj"
    },
    {
      "firstgid": 201,
      "source": "tilesets/spacecraft_hazards.tsj"
    },
    {
      "firstgid": 301,
      "source": "tilesets/spacecraft_decor.tsj"
    }
  ],
  "tilewidth": 96,
  "type": "map",
  "version": "1.10",
  "width": 126,
  "properties": [
    {
      "name": "contentVersion",
      "type": "int",
      "value": 4
    },
    {
      "name": "designStatus",
      "type": "string",
      "value": "playable_graybox_v4"
    }
  ],
  "layers": [
    {
      "data": [
        1,
        1,
        1,
        1,
        1,
        1,
        1,
        1,
        1,
        1,
        1,
        1,
        1,
        1,
        1,
        1,
        1,
        1,
        1,
        1,
        1,
        1,
        1,
        1,
        1,
        1,
        1,
        1,
        1,
        1,
        1,
        1,
        1,
        1,
        1,
        1,
        1,
        1,
        1,
        1,
        1,
        1,
        1,
        1,
        1,
        1,
        1,
        1,
        1,
        1,
        1,
        1,
        1,
        1,
        1,
        1,
        1,
        1,
        1,
        1,
        1,
        1,
        1,
        1,
        1,
        1,
        1,
        1,
        1,
        1,
        1,
        1,
        1,
        1,
        1,
        1,
        1,
        1,
        1,
        1,
        1,
        1,
        1,
        1,
        1,
        1,
        1,
        1,
        1,
        1,
        1,
        1,
        1,
        1,
        1,
        1,
        1,
        1,
        1,
        1,
        1,
        1,
        1,
        1,
        1,
        1,
        1,
        1,
        1,
        1,
        1,
        1,
        1,
        1,
        1,
        1,
        1,
        1,
        1,
        1,
        1,
        1,
        1,
        1,
        1,
        1,
        1,
        1,
        1,
        1,
        1,
        1,
        1,
        1,
        1,
        1,
        1,
        1,
        1,
        1,
        1,
        1,
        1,
        1,
        1,
        1,
        1,
        1,
        1,
        1,
        1,
        1,
        1,
        1,
        1,
        1,
        1,
        1,
        1,
        1,
        1,
        1,
        1,
        1,
        1,
        1,
        1,
        1,
        1,
        1,
        1,
        1,
        1,
        1,
        1,
        1,
        1,
        1,
        1,
        1,
        1,
        1,
        1,
        1,
        1,
        1,
        1,
        1,
        1,
        1,
        1,
        1,
        1,
        1,
        1,
        1,
        1,
        1,
        1,
        1,
        1,
        1,
        1,
        1,
        1,
        1,
        1,
        1,
        1,
        1,
        1,
        1,
        1,
        1,
        1,
        1,
        1,
        1,
        1,
        1,
        1,
        1,
        1,
        1,
        1,
        1,
        1,
        1,
        1,
        1,
        1,
        1,
        1,
        1,
        1,
        1,
        1,
        1,
        1,
        1,
        1,
        1,
        1,
        1,
        1,
        1,
        1,
        1,
        1,
        1,
        1,
        1,
        1,
        1,
        1,
        1,
        1,
        1,
        1,
        1,
        1,
        1,
        1,
        1,
        1,
        1,
        1,
        1,
        1,
        1,
        1,
        1,
        1,
        1,
        1,
        1,
        1,
        1,
        1,
        1,
        1,
        1,
        1,
        1,
        1,
        1,
        1,
        1,
        1,
        1,
        1,
        1,
        1,
        1,
        1,
        1,
        1,
        1,
        1,
        1,
        1,
        1,
        1,
        1,
        1,
        1,
        1,
        1,
        1,
        1,
        1,
        1,
        1,
        1,
        1,
        1,
        1,
        1,
        1,
        1,
        1,
        1,
        1,
        1,
        1,
        1,
        1,
        1,
        1,
        1,
        1,
        1,
        1,
        1,
        1,
        1,
        1,
        1,
        1,
        1,
        1,
        1,
        1,
        1,
        1,
        1,
        1,
        1,
        1,
        1,
        1,
        1,
        1,
        1,
        1,
        1,
        1,
        1,
        1,
        1,
        1,
        1,
        1,
        1,
        1,
        1,
        1,
        1,
        1,
        1,
        1,
        1,
        1,
        1,
        1,
        1,
        1,
        1,
        1,
        1,
        1,
        1,
        1,
        1,
        1,
        1,
        1,
        1,
        1,
        1,
        1,
        1,
        1,
        1,
        1,
        1,
        1,
        1,
        1,
        1,
        1,
        1,
        1,
        1,
        1,
        1,
        1,
        1,
        1,
        1,
        1,
        1,
        1,
        1,
        1,
        1,
        1,
        1,
        1,
        1,
        1,
        1,
        1,
        1,
        1,
        1,
        1,
        1,
        1,
        1,
        1,
        1,
        1,
        1,
        1,
        1,
        1,
        1,
        1,
        1,
        1,
        1,
        1,
        1,
        1,
        1,
        1,
        1,
        1,
        1,
        1,
        1,
        1,
        1,
        1,
        1,
        1,
        1,
        1,
        1,
        1,
        1,
        1,
        1,
        1,
        1,
        1,
        1,
        1,
        1,
        1,
        1,
        1,
        1,
        1,
        1,
        1,
        1,
        1,
        1,
        1,
        1,
        1,
        1,
        1,
        1,
        1,
        1,
        1,
        1,
        1,
        1,
        1,
        1,
        1,
        1,
        1,
        1,
        1,
        1,
        1,
        1,
        1,
        1,
        1,
        1,
        1,
        1,
        1,
        1,
        1,
        1,
        1,
        1,
        1,
        1,
        1,
        1,
        1,
        1,
        1,
        1,
        1,
        1,
        1,
        1,
        1,
        1,
        1,
        1,
        1,
        1,
        1,
        1,
        1,
        1,
        1,
        1,
        1,
        1,
        1,
        1,
        1,
        1,
        1,
        1,
        1,
        1,
        1,
        1,
        1,
        1,
        1,
        1,
        1,
        1,
        1,
        1,
        1,
        1,
        1,
        1,
        1,
        1,
        1,
        1,
        1,
        1,
        1,
        1,
        1,
        1,
        1,
        1,
        1,
        1,
        1,
        1,
        1,
        1,
        1,
        1,
        1,
        1,
        1,
        1,
        1,
        1,
        1,
        1,
        1,
        1,
        1,
        1,
        1,
        1,
        1,
        1,
        1,
        1,
        1,
        1,
        1,
        1,
        1,
        1,
        1,
        1,
        1,
        1,
        1,
        1,
        1,
        1,
        1,
        1,
        1,
        1,
        1,
        1,
        1,
        1,
        1,
        1,
        1,
        1,
        1,
        1,
        1,
        1,
        1,
        1,
        1,
        1,
        1,
        1,
        1,
        1,
        1,
        1,
        1,
        1,
        1,
        1,
        1,
        1,
        1,
        1,
        1,
        1,
        1,
        1,
        1,
        1,
        1,
        1,
        1,
        1,
        1,
        1,
        1,
        1,
        1,
        1,
        1,
        1,
        1,
        1,
        1,
        1,
        1,
        1,
        1,
        1,
        1,
        1,
        1,
        1,
        1,
        1,
        1,
        1,
        1,
        1,
        1,
        1,
        1,
        1,
        1,
        1,
        1,
        1,
        1,
        1,
        1,
        1,
        1,
        1,
        1,
        1,
        1,
        1,
        1,
        1,
        1,
        1,
        1,
        1,
        1,
        1,
        1,
        1,
        1,
        1,
        1,
        1,
        1,
        1,
        1,
        1,
        1,
        1,
        1,
        1,
        1,
        1,
        1,
        1,
        1,
        1,
        1,
        1,
        1,
        1,
        1,
        1,
        1,
        1,
        1,
        1,
        1,
        1,
        1,
        1,
        1,
        1,
        1,
        1,
        1,
        1,
        1,
        1,
        1,
        1,
        1,
        1,
        1,
        1,
        1,
        1,
        1,
        1,
        1,
        1,
        1,
        1,
        1,
        1,
        1,
        1,
        1,
        1,
        1,
        1,
        1,
        1,
        1,
        1,
        1,
        1,
        1,
        1,
        1,
        1,
        1,
        1,
        1,
        1,
        1,
        1,
        1,
        1,
        1,
        1,
        1,
        1,
        1,
        1,
        1,
        1,
        1,
        1,
        1,
        1,
        1,
        1,
        1,
        1,
        1,
        1,
        1,
        1,
        1,
        1,
        1,
        1,
        1,
        1,
        1,
        1,
        1,
        1,
        1,
        1,
        1,
        1,
        1,
        1,
        1,
        1,
        1,
        1,
        1,
        1,
        1,
        1,
        1,
        1,
        1,
        1,
        1,
        1,
        1,
        1,
        1,
        1,
        1,
        1,
        1,
        1,
        1,
        1,
        1,
        1,
        1,
        1,
        1,
        1,
        1,
        1,
        1,
        1,
        1,
        1,
        1,
        1,
        1,
        1,
        1,
        1,
        1,
        1,
        1,
        1,
        1,
        1,
        1,
        1,
        1,
        1,
        1,
        1,
        1,
        1,
        1,
        1,
        1,
        1,
        1,
        1,
        1,
        1,
        1,
        1,
        1,
        1,
        1,
        1,
        1,
        1,
        1,
        6,
        6,
        6,
        6,
        6,
        6,
        6,
        6,
        6,
        6,
        6,
        6,
        6,
        1,
        1,
        1,
        1,
        1,
        1,
        1,
        1,
        1,
        1,
        1,
        1,
        1,
        1,
        1,
        1,
        1,
        1,
        1,
        1,
        1,
        1,
        1,
        1,
        1,
        1,
        6,
        6,
        6,
        6,
        6,
        6,
        6,
        6,
        6,
        6,
        6,
        6,
        6,
        1,
        1,
        1,
        1,
        1,
        1,
        1,
        1,
        1,
        1,
        1,
        1,
        1,
        1,
        1,
        1,
        1,
        1,
        1,
        1,
        1,
        1,
        1,
        1,
        1,
        1,
        1,
        6,
        6,
        6,
        6,
        6,
        6,
        6,
        6,
        6,
        6,
        6,
        6,
        6,
        1,
        1,
        1,
        1,
        1,
        1,
        1,
        1,
        1,
        1,
        1,
        1,
        1,
        1,
        1,
        1,
        1,
        1,
        1,
        1,
        1,
        1,
        1,
        1,
        1,
        1,
        1,
        6,
        6,
        6,
        6,
        6,
        6,
        6,
        6,
        6,
        6,
        6,
        6,
        6,
        6,
        6,
        6,
        6,
        6,
        6,
        6,
        6,
        6,
        6,
        6,
        6,
        6,
        6,
        1,
        1,
        1,
        1,
        1,
        1,
        1,
        1,
        1,
        1,
        1,
        1,
        1,
        6,
        6,
        6,
        6,
        6,
        6,
        6,
        6,
        6,
        6,
        6,
        6,
        6,
        6,
        6,
        6,
        6,
        6,
        6,
        6,
        6,
        6,
        6,
        6,
        6,
        6,
        1,
        1,
        1,
        1,
        1,
        1,
        1,
        1,
        1,
        1,
        1,
        1,
        1,
        6,
        6,
        6,
        6,
        6,
        6,
        6,
        6,
        6,
        6,
        6,
        6,
        6,
        6,
        6,
        6,
        6,
        6,
        6,
        6,
        6,
        6,
        6,
        6,
        6,
        6,
        1,
        1,
        1,
        1,
        1,
        1,
        1,
        1,
        1,
        1,
        1,
        1,
        1,
        1,
        1,
        1,
        1,
        1,
        1,
        1,
        1,
        6,
        6,
        6,
        6,
        6,
        6,
        6,
        6,
        6,
        6,
        6,
        6,
        6,
        6,
        6,
        6,
        6,
        6,
        6,
        6,
        6,
        6,
        6,
        6,
        6,
        6,
        6,
        6,
        6,
        6,
        6,
        6,
        6,
        6,
        6,
        6,
        6,
        6,
        6,
        6,
        6,
        6,
        6,
        6,
        6,
        6,
        6,
        6,
        6,
        6,
        6,
        6,
        6,
        6,
        6,
        6,
        6,
        6,
        6,
        6,
        6,
        6,
        6,
        6,
        6,
        6,
        6,
        6,
        6,
        6,
        6,
        6,
        6,
        6,
        6,
        6,
        6,
        6,
        6,
        6,
        6,
        6,
        6,
        6,
        6,
        6,
        6,
        6,
        6,
        6,
        6,
        6,
        6,
        6,
        6,
        6,
        6,
        6,
        6,
        6,
        6,
        6,
        6,
        6,
        6,
        6,
        6,
        1,
        1,
        1,
        1,
        1,
        1,
        1,
        1,
        1,
        1,
        1,
        1,
        1,
        1,
        1,
        1,
        1,
        1,
        1,
        6,
        6,
        6,
        6,
        6,
        6,
        6,
        6,
        6,
        6,
        6,
        6,
        6,
        6,
        6,
        6,
        6,
        6,
        6,
        6,
        6,
        6,
        6,
        6,
        6,
        6,
        6,
        6,
        6,
        6,
        6,
        6,
        6,
        6,
        6,
        6,
        6,
        6,
        6,
        6,
        6,
        6,
        6,
        6,
        6,
        6,
        6,
        6,
        6,
        6,
        6,
        6,
        6,
        6,
        6,
        6,
        6,
        6,
        6,
        6,
        6,
        6,
        6,
        6,
        6,
        6,
        6,
        6,
        6,
        6,
        6,
        6,
        6,
        6,
        6,
        6,
        6,
        6,
        6,
        6,
        6,
        6,
        6,
        6,
        6,
        6,
        6,
        6,
        6,
        6,
        6,
        6,
        6,
        6,
        6,
        6,
        6,
        6,
        6,
        6,
        6,
        6,
        6,
        6,
        6,
        6,
        1,
        1,
        1,
        1,
        1,
        1,
        1,
        1,
        1,
        1,
        1,
        1,
        1,
        1,
        1,
        1,
        1,
        1,
        1,
        1,
        6,
        6,
        6,
        6,
        6,
        6,
        6,
        6,
        6,
        6,
        6,
        6,
        6,
        6,
        6,
        6,
        6,
        6,
        6,
        6,
        6,
        6,
        6,
        6,
        6,
        6,
        6,
        6,
        6,
        6,
        6,
        6,
        6,
        6,
        6,
        6,
        6,
        6,
        6,
        6,
        6,
        6,
        6,
        6,
        6,
        6,
        6,
        6,
        6,
        6,
        6,
        6,
        6,
        6,
        6,
        6,
        6,
        6,
        6,
        6,
        6,
        6,
        6,
        6,
        6,
        6,
        6,
        6,
        6,
        6,
        6,
        6,
        6,
        6,
        6,
        6,
        6,
        6,
        6,
        6,
        6,
        6,
        6,
        6,
        6,
        6,
        6,
        6,
        6,
        6,
        6,
        6,
        6,
        6,
        6,
        6,
        6,
        6,
        6,
        6,
        6,
        6,
        6,
        6,
        6,
        6,
        1,
        1,
        1,
        1,
        1,
        1,
        1,
        1,
        1,
        1,
        1,
        1,
        1,
        1,
        1,
        1,
        1,
        1,
        1,
        1,
        6,
        6,
        6,
        6,
        6,
        6,
        6,
        6,
        6,
        6,
        6,
        6,
        6,
        6,
        6,
        6,
        6,
        6,
        6,
        6,
        6,
        6,
        6,
        6,
        6,
        6,
        6,
        6,
        6,
        6,
        6,
        6,
        6,
        6,
        6,
        6,
        6,
        6,
        6,
        6,
        6,
        6,
        6,
        6,
        6,
        6,
        6,
        6,
        6,
        6,
        6,
        6,
        6,
        6,
        6,
        6,
        6,
        6,
        6,
        6,
        6,
        6,
        6,
        6,
        6,
        6,
        6,
        6,
        6,
        6,
        6,
        6,
        6,
        6,
        6,
        6,
        6,
        6,
        6,
        6,
        6,
        6,
        6,
        6,
        6,
        6,
        6,
        6,
        6,
        6,
        6,
        6,
        6,
        6,
        6,
        6,
        6,
        6,
        6,
        6,
        6,
        6,
        6,
        6,
        6,
        6,
        1,
        1,
        1,
        1,
        1,
        1,
        1,
        1,
        1,
        1,
        1,
        1,
        1,
        1,
        1,
        1,
        1,
        1,
        1,
        6,
        6,
        6,
        6,
        6,
        6,
        6,
        6,
        6,
        6,
        6,
        6,
        6,
        6,
        6,
        6,
        6,
        6,
        6,
        6,
        6,
        6,
        6,
        6,
        6,
        6,
        6,
        6,
        6,
        6,
        6,
        6,
        6,
        6,
        6,
        6,
        6,
        6,
        6,
        6,
        6,
        6,
        6,
        6,
        6,
        6,
        6,
        6,
        6,
        6,
        6,
        6,
        6,
        6,
        6,
        6,
        6,
        6,
        6,
        6,
        6,
        6,
        6,
        6,
        6,
        6,
        6,
        6,
        6,
        6,
        6,
        6,
        6,
        6,
        6,
        6,
        6,
        6,
        6,
        6,
        6,
        6,
        6,
        6,
        6,
        6,
        6,
        6,
        6,
        6,
        6,
        6,
        6,
        6,
        6,
        6,
        6,
        6,
        6,
        6,
        6,
        6,
        6,
        6,
        6,
        6,
        6,
        1,
        1,
        1,
        1,
        1,
        1,
        1,
        1,
        1,
        1,
        1,
        1,
        1,
        1,
        1,
        1,
        1,
        1,
        1,
        6,
        6,
        6,
        6,
        6,
        6,
        6,
        6,
        6,
        6,
        6,
        6,
        6,
        6,
        6,
        6,
        6,
        6,
        6,
        6,
        6,
        6,
        6,
        6,
        6,
        6,
        6,
        6,
        6,
        6,
        6,
        6,
        6,
        6,
        6,
        6,
        6,
        6,
        6,
        6,
        6,
        6,
        6,
        6,
        6,
        6,
        6,
        6,
        6,
        6,
        6,
        6,
        6,
        6,
        6,
        6,
        6,
        6,
        6,
        6,
        6,
        6,
        6,
        6,
        6,
        6,
        6,
        6,
        6,
        6,
        6,
        6,
        6,
        6,
        6,
        6,
        6,
        6,
        6,
        6,
        6,
        6,
        6,
        6,
        6,
        6,
        6,
        6,
        6,
        6,
        6,
        6,
        6,
        6,
        6,
        6,
        6,
        6,
        6,
        6,
        6,
        6,
        6,
        6,
        6,
        6,
        6,
        1,
        1,
        1,
        1,
        1,
        1,
        1,
        1,
        1,
        1,
        1,
        1,
        1,
        1,
        1,
        1,
        1,
        1,
        6,
        6,
        6,
        6,
        6,
        6,
        6,
        6,
        6,
        6,
        6,
        6,
        6,
        6,
        6,
        6,
        6,
        6,
        6,
        6,
        6,
        6,
        6,
        6,
        6,
        6,
        6,
        6,
        6,
        6,
        6,
        6,
        6,
        6,
        6,
        6,
        6,
        6,
        6,
        6,
        6,
        6,
        6,
        6,
        6,
        6,
        6,
        6,
        6,
        6,
        6,
        6,
        6,
        6,
        6,
        6,
        6,
        6,
        6,
        6,
        6,
        6,
        6,
        6,
        6,
        6,
        6,
        6,
        6,
        6,
        6,
        6,
        6,
        6,
        6,
        6,
        6,
        6,
        6,
        6,
        6,
        6,
        6,
        6,
        6,
        6,
        6,
        6,
        6,
        6,
        6,
        6,
        6,
        6,
        6,
        6,
        6,
        6,
        6,
        6,
        6,
        6,
        6,
        6,
        6,
        6,
        6,
        6,
        1,
        1,
        1,
        1,
        1,
        1,
        1,
        1,
        1,
        1,
        1,
        1,
        1,
        1,
        1,
        1,
        1,
        1,
        6,
        6,
        6,
        6,
        6,
        6,
        6,
        6,
        6,
        6,
        6,
        6,
        6,
        6,
        6,
        6,
        6,
        6,
        6,
        6,
        6,
        6,
        6,
        6,
        6,
        6,
        6,
        6,
        6,
        6,
        6,
        6,
        6,
        6,
        6,
        6,
        6,
        6,
        6,
        6,
        6,
        6,
        6,
        6,
        6,
        6,
        6,
        6,
        6,
        6,
        6,
        6,
        6,
        6,
        6,
        6,
        6,
        6,
        6,
        6,
        6,
        6,
        6,
        6,
        6,
        6,
        6,
        6,
        6,
        6,
        6,
        6,
        6,
        6,
        6,
        6,
        6,
        6,
        6,
        6,
        6,
        6,
        6,
        6,
        6,
        6,
        6,
        6,
        6,
        6,
        6,
        6,
        6,
        6,
        6,
        6,
        6,
        6,
        6,
        6,
        6,
        6,
        6,
        6,
        6,
        6,
        6,
        6,
        1,
        1,
        1,
        1,
        1,
        1,
        1,
        1,
        1,
        1,
        1,
        1,
        1,
        1,
        1,
        1,
        1,
        1,
        6,
        6,
        6,
        6,
        6,
        6,
        6,
        6,
        6,
        6,
        6,
        6,
        6,
        6,
        6,
        6,
        6,
        6,
        6,
        6,
        6,
        6,
        6,
        6,
        6,
        6,
        6,
        6,
        6,
        6,
        6,
        6,
        6,
        6,
        6,
        6,
        6,
        6,
        6,
        6,
        6,
        6,
        6,
        6,
        6,
        6,
        6,
        6,
        6,
        6,
        6,
        6,
        6,
        6,
        6,
        6,
        6,
        6,
        6,
        6,
        6,
        6,
        6,
        6,
        6,
        6,
        6,
        6,
        6,
        6,
        6,
        6,
        6,
        6,
        6,
        6,
        6,
        6,
        6,
        6,
        6,
        6,
        6,
        6,
        6,
        6,
        6,
        6,
        6,
        6,
        6,
        6,
        6,
        6,
        6,
        6,
        6,
        6,
        6,
        6,
        6,
        6,
        6,
        6,
        6,
        6,
        6,
        6,
        1,
        1,
        1,
        1,
        1,
        1,
        1,
        1,
        1,
        1,
        1,
        1,
        1,
        1,
        1,
        1,
        6,
        6,
        6,
        6,
        6,
        6,
        6,
        6,
        6,
        6,
        6,
        6,
        6,
        6,
        6,
        6,
        6,
        6,
        6,
        6,
        6,
        6,
        6,
        6,
        6,
        6,
        6,
        6,
        6,
        6,
        6,
        6,
        6,
        6,
        6,
        6,
        6,
        6,
        6,
        6,
        6,
        6,
        6,
        6,
        6,
        6,
        6,
        6,
        6,
        6,
        6,
        6,
        6,
        6,
        6,
        6,
        6,
        6,
        6,
        6,
        6,
        6,
        6,
        6,
        6,
        6,
        6,
        6,
        6,
        6,
        6,
        6,
        6,
        6,
        6,
        6,
        6,
        6,
        6,
        6,
        6,
        6,
        6,
        6,
        6,
        6,
        6,
        6,
        6,
        6,
        6,
        6,
        6,
        6,
        6,
        6,
        6,
        6,
        6,
        6,
        6,
        6,
        6,
        6,
        6,
        6,
        6,
        6,
        6,
        1,
        1,
        1,
        1,
        1,
        1,
        1,
        1,
        1,
        1,
        1,
        1,
        1,
        1,
        1,
        1,
        6,
        6,
        6,
        6,
        6,
        6,
        6,
        6,
        6,
        6,
        6,
        6,
        6,
        6,
        6,
        6,
        6,
        6,
        6,
        6,
        6,
        6,
        6,
        6,
        6,
        6,
        6,
        6,
        6,
        6,
        6,
        6,
        6,
        6,
        6,
        6,
        6,
        6,
        6,
        6,
        6,
        6,
        6,
        6,
        6,
        6,
        6,
        6,
        6,
        6,
        6,
        6,
        6,
        6,
        6,
        6,
        6,
        6,
        6,
        6,
        6,
        6,
        6,
        6,
        6,
        6,
        6,
        6,
        6,
        6,
        6,
        6,
        6,
        6,
        6,
        6,
        6,
        6,
        6,
        6,
        6,
        6,
        6,
        6,
        6,
        6,
        6,
        6,
        6,
        6,
        6,
        6,
        6,
        6,
        6,
        6,
        6,
        6,
        6,
        6,
        6,
        6,
        6,
        6,
        6,
        6,
        6,
        6,
        6,
        6,
        1,
        1,
        1,
        1,
        1,
        1,
        1,
        1,
        1,
        1,
        1,
        1,
        1,
        1,
        1,
        1,
        6,
        6,
        6,
        6,
        6,
        6,
        6,
        6,
        6,
        6,
        6,
        6,
        6,
        6,
        6,
        6,
        6,
        6,
        6,
        6,
        6,
        6,
        6,
        6,
        6,
        6,
        6,
        6,
        6,
        6,
        6,
        6,
        6,
        6,
        6,
        6,
        6,
        6,
        6,
        6,
        6,
        6,
        6,
        6,
        6,
        6,
        6,
        6,
        6,
        6,
        6,
        6,
        6,
        6,
        6,
        6,
        6,
        6,
        6,
        6,
        6,
        6,
        6,
        6,
        6,
        6,
        6,
        6,
        6,
        6,
        6,
        6,
        6,
        6,
        6,
        6,
        6,
        6,
        6,
        6,
        6,
        6,
        6,
        6,
        6,
        6,
        6,
        6,
        6,
        6,
        6,
        6,
        6,
        6,
        6,
        6,
        6,
        6,
        6,
        6,
        6,
        6,
        6,
        6,
        6,
        6,
        6,
        6,
        6,
        6,
        1,
        1,
        1,
        1,
        1,
        1,
        1,
        1,
        1,
        1,
        1,
        1,
        1,
        1,
        1,
        6,
        6,
        6,
        6,
        6,
        6,
        6,
        6,
        6,
        6,
        6,
        6,
        6,
        6,
        6,
        6,
        6,
        6,
        6,
        6,
        6,
        6,
        6,
        6,
        6,
        6,
        6,
        6,
        6,
        6,
        6,
        6,
        6,
        6,
        6,
        6,
        6,
        6,
        6,
        6,
        6,
        6,
        6,
        6,
        6,
        6,
        6,
        6,
        6,
        6,
        6,
        6,
        6,
        6,
        6,
        6,
        6,
        6,
        6,
        6,
        6,
        6,
        6,
        6,
        6,
        6,
        6,
        6,
        6,
        6,
        6,
        6,
        6,
        6,
        6,
        6,
        6,
        6,
        6,
        6,
        6,
        6,
        6,
        6,
        6,
        6,
        6,
        6,
        6,
        6,
        6,
        6,
        6,
        6,
        6,
        6,
        6,
        6,
        6,
        6,
        6,
        6,
        6,
        6,
        6,
        6,
        6,
        6,
        6,
        6,
        6,
        1,
        1,
        1,
        1,
        1,
        1,
        1,
        1,
        1,
        1,
        1,
        1,
        1,
        1,
        1,
        6,
        6,
        6,
        6,
        6,
        6,
        6,
        6,
        6,
        6,
        6,
        6,
        6,
        6,
        6,
        6,
        6,
        6,
        6,
        6,
        6,
        6,
        6,
        6,
        6,
        6,
        6,
        6,
        6,
        6,
        6,
        6,
        6,
        6,
        6,
        6,
        6,
        6,
        6,
        6,
        6,
        6,
        6,
        6,
        6,
        6,
        6,
        6,
        6,
        6,
        6,
        6,
        6,
        6,
        6,
        6,
        6,
        6,
        6,
        6,
        6,
        6,
        6,
        6,
        6,
        6,
        6,
        6,
        6,
        6,
        6,
        6,
        6,
        6,
        6,
        6,
        6,
        6,
        6,
        6,
        6,
        6,
        6,
        6,
        6,
        6,
        6,
        6,
        6,
        6,
        6,
        6,
        6,
        6,
        6,
        6,
        6,
        6,
        6,
        6,
        6,
        6,
        6,
        6,
        6,
        6,
        6,
        6,
        6,
        6,
        6,
        1,
        1,
        1,
        1,
        1,
        1,
        1,
        1,
        1,
        1,
        1,
        1,
        1,
        1,
        1,
        6,
        6,
        6,
        6,
        6,
        6,
        6,
        6,
        6,
        6,
        6,
        6,
        6,
        6,
        6,
        6,
        6,
        6,
        6,
        6,
        6,
        6,
        6,
        6,
        6,
        6,
        6,
        6,
        6,
        6,
        6,
        6,
        6,
        6,
        6,
        6,
        6,
        6,
        6,
        6,
        6,
        6,
        6,
        6,
        6,
        6,
        6,
        6,
        6,
        6,
        6,
        6,
        6,
        6,
        6,
        6,
        6,
        6,
        6,
        6,
        6,
        6,
        6,
        6,
        6,
        6,
        6,
        6,
        6,
        6,
        6,
        6,
        6,
        6,
        6,
        6,
        6,
        6,
        6,
        6,
        6,
        6,
        6,
        6,
        6,
        6,
        6,
        6,
        6,
        6,
        6,
        6,
        6,
        6,
        6,
        6,
        6,
        6,
        6,
        6,
        6,
        6,
        6,
        6,
        6,
        6,
        6,
        6,
        6,
        6,
        6,
        1,
        1,
        1,
        1,
        1,
        1,
        1,
        1,
        1,
        1,
        1,
        1,
        1,
        1,
        1,
        6,
        6,
        6,
        6,
        6,
        6,
        6,
        6,
        6,
        6,
        6,
        6,
        6,
        6,
        6,
        6,
        6,
        6,
        6,
        6,
        6,
        6,
        6,
        6,
        6,
        6,
        6,
        6,
        6,
        6,
        6,
        6,
        6,
        6,
        6,
        6,
        6,
        6,
        6,
        6,
        6,
        6,
        6,
        6,
        6,
        6,
        6,
        6,
        6,
        6,
        6,
        6,
        6,
        6,
        6,
        6,
        6,
        6,
        6,
        6,
        6,
        6,
        6,
        6,
        6,
        6,
        6,
        6,
        6,
        6,
        6,
        6,
        6,
        6,
        6,
        6,
        6,
        6,
        6,
        6,
        6,
        6,
        6,
        6,
        6,
        6,
        6,
        6,
        6,
        6,
        6,
        6,
        6,
        6,
        6,
        6,
        6,
        6,
        6,
        6,
        6,
        6,
        6,
        6,
        6,
        6,
        6,
        6,
        6,
        6,
        6,
        1,
        1,
        1,
        1,
        1,
        1,
        1,
        1,
        1,
        1,
        1,
        1,
        1,
        1,
        1,
        6,
        6,
        6,
        6,
        6,
        6,
        6,
        6,
        6,
        6,
        6,
        6,
        6,
        6,
        6,
        6,
        6,
        6,
        6,
        6,
        6,
        6,
        6,
        6,
        6,
        6,
        6,
        6,
        6,
        6,
        6,
        6,
        6,
        6,
        6,
        6,
        6,
        6,
        6,
        6,
        6,
        6,
        6,
        6,
        6,
        6,
        6,
        6,
        6,
        6,
        6,
        6,
        6,
        6,
        6,
        6,
        6,
        6,
        6,
        6,
        6,
        6,
        6,
        6,
        6,
        6,
        6,
        6,
        6,
        6,
        6,
        6,
        6,
        6,
        6,
        6,
        6,
        6,
        6,
        6,
        6,
        6,
        6,
        6,
        6,
        6,
        6,
        6,
        6,
        6,
        6,
        6,
        6,
        6,
        6,
        6,
        6,
        6,
        6,
        6,
        6,
        6,
        6,
        6,
        6,
        6,
        6,
        6,
        6,
        6,
        6,
        1,
        1,
        1,
        1,
        1,
        1,
        1,
        1,
        1,
        1,
        1,
        1,
        1,
        1,
        1,
        6,
        6,
        6,
        6,
        6,
        6,
        6,
        6,
        6,
        6,
        6,
        6,
        6,
        6,
        6,
        6,
        6,
        6,
        6,
        6,
        6,
        6,
        6,
        6,
        6,
        6,
        6,
        6,
        6,
        6,
        6,
        6,
        6,
        6,
        6,
        6,
        6,
        6,
        6,
        6,
        6,
        6,
        6,
        6,
        6,
        6,
        6,
        6,
        6,
        6,
        6,
        6,
        6,
        6,
        6,
        6,
        6,
        6,
        6,
        6,
        6,
        6,
        6,
        6,
        6,
        6,
        6,
        6,
        6,
        6,
        6,
        6,
        6,
        6,
        6,
        6,
        6,
        6,
        6,
        6,
        6,
        6,
        6,
        6,
        6,
        6,
        6,
        6,
        6,
        6,
        6,
        6,
        6,
        6,
        6,
        6,
        6,
        6,
        6,
        6,
        6,
        6,
        6,
        6,
        6,
        6,
        6,
        6,
        6,
        6,
        6,
        1,
        1,
        1,
        1,
        1,
        1,
        1,
        1,
        1,
        1,
        1,
        1,
        1,
        1,
        1,
        6,
        6,
        6,
        6,
        6,
        6,
        6,
        6,
        6,
        6,
        6,
        6,
        6,
        6,
        6,
        6,
        6,
        6,
        6,
        6,
        6,
        6,
        6,
        6,
        6,
        6,
        6,
        6,
        6,
        6,
        6,
        6,
        6,
        6,
        6,
        6,
        6,
        6,
        6,
        6,
        6,
        6,
        6,
        6,
        6,
        6,
        6,
        6,
        6,
        6,
        6,
        6,
        6,
        6,
        6,
        6,
        6,
        6,
        6,
        6,
        6,
        6,
        6,
        6,
        6,
        6,
        6,
        6,
        6,
        6,
        6,
        6,
        6,
        6,
        6,
        6,
        6,
        6,
        6,
        6,
        6,
        6,
        6,
        6,
        6,
        6,
        6,
        6,
        6,
        6,
        6,
        6,
        6,
        6,
        6,
        6,
        6,
        6,
        6,
        6,
        6,
        6,
        6,
        6,
        6,
        6,
        6,
        6,
        6,
        6,
        6,
        1,
        1,
        1,
        1,
        1,
        1,
        1,
        1,
        1,
        1,
        1,
        1,
        1,
        1,
        1,
        6,
        6,
        6,
        6,
        6,
        6,
        6,
        6,
        6,
        6,
        6,
        6,
        6,
        6,
        6,
        6,
        6,
        6,
        6,
        6,
        6,
        6,
        6,
        6,
        6,
        6,
        6,
        6,
        6,
        6,
        6,
        6,
        6,
        6,
        6,
        6,
        6,
        6,
        6,
        6,
        6,
        6,
        6,
        6,
        6,
        6,
        6,
        6,
        6,
        6,
        6,
        6,
        6,
        6,
        6,
        6,
        6,
        6,
        6,
        6,
        6,
        6,
        6,
        6,
        6,
        6,
        6,
        6,
        6,
        6,
        6,
        6,
        6,
        6,
        6,
        6,
        6,
        6,
        6,
        6,
        6,
        6,
        6,
        6,
        6,
        6,
        6,
        6,
        6,
        6,
        6,
        6,
        6,
        6,
        6,
        6,
        6,
        6,
        6,
        6,
        6,
        6,
        6,
        6,
        6,
        6,
        6,
        6,
        6,
        6,
        6,
        1,
        1,
        1,
        1,
        1,
        1,
        1,
        1,
        1,
        1,
        1,
        1,
        1,
        1,
        1,
        6,
        6,
        6,
        6,
        6,
        6,
        6,
        6,
        6,
        6,
        6,
        6,
        6,
        6,
        6,
        6,
        6,
        6,
        6,
        6,
        6,
        6,
        6,
        6,
        6,
        6,
        6,
        6,
        6,
        6,
        6,
        6,
        6,
        6,
        6,
        6,
        6,
        6,
        6,
        6,
        6,
        6,
        6,
        6,
        6,
        6,
        6,
        6,
        6,
        6,
        6,
        6,
        6,
        6,
        6,
        6,
        6,
        6,
        6,
        6,
        6,
        6,
        6,
        6,
        6,
        6,
        6,
        6,
        6,
        6,
        6,
        6,
        6,
        6,
        6,
        6,
        6,
        6,
        6,
        6,
        6,
        6,
        6,
        6,
        6,
        6,
        6,
        6,
        6,
        6,
        6,
        6,
        6,
        6,
        6,
        6,
        6,
        6,
        6,
        6,
        6,
        6,
        6,
        6,
        6,
        6,
        6,
        6,
        6,
        6,
        6,
        1,
        1,
        1,
        1,
        1,
        1,
        1,
        1,
        1,
        1,
        1,
        1,
        1,
        1,
        1,
        1,
        6,
        6,
        6,
        6,
        6,
        6,
        6,
        6,
        6,
        6,
        6,
        6,
        6,
        6,
        6,
        6,
        6,
        6,
        6,
        6,
        6,
        6,
        6,
        6,
        6,
        6,
        6,
        6,
        6,
        6,
        6,
        6,
        6,
        6,
        6,
        6,
        6,
        6,
        6,
        6,
        6,
        6,
        6,
        6,
        6,
        6,
        6,
        6,
        6,
        6,
        6,
        6,
        6,
        6,
        6,
        6,
        6,
        6,
        6,
        6,
        6,
        6,
        6,
        6,
        6,
        6,
        6,
        6,
        6,
        6,
        6,
        6,
        6,
        6,
        6,
        6,
        6,
        6,
        6,
        6,
        6,
        6,
        6,
        6,
        6,
        6,
        6,
        6,
        6,
        6,
        6,
        6,
        6,
        6,
        6,
        6,
        6,
        6,
        6,
        6,
        6,
        6,
        6,
        6,
        6,
        6,
        6,
        6,
        6,
        6,
        1,
        1,
        1,
        1,
        1,
        1,
        1,
        1,
        1,
        1,
        1,
        1,
        1,
        1,
        1,
        1,
        6,
        6,
        6,
        6,
        6,
        6,
        6,
        6,
        6,
        6,
        6,
        6,
        6,
        6,
        6,
        6,
        6,
        6,
        6,
        6,
        6,
        6,
        6,
        6,
        6,
        6,
        6,
        6,
        6,
        6,
        6,
        6,
        6,
        6,
        6,
        6,
        6,
        6,
        6,
        6,
        6,
        6,
        6,
        6,
        6,
        6,
        6,
        6,
        6,
        6,
        6,
        6,
        6,
        6,
        6,
        6,
        6,
        6,
        6,
        6,
        6,
        6,
        6,
        6,
        6,
        6,
        6,
        6,
        6,
        6,
        6,
        6,
        6,
        6,
        6,
        6,
        6,
        6,
        6,
        6,
        6,
        6,
        6,
        6,
        6,
        6,
        6,
        6,
        6,
        6,
        6,
        6,
        6,
        6,
        6,
        6,
        6,
        6,
        6,
        6,
        6,
        6,
        6,
        6,
        6,
        6,
        6,
        6,
        6,
        6,
        1,
        1,
        1,
        1,
        1,
        1,
        1,
        1,
        1,
        1,
        1,
        1,
        1,
        1,
        1,
        1,
        1,
        6,
        6,
        6,
        6,
        6,
        6,
        6,
        6,
        6,
        6,
        6,
        6,
        6,
        6,
        6,
        6,
        6,
        6,
        6,
        6,
        6,
        6,
        6,
        6,
        6,
        6,
        6,
        6,
        6,
        6,
        6,
        6,
        6,
        6,
        6,
        6,
        6,
        6,
        6,
        6,
        6,
        6,
        6,
        6,
        6,
        6,
        6,
        6,
        6,
        6,
        6,
        6,
        6,
        6,
        6,
        6,
        6,
        6,
        6,
        6,
        6,
        6,
        6,
        6,
        6,
        6,
        6,
        6,
        6,
        6,
        6,
        6,
        6,
        6,
        6,
        6,
        6,
        6,
        6,
        6,
        6,
        6,
        6,
        6,
        6,
        6,
        6,
        6,
        6,
        6,
        6,
        6,
        6,
        6,
        6,
        6,
        6,
        6,
        6,
        6,
        6,
        6,
        6,
        6,
        6,
        6,
        6,
        6,
        6,
        1,
        1,
        1,
        1,
        1,
        1,
        1,
        1,
        1,
        1,
        1,
        1,
        1,
        1,
        1,
        1,
        1,
        6,
        6,
        6,
        6,
        6,
        6,
        6,
        6,
        6,
        6,
        6,
        6,
        6,
        6,
        6,
        6,
        6,
        6,
        6,
        6,
        6,
        6,
        6,
        6,
        6,
        6,
        6,
        6,
        6,
        6,
        6,
        6,
        6,
        6,
        6,
        6,
        6,
        6,
        6,
        6,
        6,
        6,
        6,
        6,
        6,
        6,
        6,
        6,
        6,
        6,
        6,
        6,
        6,
        6,
        6,
        6,
        6,
        6,
        6,
        6,
        6,
        6,
        6,
        6,
        6,
        6,
        6,
        6,
        6,
        6,
        6,
        6,
        6,
        6,
        6,
        6,
        6,
        6,
        6,
        6,
        6,
        6,
        6,
        6,
        6,
        6,
        6,
        6,
        6,
        6,
        6,
        6,
        6,
        6,
        6,
        6,
        6,
        6,
        6,
        6,
        6,
        6,
        6,
        6,
        6,
        6,
        6,
        6,
        6,
        1,
        1,
        1,
        1,
        1,
        1,
        1,
        1,
        1,
        1,
        1,
        1,
        1,
        1,
        1,
        1,
        1,
        6,
        6,
        6,
        6,
        6,
        6,
        6,
        6,
        6,
        6,
        6,
        6,
        6,
        6,
        6,
        6,
        6,
        6,
        6,
        6,
        6,
        6,
        6,
        6,
        6,
        6,
        6,
        6,
        6,
        6,
        6,
        6,
        6,
        6,
        6,
        6,
        6,
        6,
        6,
        6,
        6,
        6,
        6,
        6,
        6,
        6,
        6,
        6,
        6,
        6,
        6,
        6,
        6,
        6,
        6,
        6,
        6,
        6,
        6,
        6,
        6,
        6,
        6,
        6,
        6,
        6,
        6,
        6,
        6,
        6,
        6,
        6,
        6,
        6,
        6,
        6,
        6,
        6,
        6,
        6,
        6,
        6,
        6,
        6,
        6,
        6,
        6,
        6,
        6,
        6,
        6,
        6,
        6,
        6,
        6,
        6,
        6,
        6,
        6,
        6,
        6,
        6,
        6,
        6,
        6,
        6,
        6,
        6,
        6,
        6,
        1,
        1,
        1,
        1,
        1,
        1,
        1,
        1,
        1,
        1,
        1,
        1,
        1,
        1,
        1,
        1,
        1,
        6,
        6,
        6,
        6,
        6,
        6,
        6,
        6,
        6,
        6,
        6,
        6,
        6,
        6,
        6,
        6,
        6,
        6,
        6,
        6,
        6,
        6,
        6,
        6,
        6,
        6,
        6,
        6,
        6,
        6,
        6,
        6,
        6,
        6,
        6,
        6,
        6,
        6,
        6,
        6,
        6,
        6,
        6,
        6,
        6,
        6,
        6,
        6,
        6,
        6,
        6,
        6,
        6,
        6,
        6,
        6,
        6,
        6,
        6,
        6,
        6,
        6,
        6,
        6,
        6,
        6,
        6,
        6,
        6,
        6,
        6,
        6,
        6,
        6,
        6,
        6,
        6,
        6,
        6,
        6,
        6,
        6,
        6,
        6,
        6,
        6,
        6,
        6,
        6,
        6,
        6,
        6,
        6,
        6,
        6,
        6,
        6,
        6,
        6,
        6,
        6,
        6,
        6,
        6,
        6,
        6,
        6,
        6,
        6,
        1,
        1,
        1,
        1,
        1,
        1,
        1,
        1,
        1,
        1,
        1,
        1,
        1,
        1,
        1,
        1,
        1,
        3,
        3,
        3,
        3,
        3,
        3,
        3,
        3,
        3,
        3,
        3,
        3,
        3,
        3,
        3,
        3,
        3,
        3,
        3,
        3,
        3,
        3,
        3,
        3,
        3,
        3,
        3,
        3,
        3,
        3,
        3,
        3,
        3,
        3,
        3,
        3,
        3,
        3,
        3,
        3,
        3,
        3,
        3,
        3,
        3,
        3,
        3,
        3,
        3,
        3,
        3,
        3,
        3,
        3,
        3,
        3,
        3,
        3,
        3,
        3,
        3,
        3,
        3,
        3,
        3,
        3,
        3,
        3,
        3,
        3,
        3,
        3,
        3,
        3,
        3,
        3,
        3,
        4,
        4,
        4,
        4,
        4,
        4,
        4,
        4,
        4,
        4,
        4,
        4,
        4,
        5,
        5,
        5,
        5,
        5,
        5,
        5,
        5,
        5,
        5,
        5,
        5,
        5,
        5,
        5,
        5,
        5,
        5,
        5,
        1,
        1,
        1,
        1,
        1,
        1,
        1,
        1,
        1,
        1,
        1,
        1,
        1,
        1,
        1,
        1,
        1,
        1,
        3,
        3,
        3,
        3,
        3,
        3,
        3,
        3,
        3,
        3,
        3,
        3,
        3,
        3,
        3,
        3,
        3,
        3,
        3,
        3,
        3,
        3,
        3,
        3,
        3,
        3,
        3,
        3,
        3,
        3,
        3,
        3,
        3,
        3,
        3,
        3,
        3,
        3,
        3,
        3,
        3,
        3,
        3,
        3,
        3,
        3,
        3,
        3,
        3,
        3,
        3,
        3,
        3,
        3,
        3,
        3,
        3,
        3,
        3,
        3,
        3,
        3,
        3,
        3,
        3,
        3,
        3,
        3,
        3,
        3,
        3,
        3,
        3,
        3,
        3,
        3,
        4,
        4,
        4,
        4,
        4,
        4,
        4,
        4,
        4,
        4,
        4,
        4,
        4,
        5,
        5,
        5,
        5,
        5,
        5,
        5,
        5,
        5,
        5,
        5,
        5,
        5,
        5,
        5,
        5,
        5,
        5,
        5,
        1,
        1,
        1,
        1,
        1,
        1,
        1,
        1,
        1,
        1,
        1,
        1,
        1,
        1,
        1,
        1,
        1,
        1,
        3,
        3,
        3,
        3,
        3,
        3,
        3,
        3,
        3,
        3,
        3,
        3,
        3,
        3,
        3,
        3,
        3,
        3,
        3,
        3,
        3,
        3,
        3,
        3,
        3,
        3,
        3,
        3,
        3,
        3,
        3,
        3,
        3,
        3,
        3,
        3,
        3,
        3,
        3,
        3,
        3,
        3,
        3,
        3,
        3,
        3,
        3,
        3,
        3,
        3,
        3,
        3,
        3,
        3,
        3,
        3,
        3,
        3,
        3,
        3,
        3,
        3,
        3,
        3,
        3,
        3,
        3,
        3,
        3,
        3,
        3,
        3,
        3,
        3,
        3,
        3,
        4,
        4,
        4,
        4,
        4,
        4,
        4,
        4,
        4,
        4,
        4,
        4,
        4,
        5,
        5,
        5,
        5,
        5,
        5,
        5,
        5,
        5,
        5,
        5,
        5,
        5,
        5,
        5,
        5,
        5,
        5,
        5,
        1,
        1,
        1,
        1,
        1,
        1,
        1,
        1,
        1,
        1,
        1,
        1,
        1,
        1,
        1,
        1,
        1,
        1,
        3,
        3,
        3,
        3,
        3,
        3,
        3,
        3,
        3,
        3,
        3,
        3,
        3,
        3,
        3,
        3,
        3,
        3,
        3,
        3,
        3,
        3,
        3,
        3,
        3,
        3,
        3,
        3,
        3,
        3,
        3,
        3,
        3,
        3,
        3,
        3,
        3,
        3,
        3,
        3,
        3,
        3,
        3,
        3,
        3,
        3,
        3,
        3,
        3,
        3,
        3,
        3,
        3,
        3,
        3,
        3,
        3,
        3,
        3,
        3,
        3,
        3,
        3,
        3,
        3,
        3,
        3,
        3,
        3,
        3,
        3,
        3,
        3,
        3,
        3,
        3,
        4,
        4,
        4,
        4,
        4,
        4,
        4,
        4,
        4,
        4,
        4,
        4,
        4,
        5,
        5,
        5,
        5,
        5,
        5,
        5,
        5,
        5,
        5,
        5,
        5,
        5,
        5,
        5,
        5,
        5,
        5,
        5,
        1,
        1,
        1,
        1,
        1,
        1,
        1,
        1,
        1,
        1,
        1,
        1,
        1,
        1,
        1,
        1,
        1,
        1,
        3,
        3,
        3,
        3,
        3,
        3,
        3,
        3,
        3,
        3,
        3,
        3,
        3,
        3,
        3,
        3,
        3,
        3,
        3,
        3,
        3,
        3,
        3,
        3,
        3,
        3,
        3,
        3,
        3,
        3,
        3,
        3,
        3,
        3,
        3,
        3,
        3,
        3,
        3,
        3,
        3,
        3,
        3,
        3,
        3,
        3,
        3,
        3,
        3,
        3,
        3,
        3,
        3,
        3,
        3,
        3,
        3,
        3,
        3,
        3,
        3,
        3,
        3,
        3,
        3,
        3,
        3,
        3,
        3,
        3,
        3,
        3,
        3,
        3,
        3,
        3,
        4,
        4,
        4,
        4,
        4,
        4,
        4,
        4,
        4,
        4,
        4,
        4,
        4,
        5,
        5,
        5,
        5,
        5,
        5,
        5,
        5,
        5,
        5,
        5,
        5,
        5,
        5,
        5,
        5,
        5,
        5,
        5,
        1,
        1,
        1,
        1,
        1,
        1,
        1,
        1,
        1,
        1,
        1,
        1,
        1,
        1,
        1,
        1,
        1,
        1,
        3,
        3,
        3,
        3,
        3,
        3,
        3,
        3,
        3,
        3,
        3,
        3,
        3,
        3,
        3,
        3,
        3,
        3,
        3,
        3,
        3,
        3,
        3,
        3,
        3,
        3,
        3,
        3,
        3,
        3,
        3,
        3,
        3,
        3,
        3,
        3,
        3,
        3,
        3,
        3,
        3,
        3,
        3,
        3,
        3,
        3,
        3,
        3,
        3,
        3,
        3,
        3,
        3,
        3,
        3,
        3,
        3,
        3,
        3,
        3,
        3,
        3,
        3,
        3,
        3,
        3,
        3,
        3,
        3,
        3,
        3,
        3,
        3,
        3,
        3,
        3,
        4,
        4,
        4,
        4,
        4,
        4,
        4,
        4,
        4,
        4,
        4,
        4,
        4,
        5,
        5,
        5,
        5,
        5,
        5,
        5,
        5,
        5,
        5,
        5,
        5,
        5,
        5,
        5,
        5,
        5,
        5,
        5,
        1,
        1,
        1,
        1,
        1,
        1,
        1,
        1,
        1,
        1,
        1,
        1,
        1,
        1,
        1,
        1,
        1,
        1,
        3,
        3,
        3,
        3,
        3,
        3,
        3,
        3,
        3,
        3,
        3,
        3,
        3,
        3,
        3,
        3,
        3,
        3,
        3,
        3,
        3,
        3,
        3,
        3,
        3,
        3,
        3,
        3,
        3,
        3,
        3,
        3,
        3,
        3,
        3,
        3,
        3,
        3,
        3,
        3,
        3,
        3,
        3,
        3,
        3,
        3,
        3,
        3,
        3,
        3,
        3,
        3,
        3,
        3,
        3,
        3,
        3,
        3,
        3,
        3,
        3,
        3,
        3,
        3,
        3,
        3,
        3,
        3,
        3,
        3,
        3,
        3,
        3,
        3,
        3,
        3,
        3,
        3,
        3,
        3,
        3,
        3,
        3,
        3,
        3,
        3,
        3,
        3,
        4,
        5,
        5,
        5,
        5,
        5,
        5,
        5,
        5,
        5,
        5,
        5,
        5,
        5,
        5,
        5,
        5,
        5,
        5,
        5,
        5,
        1,
        1,
        1,
        1,
        1,
        1,
        1,
        1,
        1,
        1,
        1,
        1,
        1,
        1,
        1,
        1,
        1,
        3,
        3,
        3,
        3,
        3,
        3,
        3,
        3,
        3,
        3,
        3,
        3,
        3,
        3,
        3,
        3,
        3,
        3,
        3,
        3,
        3,
        3,
        3,
        3,
        3,
        3,
        3,
        3,
        3,
        3,
        3,
        3,
        3,
        3,
        3,
        3,
        3,
        3,
        3,
        3,
        3,
        3,
        3,
        3,
        3,
        3,
        3,
        3,
        3,
        3,
        3,
        3,
        3,
        3,
        3,
        3,
        3,
        3,
        3,
        3,
        3,
        3,
        3,
        3,
        3,
        3,
        3,
        3,
        3,
        3,
        3,
        3,
        3,
        3,
        3,
        3,
        3,
        3,
        3,
        3,
        3,
        3,
        3,
        3,
        3,
        3,
        3,
        3,
        4,
        5,
        5,
        5,
        5,
        5,
        5,
        5,
        5,
        5,
        5,
        5,
        5,
        5,
        5,
        5,
        5,
        5,
        5,
        5,
        5,
        1,
        1,
        1,
        1,
        1,
        1,
        1,
        1,
        1,
        1,
        1,
        1,
        1,
        1,
        1,
        1,
        1,
        3,
        3,
        3,
        3,
        3,
        3,
        3,
        3,
        3,
        3,
        3,
        3,
        3,
        3,
        3,
        3,
        3,
        3,
        3,
        3,
        3,
        3,
        3,
        3,
        3,
        3,
        3,
        3,
        3,
        3,
        3,
        3,
        3,
        3,
        3,
        3,
        3,
        3,
        3,
        3,
        3,
        3,
        3,
        3,
        3,
        3,
        3,
        3,
        3,
        3,
        3,
        3,
        3,
        3,
        3,
        3,
        3,
        3,
        3,
        3,
        3,
        3,
        3,
        3,
        3,
        3,
        3,
        3,
        3,
        3,
        3,
        3,
        3,
        3,
        3,
        3,
        3,
        3,
        3,
        3,
        3,
        3,
        3,
        3,
        3,
        3,
        3,
        3,
        4,
        5,
        5,
        5,
        5,
        5,
        5,
        5,
        5,
        5,
        5,
        5,
        5,
        5,
        5,
        5,
        5,
        5,
        5,
        5,
        5,
        1,
        1,
        1,
        1,
        1,
        1,
        1,
        1,
        1,
        1,
        1,
        1,
        1,
        1,
        1,
        1,
        1,
        3,
        3,
        3,
        3,
        3,
        3,
        3,
        3,
        3,
        3,
        3,
        3,
        3,
        3,
        3,
        3,
        3,
        3,
        3,
        3,
        3,
        3,
        3,
        3,
        3,
        3,
        3,
        3,
        3,
        3,
        3,
        3,
        3,
        3,
        3,
        3,
        3,
        3,
        3,
        3,
        3,
        3,
        3,
        3,
        3,
        3,
        3,
        3,
        3,
        3,
        3,
        3,
        3,
        3,
        3,
        3,
        3,
        3,
        3,
        3,
        3,
        3,
        3,
        3,
        3,
        3,
        3,
        3,
        3,
        3,
        3,
        3,
        3,
        3,
        3,
        3,
        3,
        3,
        3,
        3,
        3,
        3,
        3,
        3,
        3,
        3,
        3,
        3,
        4,
        5,
        5,
        5,
        5,
        5,
        5,
        5,
        5,
        5,
        5,
        5,
        5,
        5,
        5,
        5,
        5,
        5,
        5,
        5,
        5,
        1,
        1,
        1,
        1,
        1,
        1,
        1,
        1,
        1,
        1,
        1,
        1,
        1,
        1,
        1,
        1,
        3,
        3,
        3,
        3,
        3,
        3,
        3,
        3,
        3,
        3,
        3,
        3,
        3,
        3,
        3,
        3,
        3,
        3,
        3,
        3,
        3,
        3,
        3,
        3,
        3,
        3,
        3,
        3,
        3,
        3,
        3,
        3,
        3,
        3,
        3,
        3,
        3,
        3,
        3,
        3,
        3,
        3,
        3,
        3,
        3,
        3,
        3,
        3,
        3,
        3,
        3,
        3,
        3,
        3,
        3,
        3,
        3,
        3,
        3,
        3,
        3,
        3,
        3,
        3,
        3,
        3,
        3,
        3,
        3,
        3,
        3,
        3,
        3,
        3,
        3,
        3,
        3,
        3,
        3,
        3,
        3,
        3,
        3,
        3,
        3,
        3,
        3,
        3,
        3,
        4,
        5,
        5,
        5,
        5,
        5,
        5,
        5,
        5,
        5,
        5,
        5,
        5,
        5,
        5,
        5,
        5,
        5,
        5,
        5,
        5,
        1,
        1,
        1,
        1,
        1,
        1,
        1,
        1,
        1,
        1,
        1,
        1,
        1,
        1,
        1,
        1,
        3,
        3,
        3,
        3,
        3,
        3,
        3,
        3,
        3,
        3,
        3,
        3,
        3,
        3,
        3,
        3,
        3,
        3,
        3,
        3,
        3,
        3,
        3,
        3,
        3,
        3,
        3,
        3,
        3,
        3,
        3,
        3,
        3,
        3,
        3,
        3,
        3,
        3,
        3,
        3,
        3,
        3,
        3,
        3,
        3,
        3,
        3,
        3,
        3,
        3,
        3,
        3,
        3,
        3,
        3,
        3,
        3,
        3,
        3,
        3,
        3,
        3,
        3,
        3,
        3,
        3,
        3,
        3,
        3,
        3,
        3,
        3,
        3,
        3,
        3,
        3,
        3,
        3,
        3,
        3,
        3,
        3,
        3,
        3,
        3,
        3,
        3,
        3,
        3,
        4,
        5,
        5,
        5,
        5,
        5,
        5,
        5,
        5,
        5,
        5,
        5,
        5,
        5,
        5,
        5,
        5,
        5,
        5,
        5,
        5,
        1,
        1,
        1,
        1,
        1,
        1,
        1,
        1,
        1,
        1,
        1,
        1,
        1,
        1,
        1,
        3,
        3,
        3,
        3,
        3,
        3,
        3,
        3,
        3,
        3,
        3,
        3,
        3,
        3,
        3,
        3,
        3,
        3,
        3,
        3,
        3,
        3,
        3,
        3,
        3,
        3,
        3,
        3,
        3,
        3,
        3,
        3,
        3,
        3,
        3,
        3,
        3,
        3,
        3,
        3,
        3,
        3,
        3,
        3,
        3,
        3,
        3,
        3,
        3,
        3,
        3,
        3,
        3,
        3,
        3,
        3,
        3,
        3,
        3,
        3,
        3,
        3,
        3,
        3,
        3,
        3,
        3,
        3,
        3,
        3,
        3,
        3,
        3,
        3,
        3,
        3,
        3,
        3,
        3,
        3,
        3,
        3,
        3,
        3,
        3,
        3,
        3,
        3,
        3,
        3,
        4,
        5,
        5,
        5,
        5,
        5,
        5,
        5,
        5,
        5,
        5,
        5,
        5,
        5,
        5,
        5,
        5,
        5,
        5,
        5,
        5,
        1,
        1,
        1,
        1,
        1,
        1,
        1,
        1,
        1,
        1,
        1,
        1,
        1,
        1,
        1,
        3,
        3,
        3,
        3,
        3,
        3,
        3,
        3,
        3,
        3,
        3,
        3,
        3,
        3,
        3,
        3,
        3,
        3,
        3,
        3,
        3,
        3,
        3,
        3,
        3,
        3,
        3,
        3,
        3,
        3,
        3,
        3,
        3,
        3,
        3,
        3,
        3,
        3,
        3,
        3,
        3,
        3,
        3,
        3,
        3,
        3,
        3,
        3,
        3,
        3,
        3,
        3,
        3,
        3,
        3,
        3,
        3,
        3,
        3,
        3,
        3,
        3,
        3,
        3,
        3,
        3,
        3,
        3,
        3,
        3,
        3,
        3,
        3,
        3,
        3,
        3,
        3,
        3,
        3,
        3,
        3,
        3,
        3,
        3,
        3,
        3,
        3,
        3,
        3,
        3,
        4,
        5,
        5,
        5,
        5,
        5,
        5,
        5,
        5,
        5,
        5,
        5,
        5,
        5,
        5,
        5,
        5,
        5,
        5,
        5,
        5,
        1,
        1,
        1,
        1,
        1,
        1,
        1,
        1,
        1,
        1,
        1,
        1,
        1,
        1,
        1,
        3,
        3,
        3,
        3,
        3,
        3,
        3,
        3,
        3,
        3,
        3,
        3,
        3,
        3,
        3,
        3,
        3,
        3,
        3,
        3,
        3,
        3,
        3,
        3,
        3,
        3,
        3,
        3,
        3,
        3,
        3,
        3,
        3,
        3,
        3,
        3,
        3,
        3,
        3,
        3,
        3,
        3,
        3,
        3,
        3,
        3,
        3,
        3,
        3,
        3,
        3,
        3,
        3,
        3,
        3,
        3,
        3,
        3,
        3,
        3,
        3,
        3,
        3,
        3,
        3,
        3,
        3,
        3,
        3,
        3,
        3,
        3,
        3,
        3,
        3,
        3,
        3,
        3,
        3,
        3,
        3,
        3,
        3,
        3,
        3,
        3,
        3,
        3,
        3,
        3,
        4,
        5,
        5,
        5,
        5,
        5,
        5,
        5,
        5,
        5,
        5,
        5,
        5,
        5,
        5,
        5,
        5,
        5,
        5,
        5,
        5,
        1,
        1,
        1,
        1,
        1,
        1,
        1,
        1,
        1,
        1,
        1,
        1,
        1,
        1,
        1,
        3,
        3,
        3,
        3,
        3,
        3,
        3,
        3,
        3,
        3,
        3,
        3,
        3,
        3,
        3,
        3,
        3,
        3,
        3,
        3,
        3,
        3,
        3,
        3,
        3,
        3,
        3,
        3,
        3,
        3,
        3,
        3,
        3,
        3,
        3,
        3,
        3,
        3,
        3,
        3,
        3,
        3,
        3,
        3,
        3,
        3,
        3,
        3,
        3,
        3,
        3,
        3,
        3,
        3,
        3,
        3,
        3,
        3,
        3,
        3,
        3,
        3,
        3,
        3,
        3,
        3,
        3,
        3,
        3,
        3,
        3,
        3,
        3,
        3,
        3,
        3,
        3,
        3,
        3,
        3,
        3,
        3,
        3,
        3,
        3,
        3,
        3,
        3,
        3,
        3,
        4,
        5,
        5,
        5,
        5,
        5,
        5,
        5,
        5,
        5,
        5,
        5,
        5,
        5,
        5,
        5,
        5,
        5,
        5,
        5,
        5,
        1,
        1,
        1,
        1,
        1,
        1,
        1,
        1,
        1,
        1,
        1,
        1,
        1,
        1,
        3,
        3,
        3,
        3,
        3,
        3,
        3,
        3,
        3,
        3,
        3,
        3,
        3,
        3,
        3,
        3,
        3,
        3,
        3,
        3,
        3,
        3,
        3,
        3,
        3,
        3,
        3,
        3,
        3,
        3,
        3,
        3,
        3,
        3,
        3,
        3,
        3,
        3,
        3,
        3,
        3,
        3,
        3,
        3,
        3,
        3,
        3,
        3,
        3,
        3,
        3,
        3,
        3,
        3,
        3,
        3,
        3,
        3,
        3,
        3,
        3,
        3,
        3,
        3,
        3,
        3,
        3,
        3,
        3,
        3,
        3,
        3,
        3,
        3,
        3,
        3,
        3,
        3,
        3,
        3,
        3,
        3,
        3,
        3,
        3,
        3,
        3,
        3,
        3,
        3,
        3,
        4,
        5,
        5,
        5,
        5,
        5,
        5,
        5,
        5,
        5,
        5,
        5,
        5,
        5,
        5,
        5,
        5,
        5,
        5,
        5,
        5,
        1,
        1,
        1,
        1,
        1,
        1,
        1,
        1,
        1,
        1,
        1,
        1,
        1,
        1,
        3,
        3,
        3,
        3,
        3,
        3,
        3,
        3,
        3,
        3,
        3,
        3,
        3,
        3,
        3,
        3,
        3,
        3,
        3,
        3,
        3,
        3,
        3,
        3,
        3,
        3,
        3,
        3,
        3,
        3,
        3,
        3,
        3,
        3,
        3,
        3,
        3,
        3,
        3,
        3,
        3,
        3,
        3,
        3,
        3,
        3,
        3,
        3,
        3,
        3,
        3,
        3,
        3,
        3,
        3,
        3,
        3,
        3,
        3,
        3,
        3,
        3,
        3,
        3,
        3,
        3,
        3,
        3,
        3,
        3,
        3,
        3,
        3,
        3,
        3,
        3,
        3,
        3,
        3,
        3,
        3,
        3,
        3,
        3,
        3,
        3,
        3,
        3,
        3,
        3,
        3,
        4,
        5,
        5,
        5,
        5,
        5,
        5,
        5,
        5,
        5,
        5,
        5,
        5,
        5,
        5,
        5,
        5,
        5,
        5,
        5,
        5,
        1,
        1,
        1,
        1,
        1,
        1,
        1,
        1,
        1,
        1,
        1,
        1,
        1,
        3,
        3,
        3,
        3,
        3,
        3,
        3,
        3,
        3,
        3,
        3,
        3,
        3,
        3,
        3,
        3,
        3,
        3,
        3,
        3,
        3,
        3,
        3,
        3,
        3,
        3,
        3,
        3,
        3,
        3,
        3,
        3,
        3,
        3,
        3,
        3,
        3,
        3,
        3,
        3,
        3,
        3,
        3,
        3,
        3,
        3,
        3,
        3,
        3,
        3,
        3,
        3,
        3,
        3,
        3,
        3,
        3,
        3,
        3,
        3,
        3,
        3,
        3,
        3,
        3,
        3,
        3,
        3,
        3,
        3,
        3,
        3,
        3,
        3,
        3,
        3,
        3,
        3,
        3,
        3,
        3,
        3,
        3,
        3,
        3,
        3,
        3,
        3,
        3,
        3,
        3,
        3,
        4,
        5,
        5,
        5,
        5,
        5,
        5,
        5,
        5,
        5,
        5,
        5,
        5,
        5,
        5,
        5,
        5,
        5,
        5,
        5,
        5,
        1,
        1,
        1,
        1,
        1,
        1,
        1,
        1,
        1,
        1,
        1,
        1,
        1,
        3,
        3,
        3,
        3,
        3,
        3,
        3,
        3,
        3,
        3,
        3,
        3,
        3,
        3,
        3,
        3,
        3,
        3,
        3,
        3,
        3,
        3,
        3,
        3,
        3,
        3,
        3,
        3,
        3,
        3,
        3,
        3,
        3,
        3,
        3,
        3,
        3,
        3,
        3,
        3,
        3,
        3,
        3,
        3,
        3,
        3,
        3,
        3,
        3,
        3,
        3,
        3,
        3,
        3,
        3,
        3,
        3,
        3,
        3,
        3,
        3,
        3,
        3,
        3,
        3,
        3,
        3,
        3,
        3,
        3,
        3,
        3,
        3,
        3,
        3,
        3,
        3,
        3,
        3,
        3,
        3,
        3,
        3,
        3,
        3,
        3,
        3,
        3,
        3,
        3,
        3,
        3,
        4,
        5,
        5,
        5,
        5,
        5,
        5,
        5,
        5,
        5,
        5,
        5,
        5,
        5,
        5,
        5,
        5,
        5,
        5,
        5,
        5,
        1,
        1,
        1,
        1,
        1,
        1,
        1,
        1,
        1,
        1,
        1,
        1,
        1,
        3,
        3,
        3,
        3,
        3,
        3,
        3,
        3,
        3,
        3,
        3,
        3,
        3,
        3,
        3,
        3,
        3,
        3,
        3,
        3,
        3,
        3,
        3,
        3,
        3,
        3,
        3,
        3,
        3,
        3,
        3,
        3,
        3,
        3,
        3,
        3,
        3,
        3,
        3,
        3,
        3,
        3,
        3,
        3,
        3,
        3,
        3,
        3,
        3,
        3,
        3,
        3,
        3,
        3,
        3,
        3,
        3,
        3,
        3,
        3,
        3,
        3,
        3,
        3,
        3,
        3,
        3,
        3,
        3,
        3,
        3,
        3,
        3,
        3,
        3,
        3,
        3,
        3,
        3,
        3,
        3,
        3,
        3,
        3,
        3,
        3,
        3,
        3,
        3,
        3,
        3,
        3,
        4,
        5,
        5,
        5,
        5,
        5,
        5,
        5,
        5,
        5,
        5,
        5,
        5,
        5,
        5,
        5,
        5,
        5,
        5,
        5,
        5,
        1,
        1,
        1,
        1,
        1,
        1,
        1,
        1,
        1,
        1,
        1,
        1,
        1,
        3,
        3,
        3,
        3,
        3,
        3,
        3,
        3,
        3,
        3,
        3,
        3,
        3,
        3,
        3,
        3,
        3,
        3,
        3,
        3,
        3,
        3,
        3,
        3,
        3,
        3,
        3,
        3,
        3,
        3,
        3,
        3,
        3,
        3,
        3,
        3,
        3,
        3,
        3,
        3,
        3,
        3,
        3,
        3,
        3,
        3,
        3,
        3,
        3,
        3,
        3,
        3,
        3,
        3,
        3,
        3,
        3,
        3,
        3,
        3,
        3,
        3,
        3,
        3,
        3,
        3,
        3,
        3,
        3,
        3,
        3,
        3,
        3,
        3,
        3,
        3,
        3,
        3,
        3,
        3,
        3,
        3,
        3,
        3,
        3,
        3,
        3,
        3,
        3,
        3,
        3,
        3,
        4,
        5,
        5,
        5,
        5,
        5,
        5,
        5,
        5,
        5,
        5,
        5,
        5,
        5,
        5,
        5,
        5,
        5,
        5,
        5,
        5,
        1,
        1,
        1,
        1,
        1,
        1,
        1,
        1,
        1,
        1,
        1,
        1,
        1,
        3,
        3,
        3,
        3,
        3,
        3,
        3,
        3,
        3,
        3,
        3,
        3,
        3,
        3,
        3,
        3,
        3,
        3,
        3,
        3,
        3,
        3,
        3,
        3,
        3,
        3,
        3,
        3,
        3,
        3,
        3,
        3,
        3,
        3,
        3,
        3,
        3,
        3,
        3,
        3,
        3,
        3,
        3,
        3,
        3,
        3,
        3,
        3,
        3,
        3,
        3,
        3,
        3,
        3,
        3,
        3,
        3,
        3,
        3,
        3,
        3,
        3,
        3,
        3,
        3,
        3,
        3,
        3,
        3,
        3,
        3,
        3,
        3,
        3,
        3,
        3,
        3,
        3,
        3,
        3,
        3,
        3,
        3,
        3,
        3,
        3,
        3,
        3,
        3,
        3,
        3,
        3,
        4,
        5,
        5,
        5,
        5,
        5,
        5,
        5,
        5,
        5,
        5,
        5,
        5,
        5,
        5,
        5,
        5,
        5,
        5,
        5,
        1,
        1,
        1,
        1,
        1,
        1,
        1,
        1,
        1,
        1,
        1,
        1,
        1,
        1,
        3,
        3,
        3,
        3,
        3,
        3,
        3,
        3,
        3,
        3,
        3,
        3,
        3,
        3,
        3,
        3,
        3,
        3,
        3,
        3,
        3,
        3,
        3,
        3,
        3,
        3,
        3,
        3,
        3,
        3,
        3,
        3,
        3,
        3,
        3,
        3,
        3,
        3,
        3,
        3,
        3,
        3,
        3,
        3,
        3,
        3,
        3,
        3,
        3,
        3,
        3,
        3,
        3,
        3,
        3,
        3,
        3,
        3,
        3,
        3,
        3,
        3,
        3,
        3,
        3,
        3,
        3,
        3,
        3,
        3,
        3,
        3,
        3,
        3,
        3,
        3,
        3,
        3,
        3,
        3,
        3,
        3,
        3,
        3,
        3,
        3,
        3,
        3,
        3,
        3,
        3,
        3,
        4,
        5,
        5,
        5,
        5,
        5,
        5,
        5,
        5,
        5,
        5,
        5,
        5,
        5,
        5,
        5,
        5,
        5,
        5,
        5,
        1,
        1,
        1,
        1,
        1,
        1,
        1,
        1,
        1,
        1,
        1,
        1,
        1,
        1,
        3,
        3,
        3,
        3,
        3,
        3,
        3,
        3,
        3,
        3,
        3,
        3,
        3,
        3,
        3,
        3,
        3,
        3,
        3,
        3,
        3,
        3,
        3,
        3,
        3,
        3,
        3,
        3,
        3,
        3,
        3,
        3,
        3,
        3,
        3,
        3,
        3,
        3,
        3,
        3,
        3,
        3,
        3,
        3,
        3,
        3,
        3,
        3,
        3,
        3,
        3,
        3,
        3,
        3,
        3,
        3,
        3,
        3,
        3,
        3,
        3,
        3,
        3,
        3,
        3,
        3,
        3,
        3,
        3,
        3,
        3,
        3,
        3,
        3,
        3,
        3,
        3,
        3,
        3,
        3,
        3,
        3,
        3,
        3,
        3,
        3,
        3,
        3,
        3,
        3,
        3,
        3,
        4,
        5,
        5,
        5,
        5,
        5,
        5,
        5,
        5,
        5,
        5,
        5,
        5,
        5,
        5,
        5,
        5,
        5,
        5,
        5,
        1,
        1,
        1,
        1,
        1,
        1,
        1,
        1,
        1,
        1,
        1,
        1,
        1,
        1,
        3,
        3,
        3,
        3,
        3,
        3,
        3,
        3,
        3,
        3,
        3,
        3,
        3,
        3,
        3,
        3,
        3,
        3,
        3,
        3,
        3,
        3,
        3,
        3,
        3,
        3,
        3,
        3,
        3,
        3,
        3,
        3,
        3,
        3,
        3,
        3,
        3,
        3,
        3,
        3,
        3,
        3,
        3,
        3,
        3,
        3,
        3,
        3,
        3,
        3,
        3,
        3,
        3,
        3,
        3,
        3,
        3,
        3,
        3,
        3,
        3,
        3,
        3,
        3,
        3,
        3,
        3,
        3,
        3,
        3,
        3,
        3,
        3,
        3,
        3,
        3,
        3,
        3,
        3,
        3,
        3,
        3,
        3,
        3,
        3,
        3,
        3,
        3,
        3,
        3,
        3,
        3,
        4,
        5,
        5,
        5,
        5,
        5,
        5,
        5,
        5,
        5,
        5,
        5,
        5,
        5,
        5,
        5,
        5,
        5,
        5,
        5,
        1,
        1,
        1,
        1,
        1,
        1,
        1,
        1,
        1,
        1,
        1,
        1,
        1,
        1,
        3,
        3,
        3,
        3,
        3,
        3,
        3,
        3,
        3,
        3,
        3,
        3,
        3,
        3,
        3,
        3,
        3,
        3,
        3,
        3,
        3,
        3,
        3,
        3,
        3,
        3,
        3,
        3,
        3,
        3,
        3,
        3,
        3,
        3,
        3,
        3,
        3,
        3,
        3,
        3,
        3,
        3,
        3,
        3,
        3,
        3,
        3,
        3,
        3,
        3,
        3,
        3,
        3,
        3,
        3,
        3,
        3,
        3,
        3,
        3,
        3,
        3,
        3,
        3,
        3,
        3,
        3,
        3,
        3,
        3,
        3,
        3,
        3,
        3,
        3,
        3,
        3,
        3,
        3,
        3,
        3,
        3,
        3,
        3,
        3,
        3,
        3,
        3,
        3,
        3,
        3,
        3,
        4,
        5,
        5,
        5,
        5,
        5,
        5,
        5,
        5,
        5,
        5,
        5,
        5,
        5,
        5,
        5,
        5,
        5,
        5,
        5,
        1,
        1,
        1,
        1,
        1,
        1,
        1,
        1,
        1,
        1,
        1,
        1,
        1,
        1,
        1,
        3,
        3,
        3,
        3,
        3,
        3,
        3,
        3,
        3,
        3,
        3,
        3,
        3,
        3,
        3,
        3,
        3,
        3,
        3,
        3,
        3,
        3,
        3,
        3,
        3,
        3,
        3,
        3,
        3,
        3,
        3,
        3,
        3,
        3,
        3,
        3,
        3,
        3,
        3,
        3,
        3,
        3,
        3,
        3,
        3,
        3,
        3,
        3,
        3,
        3,
        3,
        3,
        3,
        3,
        3,
        3,
        3,
        3,
        3,
        3,
        3,
        3,
        3,
        3,
        3,
        3,
        3,
        3,
        3,
        3,
        3,
        3,
        3,
        3,
        3,
        3,
        3,
        3,
        3,
        3,
        3,
        3,
        3,
        3,
        3,
        3,
        3,
        3,
        3,
        3,
        3,
        4,
        5,
        5,
        5,
        5,
        5,
        5,
        5,
        5,
        5,
        5,
        5,
        5,
        5,
        5,
        5,
        5,
        5,
        5,
        5,
        1,
        1,
        1,
        1,
        1,
        1,
        1,
        1,
        1,
        1,
        1,
        1,
        1,
        1,
        1,
        3,
        3,
        3,
        3,
        3,
        3,
        3,
        3,
        3,
        3,
        3,
        3,
        3,
        3,
        3,
        3,
        3,
        3,
        3,
        3,
        3,
        3,
        3,
        3,
        3,
        3,
        3,
        3,
        3,
        3,
        3,
        3,
        3,
        3,
        3,
        3,
        3,
        3,
        3,
        3,
        3,
        3,
        3,
        3,
        3,
        3,
        3,
        3,
        3,
        3,
        3,
        3,
        3,
        3,
        3,
        3,
        3,
        3,
        3,
        3,
        3,
        3,
        3,
        3,
        3,
        3,
        3,
        3,
        3,
        3,
        3,
        3,
        3,
        3,
        3,
        3,
        3,
        3,
        3,
        3,
        3,
        3,
        3,
        3,
        3,
        3,
        3,
        3,
        3,
        3,
        3,
        4,
        5,
        5,
        5,
        5,
        5,
        5,
        5,
        5,
        5,
        5,
        5,
        5,
        5,
        5,
        5,
        5,
        5,
        5,
        5,
        1,
        1,
        1,
        1,
        1,
        1,
        1,
        1,
        1,
        1,
        1,
        1,
        1,
        1,
        1,
        1,
        3,
        3,
        3,
        3,
        3,
        3,
        3,
        3,
        3,
        3,
        3,
        3,
        3,
        3,
        3,
        3,
        3,
        3,
        3,
        3,
        3,
        3,
        3,
        3,
        3,
        3,
        3,
        3,
        3,
        3,
        3,
        3,
        3,
        3,
        3,
        3,
        3,
        3,
        3,
        3,
        3,
        3,
        3,
        3,
        3,
        3,
        3,
        3,
        3,
        3,
        3,
        3,
        3,
        3,
        3,
        3,
        3,
        3,
        3,
        3,
        3,
        3,
        3,
        3,
        3,
        3,
        3,
        3,
        3,
        3,
        3,
        3,
        3,
        3,
        3,
        3,
        3,
        3,
        4,
        4,
        4,
        4,
        4,
        4,
        4,
        4,
        4,
        4,
        4,
        4,
        4,
        5,
        5,
        5,
        5,
        5,
        5,
        5,
        5,
        5,
        5,
        5,
        5,
        5,
        5,
        5,
        5,
        5,
        5,
        5,
        1,
        1,
        1,
        1,
        1,
        1,
        1,
        1,
        1,
        1,
        1,
        1,
        1,
        1,
        1,
        1,
        3,
        3,
        3,
        3,
        3,
        3,
        3,
        3,
        3,
        3,
        3,
        3,
        3,
        3,
        3,
        3,
        3,
        3,
        3,
        3,
        3,
        3,
        3,
        3,
        3,
        3,
        3,
        3,
        3,
        3,
        3,
        3,
        3,
        3,
        3,
        3,
        3,
        3,
        3,
        3,
        3,
        3,
        3,
        3,
        3,
        3,
        3,
        3,
        3,
        3,
        3,
        3,
        3,
        3,
        3,
        3,
        3,
        3,
        3,
        3,
        3,
        3,
        3,
        3,
        3,
        3,
        3,
        3,
        3,
        3,
        3,
        3,
        3,
        3,
        3,
        3,
        3,
        3,
        4,
        4,
        4,
        4,
        4,
        4,
        4,
        4,
        4,
        4,
        4,
        4,
        4,
        5,
        5,
        5,
        5,
        5,
        5,
        5,
        5,
        5,
        5,
        5,
        5,
        5,
        5,
        5,
        5,
        5,
        5,
        1,
        1,
        1,
        1,
        1,
        1,
        1,
        1,
        1,
        1,
        1,
        1,
        1,
        1,
        1,
        1,
        1,
        3,
        3,
        3,
        3,
        3,
        3,
        3,
        3,
        3,
        3,
        3,
        3,
        3,
        3,
        3,
        3,
        3,
        3,
        3,
        3,
        3,
        3,
        3,
        3,
        3,
        3,
        3,
        3,
        3,
        3,
        3,
        3,
        3,
        3,
        3,
        3,
        3,
        3,
        3,
        3,
        3,
        3,
        3,
        3,
        3,
        3,
        3,
        3,
        3,
        3,
        3,
        3,
        3,
        3,
        3,
        3,
        3,
        3,
        3,
        3,
        3,
        3,
        3,
        3,
        3,
        3,
        3,
        3,
        3,
        3,
        3,
        3,
        3,
        3,
        3,
        3,
        3,
        3,
        4,
        4,
        4,
        4,
        4,
        4,
        4,
        4,
        4,
        4,
        4,
        4,
        4,
        5,
        5,
        5,
        5,
        5,
        5,
        5,
        5,
        5,
        5,
        5,
        5,
        5,
        5,
        5,
        5,
        5,
        5,
        1,
        1,
        1,
        1,
        1,
        1,
        1,
        1,
        1,
        1,
        1,
        1,
        1,
        1,
        1,
        1,
        1,
        1,
        3,
        3,
        3,
        3,
        3,
        3,
        3,
        3,
        3,
        3,
        3,
        3,
        3,
        3,
        3,
        3,
        3,
        3,
        3,
        3,
        3,
        3,
        3,
        3,
        3,
        3,
        3,
        3,
        3,
        3,
        3,
        3,
        3,
        3,
        3,
        3,
        3,
        3,
        3,
        3,
        3,
        3,
        3,
        3,
        3,
        3,
        3,
        3,
        3,
        3,
        3,
        3,
        3,
        3,
        3,
        3,
        3,
        3,
        3,
        3,
        3,
        3,
        3,
        3,
        3,
        3,
        3,
        3,
        3,
        3,
        3,
        3,
        3,
        3,
        3,
        3,
        3,
        4,
        4,
        4,
        4,
        4,
        4,
        4,
        4,
        4,
        4,
        4,
        4,
        4,
        5,
        5,
        5,
        5,
        5,
        5,
        5,
        5,
        5,
        5,
        5,
        5,
        5,
        5,
        5,
        5,
        5,
        5,
        1,
        1,
        1,
        1,
        1,
        1,
        1,
        1,
        1,
        1,
        1,
        1,
        1,
        1,
        1,
        1,
        1,
        1,
        3,
        3,
        3,
        3,
        3,
        3,
        3,
        3,
        3,
        3,
        3,
        3,
        3,
        3,
        3,
        3,
        3,
        3,
        3,
        3,
        3,
        3,
        3,
        3,
        3,
        3,
        3,
        3,
        3,
        3,
        3,
        3,
        3,
        3,
        3,
        3,
        3,
        3,
        3,
        3,
        3,
        3,
        3,
        3,
        3,
        3,
        3,
        3,
        3,
        3,
        3,
        3,
        3,
        3,
        3,
        3,
        3,
        3,
        3,
        3,
        3,
        3,
        3,
        3,
        3,
        3,
        3,
        3,
        3,
        3,
        3,
        3,
        3,
        3,
        3,
        3,
        3,
        4,
        4,
        4,
        4,
        4,
        4,
        4,
        4,
        4,
        4,
        4,
        4,
        4,
        5,
        5,
        5,
        5,
        5,
        5,
        5,
        5,
        5,
        5,
        5,
        5,
        5,
        5,
        5,
        5,
        5,
        5,
        1,
        1,
        1,
        1,
        1,
        1,
        1,
        1,
        1,
        1,
        1,
        1,
        1,
        1,
        1,
        1,
        1,
        1,
        1,
        3,
        3,
        3,
        3,
        3,
        3,
        3,
        3,
        3,
        3,
        3,
        3,
        3,
        3,
        3,
        3,
        3,
        3,
        3,
        3,
        3,
        3,
        3,
        3,
        3,
        3,
        3,
        3,
        3,
        3,
        3,
        3,
        3,
        3,
        3,
        3,
        3,
        3,
        3,
        3,
        3,
        3,
        3,
        3,
        3,
        3,
        3,
        3,
        3,
        3,
        3,
        3,
        3,
        3,
        3,
        3,
        3,
        3,
        3,
        3,
        3,
        3,
        3,
        3,
        3,
        3,
        3,
        3,
        3,
        3,
        3,
        3,
        3,
        3,
        3,
        3,
        4,
        4,
        4,
        4,
        4,
        4,
        4,
        4,
        4,
        4,
        4,
        4,
        4,
        5,
        5,
        5,
        5,
        5,
        5,
        5,
        5,
        5,
        5,
        5,
        5,
        5,
        5,
        5,
        5,
        5,
        5,
        1,
        1,
        1,
        1,
        1,
        1,
        1,
        1,
        1,
        1,
        1,
        1,
        1,
        1,
        1,
        1,
        1,
        1,
        1,
        3,
        3,
        3,
        3,
        3,
        3,
        3,
        3,
        3,
        3,
        3,
        3,
        3,
        3,
        3,
        3,
        3,
        3,
        3,
        3,
        3,
        3,
        3,
        3,
        3,
        3,
        3,
        3,
        3,
        3,
        3,
        3,
        3,
        3,
        3,
        3,
        3,
        3,
        3,
        3,
        3,
        3,
        3,
        3,
        3,
        3,
        3,
        3,
        3,
        3,
        3,
        3,
        3,
        3,
        3,
        3,
        3,
        3,
        3,
        3,
        3,
        3,
        3,
        3,
        3,
        3,
        3,
        3,
        3,
        3,
        3,
        3,
        3,
        3,
        3,
        3,
        4,
        4,
        4,
        4,
        4,
        4,
        4,
        4,
        4,
        4,
        4,
        4,
        4,
        5,
        5,
        5,
        5,
        5,
        5,
        5,
        5,
        5,
        5,
        5,
        5,
        5,
        5,
        5,
        5,
        5,
        5,
        1,
        1,
        1,
        1,
        1,
        1,
        1,
        1,
        1,
        1,
        1,
        1,
        1,
        1,
        1,
        1,
        1,
        1,
        1,
        3,
        3,
        3,
        3,
        3,
        3,
        3,
        3,
        3,
        3,
        3,
        3,
        3,
        3,
        3,
        3,
        3,
        3,
        3,
        3,
        3,
        3,
        3,
        3,
        3,
        3,
        3,
        3,
        3,
        3,
        3,
        3,
        3,
        3,
        3,
        3,
        3,
        3,
        3,
        3,
        3,
        3,
        3,
        3,
        3,
        3,
        3,
        3,
        3,
        3,
        3,
        3,
        3,
        3,
        3,
        3,
        3,
        3,
        3,
        3,
        3,
        3,
        3,
        3,
        3,
        3,
        3,
        3,
        3,
        3,
        3,
        3,
        3,
        3,
        3,
        3,
        4,
        4,
        4,
        4,
        4,
        4,
        4,
        4,
        4,
        4,
        4,
        4,
        4,
        5,
        5,
        5,
        5,
        5,
        5,
        5,
        5,
        5,
        5,
        5,
        5,
        5,
        5,
        5,
        5,
        5,
        5,
        1,
        1,
        1,
        1,
        1,
        1,
        1,
        1,
        1,
        1,
        1,
        1,
        1,
        1,
        1,
        1,
        1,
        1,
        1,
        3,
        3,
        3,
        3,
        3,
        3,
        3,
        3,
        3,
        3,
        3,
        3,
        3,
        3,
        3,
        3,
        3,
        3,
        3,
        3,
        3,
        3,
        3,
        3,
        3,
        3,
        3,
        3,
        3,
        3,
        3,
        3,
        3,
        3,
        3,
        3,
        3,
        3,
        3,
        3,
        3,
        3,
        3,
        3,
        3,
        3,
        3,
        3,
        3,
        3,
        3,
        3,
        3,
        3,
        3,
        3,
        3,
        3,
        3,
        3,
        3,
        3,
        3,
        3,
        3,
        3,
        3,
        3,
        3,
        3,
        3,
        3,
        3,
        3,
        3,
        3,
        4,
        4,
        4,
        4,
        4,
        4,
        4,
        4,
        4,
        4,
        4,
        4,
        4,
        5,
        5,
        5,
        5,
        5,
        5,
        5,
        5,
        5,
        5,
        5,
        5,
        5,
        5,
        5,
        5,
        5,
        5,
        1,
        1,
        1,
        1,
        1,
        1,
        1,
        1,
        1,
        1,
        1,
        1,
        1,
        1,
        1,
        1,
        1,
        1,
        1,
        3,
        3,
        3,
        3,
        3,
        3,
        3,
        3,
        3,
        3,
        3,
        3,
        3,
        3,
        3,
        3,
        3,
        3,
        3,
        3,
        3,
        3,
        3,
        3,
        3,
        3,
        3,
        3,
        3,
        3,
        3,
        3,
        3,
        3,
        3,
        3,
        3,
        3,
        3,
        3,
        3,
        3,
        3,
        3,
        3,
        3,
        3,
        3,
        3,
        3,
        3,
        3,
        3,
        3,
        3,
        3,
        3,
        3,
        3,
        3,
        3,
        3,
        3,
        3,
        3,
        3,
        3,
        3,
        3,
        3,
        3,
        3,
        3,
        3,
        3,
        3,
        4,
        4,
        4,
        4,
        4,
        4,
        4,
        4,
        4,
        4,
        4,
        4,
        4,
        5,
        5,
        5,
        5,
        5,
        5,
        5,
        5,
        5,
        5,
        5,
        5,
        5,
        5,
        5,
        5,
        5,
        5,
        1,
        1,
        1,
        1,
        1,
        1,
        1,
        1,
        1,
        1,
        1,
        1,
        1,
        1,
        1,
        1,
        1,
        1,
        1,
        3,
        3,
        3,
        3,
        3,
        3,
        3,
        3,
        3,
        3,
        3,
        3,
        3,
        3,
        3,
        3,
        3,
        3,
        3,
        3,
        3,
        3,
        3,
        3,
        3,
        3,
        3,
        3,
        3,
        3,
        3,
        3,
        3,
        3,
        3,
        3,
        3,
        3,
        3,
        3,
        3,
        3,
        3,
        3,
        3,
        3,
        3,
        3,
        3,
        3,
        3,
        3,
        3,
        3,
        3,
        3,
        3,
        3,
        3,
        3,
        3,
        3,
        3,
        3,
        3,
        3,
        3,
        3,
        3,
        3,
        3,
        3,
        3,
        3,
        3,
        3,
        4,
        4,
        4,
        4,
        4,
        4,
        4,
        4,
        4,
        4,
        4,
        4,
        4,
        5,
        5,
        5,
        5,
        5,
        5,
        5,
        5,
        5,
        5,
        5,
        5,
        5,
        5,
        5,
        5,
        5,
        5,
        1,
        1,
        1,
        1,
        1,
        1,
        1,
        1,
        1,
        1,
        1,
        1,
        1,
        1,
        1,
        1,
        1,
        1,
        1,
        3,
        3,
        3,
        3,
        3,
        3,
        3,
        3,
        3,
        3,
        3,
        3,
        3,
        3,
        3,
        3,
        3,
        3,
        3,
        3,
        3,
        3,
        3,
        3,
        3,
        3,
        3,
        3,
        3,
        3,
        3,
        3,
        3,
        3,
        3,
        3,
        3,
        3,
        3,
        3,
        3,
        3,
        3,
        3,
        3,
        3,
        3,
        3,
        3,
        3,
        3,
        3,
        3,
        3,
        3,
        3,
        3,
        3,
        3,
        3,
        3,
        3,
        3,
        3,
        3,
        3,
        3,
        3,
        3,
        3,
        3,
        3,
        3,
        3,
        3,
        3,
        4,
        4,
        4,
        4,
        4,
        4,
        4,
        4,
        4,
        4,
        4,
        4,
        4,
        5,
        5,
        5,
        5,
        5,
        5,
        5,
        5,
        5,
        5,
        5,
        5,
        5,
        5,
        5,
        5,
        5,
        5,
        1,
        1,
        1,
        1,
        1,
        1,
        1,
        1,
        1,
        1,
        1,
        1,
        1,
        1,
        1,
        1,
        1,
        1,
        1,
        3,
        3,
        3,
        3,
        3,
        3,
        3,
        3,
        3,
        3,
        3,
        3,
        3,
        3,
        3,
        3,
        3,
        3,
        3,
        3,
        3,
        3,
        3,
        3,
        3,
        3,
        3,
        3,
        3,
        3,
        3,
        3,
        3,
        3,
        3,
        3,
        3,
        3,
        3,
        3,
        3,
        3,
        3,
        3,
        3,
        3,
        3,
        3,
        3,
        3,
        3,
        3,
        3,
        3,
        3,
        3,
        3,
        3,
        3,
        3,
        3,
        3,
        3,
        3,
        3,
        3,
        3,
        3,
        3,
        3,
        3,
        3,
        3,
        3,
        3,
        3,
        4,
        4,
        4,
        4,
        4,
        4,
        4,
        4,
        4,
        4,
        4,
        4,
        4,
        5,
        5,
        5,
        5,
        5,
        5,
        5,
        5,
        5,
        5,
        5,
        5,
        5,
        5,
        5,
        5,
        5,
        5,
        1,
        1,
        1,
        1,
        1,
        1,
        1,
        1,
        1,
        1,
        1,
        1,
        1,
        1,
        1,
        1,
        1,
        1,
        1,
        3,
        3,
        3,
        3,
        3,
        3,
        3,
        3,
        3,
        3,
        3,
        3,
        3,
        3,
        3,
        3,
        3,
        3,
        3,
        3,
        3,
        3,
        3,
        3,
        3,
        3,
        3,
        3,
        3,
        3,
        3,
        3,
        3,
        3,
        3,
        3,
        3,
        3,
        3,
        3,
        3,
        3,
        3,
        3,
        3,
        3,
        3,
        3,
        3,
        3,
        3,
        3,
        3,
        3,
        3,
        3,
        3,
        3,
        3,
        3,
        3,
        3,
        3,
        3,
        3,
        3,
        3,
        3,
        3,
        3,
        3,
        3,
        3,
        3,
        3,
        3,
        4,
        4,
        4,
        4,
        4,
        4,
        4,
        4,
        4,
        4,
        4,
        4,
        4,
        5,
        5,
        5,
        5,
        5,
        5,
        5,
        5,
        5,
        5,
        5,
        5,
        5,
        5,
        5,
        5,
        5,
        5,
        1,
        1,
        1,
        1,
        1,
        1,
        1,
        1,
        1,
        1,
        1,
        1,
        1,
        1,
        1,
        1,
        1,
        1,
        3,
        3,
        3,
        3,
        3,
        3,
        3,
        3,
        3,
        3,
        3,
        3,
        3,
        3,
        3,
        3,
        3,
        3,
        3,
        3,
        3,
        3,
        3,
        3,
        3,
        3,
        3,
        3,
        3,
        3,
        3,
        3,
        3,
        3,
        3,
        3,
        3,
        3,
        3,
        3,
        3,
        3,
        3,
        3,
        3,
        3,
        3,
        3,
        3,
        3,
        3,
        3,
        3,
        3,
        3,
        3,
        3,
        3,
        3,
        3,
        3,
        3,
        3,
        3,
        3,
        3,
        3,
        3,
        3,
        3,
        3,
        3,
        3,
        3,
        3,
        3,
        3,
        4,
        4,
        4,
        4,
        4,
        4,
        4,
        4,
        4,
        4,
        4,
        4,
        4,
        5,
        5,
        5,
        5,
        5,
        5,
        5,
        5,
        5,
        5,
        5,
        5,
        5,
        5,
        5,
        5,
        5,
        5,
        1,
        1,
        1,
        1,
        1,
        1,
        1,
        1,
        1,
        1,
        1,
        1,
        1,
        1,
        1,
        1,
        1,
        1,
        3,
        3,
        3,
        3,
        3,
        3,
        3,
        3,
        3,
        3,
        3,
        3,
        3,
        3,
        3,
        3,
        3,
        3,
        3,
        3,
        3,
        3,
        3,
        3,
        3,
        3,
        3,
        3,
        3,
        3,
        3,
        3,
        3,
        3,
        3,
        3,
        3,
        3,
        3,
        3,
        3,
        3,
        3,
        3,
        3,
        3,
        3,
        3,
        3,
        3,
        3,
        3,
        3,
        3,
        3,
        3,
        3,
        3,
        3,
        3,
        3,
        3,
        3,
        3,
        3,
        3,
        3,
        3,
        3,
        3,
        3,
        3,
        3,
        3,
        3,
        3,
        3,
        4,
        4,
        4,
        4,
        4,
        4,
        4,
        4,
        4,
        4,
        4,
        4,
        4,
        5,
        5,
        5,
        5,
        5,
        5,
        5,
        5,
        5,
        5,
        5,
        5,
        5,
        5,
        5,
        5,
        5,
        5,
        1,
        1,
        1,
        1,
        1,
        1,
        1,
        1,
        1,
        1,
        1,
        1,
        1,
        1,
        1,
        1,
        1,
        3,
        3,
        3,
        3,
        3,
        3,
        3,
        3,
        3,
        3,
        3,
        3,
        3,
        3,
        3,
        3,
        3,
        3,
        3,
        3,
        3,
        3,
        3,
        3,
        3,
        3,
        3,
        3,
        3,
        3,
        3,
        3,
        3,
        3,
        3,
        3,
        3,
        3,
        3,
        3,
        3,
        3,
        3,
        3,
        3,
        3,
        3,
        3,
        3,
        3,
        3,
        3,
        3,
        3,
        3,
        3,
        3,
        3,
        3,
        3,
        3,
        3,
        3,
        3,
        3,
        3,
        3,
        3,
        3,
        3,
        3,
        3,
        3,
        3,
        3,
        3,
        3,
        3,
        4,
        4,
        4,
        4,
        4,
        4,
        4,
        4,
        4,
        4,
        4,
        4,
        4,
        5,
        5,
        5,
        5,
        5,
        5,
        5,
        5,
        5,
        5,
        5,
        5,
        5,
        5,
        5,
        5,
        5,
        5,
        1,
        1,
        1,
        1,
        1,
        1,
        1,
        1,
        1,
        1,
        1,
        1,
        1,
        1,
        1,
        1,
        1,
        3,
        3,
        3,
        3,
        3,
        3,
        3,
        3,
        3,
        3,
        3,
        3,
        3,
        3,
        3,
        3,
        3,
        3,
        3,
        3,
        3,
        3,
        3,
        3,
        3,
        3,
        3,
        3,
        3,
        3,
        3,
        3,
        3,
        3,
        3,
        3,
        3,
        3,
        3,
        3,
        3,
        3,
        3,
        3,
        3,
        3,
        3,
        3,
        3,
        3,
        3,
        3,
        3,
        3,
        3,
        3,
        3,
        3,
        3,
        3,
        3,
        3,
        3,
        3,
        3,
        3,
        3,
        3,
        3,
        3,
        3,
        3,
        3,
        3,
        3,
        3,
        3,
        3,
        4,
        4,
        4,
        4,
        4,
        4,
        4,
        4,
        4,
        4,
        4,
        4,
        4,
        5,
        5,
        5,
        5,
        5,
        5,
        5,
        5,
        5,
        5,
        5,
        5,
        5,
        5,
        5,
        5,
        5,
        5,
        5,
        1,
        1,
        1,
        1,
        1,
        1,
        1,
        1,
        1,
        1,
        1,
        1,
        1,
        1,
        1,
        1,
        3,
        3,
        3,
        3,
        3,
        3,
        3,
        3,
        3,
        3,
        3,
        3,
        3,
        3,
        3,
        3,
        3,
        3,
        3,
        3,
        3,
        3,
        3,
        3,
        3,
        3,
        3,
        3,
        3,
        3,
        3,
        3,
        3,
        3,
        3,
        3,
        3,
        3,
        3,
        3,
        3,
        3,
        3,
        3,
        3,
        3,
        3,
        3,
        3,
        3,
        3,
        3,
        3,
        3,
        3,
        3,
        3,
        3,
        3,
        3,
        3,
        3,
        3,
        3,
        3,
        3,
        3,
        3,
        3,
        3,
        3,
        3,
        3,
        3,
        3,
        3,
        3,
        3,
        4,
        4,
        4,
        4,
        4,
        4,
        4,
        4,
        4,
        4,
        4,
        4,
        4,
        5,
        5,
        5,
        5,
        5,
        5,
        5,
        5,
        5,
        5,
        5,
        5,
        5,
        5,
        5,
        5,
        5,
        5,
        5,
        1,
        1,
        1,
        1,
        1,
        1,
        1,
        1,
        1,
        1,
        1,
        1,
        1,
        1,
        1,
        1,
        3,
        3,
        3,
        3,
        3,
        3,
        3,
        3,
        3,
        3,
        3,
        3,
        3,
        3,
        3,
        3,
        3,
        3,
        3,
        3,
        3,
        3,
        3,
        3,
        3,
        3,
        3,
        3,
        3,
        3,
        3,
        3,
        3,
        3,
        3,
        3,
        3,
        3,
        3,
        3,
        3,
        3,
        3,
        3,
        3,
        3,
        3,
        3,
        3,
        3,
        3,
        3,
        3,
        3,
        3,
        3,
        3,
        3,
        3,
        3,
        3,
        3,
        3,
        3,
        3,
        3,
        3,
        3,
        3,
        3,
        3,
        3,
        3,
        3,
        3,
        3,
        3,
        3,
        4,
        4,
        4,
        4,
        4,
        4,
        4,
        4,
        4,
        4,
        4,
        4,
        4,
        5,
        5,
        5,
        5,
        5,
        5,
        5,
        5,
        5,
        5,
        5,
        5,
        5,
        5,
        5,
        5,
        5,
        5,
        5,
        1,
        1,
        1,
        1,
        1,
        1,
        1,
        1,
        1,
        1,
        1,
        1,
        1,
        1,
        1,
        3,
        3,
        3,
        3,
        3,
        3,
        3,
        3,
        3,
        3,
        3,
        3,
        3,
        3,
        3,
        3,
        3,
        3,
        3,
        3,
        3,
        3,
        3,
        3,
        3,
        3,
        3,
        3,
        3,
        3,
        3,
        3,
        3,
        3,
        3,
        3,
        3,
        3,
        3,
        3,
        3,
        3,
        3,
        3,
        3,
        3,
        3,
        3,
        3,
        3,
        3,
        3,
        3,
        3,
        3,
        3,
        3,
        3,
        3,
        3,
        3,
        3,
        3,
        3,
        3,
        3,
        3,
        3,
        3,
        3,
        3,
        3,
        3,
        3,
        3,
        3,
        3,
        3,
        3,
        4,
        4,
        4,
        4,
        4,
        4,
        4,
        4,
        4,
        4,
        4,
        4,
        4,
        5,
        5,
        5,
        5,
        5,
        5,
        5,
        5,
        5,
        5,
        5,
        5,
        5,
        5,
        5,
        5,
        5,
        5,
        5,
        1,
        1,
        1,
        1,
        1,
        1,
        1,
        1,
        1,
        1,
        1,
        1,
        1,
        1,
        1,
        3,
        3,
        3,
        3,
        3,
        3,
        3,
        3,
        3,
        3,
        3,
        3,
        3,
        3,
        3,
        3,
        3,
        3,
        3,
        3,
        3,
        3,
        3,
        3,
        3,
        3,
        3,
        3,
        3,
        3,
        3,
        3,
        3,
        3,
        3,
        3,
        3,
        3,
        3,
        3,
        3,
        3,
        3,
        3,
        3,
        3,
        3,
        3,
        3,
        3,
        3,
        3,
        3,
        3,
        3,
        3,
        3,
        3,
        3,
        3,
        3,
        3,
        3,
        3,
        3,
        3,
        3,
        3,
        3,
        3,
        3,
        3,
        3,
        3,
        3,
        3,
        3,
        3,
        3,
        4,
        4,
        4,
        4,
        4,
        4,
        4,
        4,
        4,
        4,
        4,
        4,
        4,
        5,
        5,
        5,
        5,
        5,
        5,
        5,
        5,
        5,
        5,
        5,
        5,
        5,
        5,
        5,
        5,
        5,
        5,
        5,
        1,
        1,
        1,
        1,
        1,
        1,
        1,
        1,
        1,
        1,
        1,
        1,
        1,
        1,
        3,
        3,
        3,
        3,
        3,
        3,
        3,
        3,
        3,
        3,
        3,
        3,
        3,
        3,
        3,
        3,
        3,
        3,
        3,
        3,
        3,
        3,
        3,
        3,
        3,
        3,
        3,
        3,
        3,
        3,
        3,
        3,
        3,
        3,
        3,
        3,
        3,
        3,
        3,
        3,
        3,
        3,
        3,
        3,
        3,
        3,
        3,
        3,
        3,
        3,
        3,
        3,
        3,
        3,
        3,
        3,
        3,
        3,
        3,
        3,
        3,
        3,
        3,
        3,
        3,
        3,
        3,
        3,
        3,
        3,
        3,
        3,
        3,
        3,
        3,
        3,
        3,
        3,
        3,
        3,
        4,
        4,
        4,
        4,
        4,
        4,
        4,
        4,
        4,
        4,
        4,
        4,
        4,
        5,
        5,
        5,
        5,
        5,
        5,
        5,
        5,
        5,
        5,
        5,
        5,
        5,
        5,
        5,
        5,
        5,
        5,
        5,
        1,
        1,
        1,
        1,
        1,
        1,
        1,
        1,
        1,
        1,
        1,
        1,
        1,
        1,
        3,
        3,
        3,
        3,
        3,
        3,
        3,
        3,
        3,
        3,
        3,
        3,
        3,
        3,
        3,
        3,
        3,
        3,
        3,
        3,
        3,
        3,
        3,
        3,
        3,
        3,
        3,
        3,
        3,
        3,
        3,
        3,
        3,
        3,
        3,
        3,
        3,
        3,
        3,
        3,
        3,
        3,
        3,
        3,
        3,
        3,
        3,
        3,
        3,
        3,
        3,
        3,
        3,
        3,
        3,
        3,
        3,
        3,
        3,
        3,
        3,
        3,
        3,
        3,
        3,
        3,
        3,
        3,
        3,
        3,
        3,
        3,
        3,
        3,
        3,
        3,
        3,
        3,
        3,
        3,
        4,
        4,
        4,
        4,
        4,
        4,
        4,
        4,
        4,
        4,
        4,
        4,
        4,
        5,
        5,
        5,
        5,
        5,
        5,
        5,
        5,
        5,
        5,
        5,
        5,
        5,
        5,
        5,
        5,
        5,
        5,
        5,
        1,
        1,
        1,
        1,
        1,
        1,
        1,
        1,
        1,
        1,
        1,
        1,
        1,
        1,
        3,
        3,
        3,
        3,
        3,
        3,
        3,
        3,
        3,
        3,
        3,
        3,
        3,
        3,
        3,
        3,
        3,
        3,
        3,
        3,
        3,
        3,
        3,
        3,
        3,
        3,
        3,
        3,
        3,
        3,
        3,
        3,
        3,
        3,
        3,
        3,
        3,
        3,
        3,
        3,
        3,
        3,
        3,
        3,
        3,
        3,
        3,
        3,
        3,
        3,
        3,
        3,
        3,
        3,
        3,
        3,
        3,
        3,
        3,
        3,
        3,
        3,
        3,
        3,
        3,
        3,
        3,
        3,
        3,
        3,
        3,
        3,
        3,
        3,
        3,
        3,
        3,
        3,
        3,
        3,
        4,
        4,
        4,
        4,
        4,
        4,
        4,
        4,
        4,
        4,
        4,
        4,
        4,
        5,
        5,
        5,
        5,
        5,
        5,
        5,
        5,
        5,
        5,
        5,
        5,
        5,
        5,
        5,
        5,
        5,
        1,
        1,
        1,
        1,
        1,
        1,
        1,
        1,
        1,
        1,
        1,
        1,
        1,
        1,
        1,
        1,
        3,
        3,
        3,
        3,
        3,
        3,
        3,
        3,
        3,
        3,
        3,
        3,
        3,
        3,
        3,
        3,
        3,
        3,
        3,
        3,
        3,
        3,
        3,
        3,
        3,
        3,
        3,
        3,
        3,
        3,
        3,
        3,
        3,
        3,
        3,
        3,
        3,
        3,
        3,
        3,
        3,
        3,
        3,
        3,
        3,
        3,
        3,
        3,
        3,
        3,
        3,
        3,
        3,
        3,
        3,
        3,
        3,
        3,
        3,
        3,
        3,
        3,
        3,
        3,
        3,
        3,
        3,
        3,
        3,
        3,
        3,
        3,
        3,
        3,
        3,
        3,
        3,
        3,
        3,
        3,
        4,
        4,
        4,
        4,
        4,
        4,
        4,
        4,
        4,
        4,
        4,
        4,
        4,
        5,
        5,
        5,
        5,
        5,
        5,
        5,
        5,
        5,
        5,
        5,
        5,
        5,
        5,
        5,
        5,
        5,
        5,
        1,
        1,
        1,
        1,
        1,
        1,
        1,
        1,
        1,
        1,
        1,
        1,
        1,
        1,
        1,
        3,
        3,
        3,
        3,
        3,
        3,
        3,
        3,
        3,
        3,
        3,
        3,
        3,
        3,
        3,
        3,
        3,
        3,
        3,
        3,
        3,
        3,
        3,
        3,
        3,
        3,
        3,
        3,
        3,
        3,
        3,
        3,
        3,
        3,
        3,
        3,
        3,
        3,
        3,
        3,
        3,
        3,
        3,
        3,
        3,
        3,
        3,
        3,
        3,
        3,
        3,
        3,
        3,
        3,
        3,
        3,
        3,
        3,
        3,
        3,
        3,
        3,
        3,
        3,
        3,
        3,
        3,
        3,
        3,
        3,
        3,
        3,
        3,
        3,
        3,
        3,
        3,
        3,
        3,
        3,
        4,
        4,
        4,
        4,
        4,
        4,
        4,
        4,
        4,
        4,
        4,
        4,
        4,
        5,
        5,
        5,
        5,
        5,
        5,
        5,
        5,
        5,
        5,
        5,
        5,
        5,
        5,
        5,
        5,
        5,
        5,
        1,
        1,
        1,
        1,
        1,
        1,
        1,
        1,
        1,
        1,
        1,
        1,
        1,
        1,
        1,
        3,
        3,
        3,
        3,
        3,
        3,
        3,
        3,
        3,
        3,
        3,
        3,
        3,
        3,
        3,
        3,
        3,
        3,
        3,
        3,
        3,
        3,
        3,
        3,
        3,
        3,
        3,
        3,
        3,
        3,
        3,
        3,
        3,
        3,
        3,
        3,
        3,
        3,
        3,
        3,
        3,
        3,
        3,
        3,
        3,
        3,
        3,
        3,
        3,
        3,
        3,
        3,
        3,
        3,
        3,
        3,
        3,
        3,
        3,
        3,
        3,
        3,
        3,
        3,
        3,
        3,
        3,
        3,
        3,
        3,
        3,
        3,
        3,
        3,
        3,
        3,
        3,
        3,
        3,
        3,
        4,
        4,
        4,
        4,
        4,
        4,
        4,
        4,
        4,
        4,
        4,
        4,
        4,
        5,
        5,
        5,
        5,
        5,
        5,
        5,
        5,
        5,
        5,
        5,
        5,
        5,
        5,
        5,
        5,
        5,
        5,
        1,
        1,
        1,
        1,
        1,
        1,
        1,
        1,
        1,
        1,
        1,
        1,
        1,
        1,
        1,
        3,
        3,
        3,
        3,
        3,
        3,
        3,
        3,
        3,
        3,
        3,
        3,
        3,
        3,
        3,
        3,
        3,
        3,
        3,
        3,
        3,
        3,
        3,
        3,
        3,
        3,
        3,
        3,
        3,
        3,
        3,
        3,
        3,
        3,
        3,
        3,
        3,
        3,
        3,
        3,
        3,
        3,
        3,
        3,
        3,
        3,
        3,
        3,
        3,
        3,
        3,
        3,
        3,
        3,
        3,
        3,
        3,
        3,
        3,
        3,
        3,
        3,
        3,
        3,
        3,
        3,
        3,
        3,
        3,
        3,
        3,
        3,
        3,
        3,
        3,
        3,
        3,
        3,
        3,
        3,
        4,
        4,
        4,
        4,
        4,
        4,
        4,
        4,
        4,
        4,
        4,
        4,
        4,
        5,
        5,
        5,
        5,
        5,
        5,
        5,
        5,
        5,
        5,
        5,
        5,
        5,
        5,
        5,
        5,
        5,
        5,
        1,
        1,
        1,
        1,
        1,
        1,
        1,
        1,
        1,
        1,
        1,
        1,
        1,
        1,
        1,
        3,
        3,
        3,
        3,
        3,
        3,
        3,
        3,
        3,
        3,
        3,
        3,
        3,
        3,
        3,
        3,
        3,
        3,
        3,
        3,
        3,
        3,
        3,
        3,
        3,
        3,
        3,
        3,
        3,
        3,
        3,
        3,
        3,
        3,
        3,
        3,
        3,
        3,
        3,
        3,
        3,
        3,
        3,
        3,
        3,
        3,
        3,
        3,
        3,
        3,
        3,
        3,
        3,
        3,
        3,
        3,
        3,
        3,
        3,
        3,
        3,
        3,
        3,
        3,
        3,
        3,
        3,
        3,
        3,
        3,
        3,
        3,
        3,
        3,
        3,
        3,
        3,
        3,
        3,
        3,
        4,
        4,
        4,
        4,
        4,
        4,
        4,
        4,
        4,
        4,
        4,
        4,
        4,
        5,
        5,
        5,
        5,
        5,
        5,
        5,
        5,
        5,
        5,
        5,
        5,
        5,
        5,
        5,
        5,
        5,
        5,
        1,
        1,
        1,
        1,
        1,
        1,
        1,
        1,
        1,
        1,
        1,
        1,
        1,
        1,
        1,
        3,
        3,
        3,
        3,
        3,
        3,
        3,
        3,
        3,
        3,
        3,
        1,
        1,
        1,
        1,
        1,
        1,
        1,
        1,
        1,
        1,
        1,
        1,
        1,
        1,
        1,
        3,
        3,
        3,
        3,
        3,
        3,
        3,
        3,
        3,
        3,
        3,
        3,
        3,
        3,
        3,
        3,
        3,
        3,
        3,
        3,
        3,
        3,
        3,
        3,
        3,
        3,
        3,
        3,
        3,
        3,
        3,
        3,
        3,
        3,
        3,
        3,
        3,
        3,
        3,
        3,
        3,
        3,
        1,
        1,
        1,
        1,
        1,
        1,
        1,
        1,
        1,
        1,
        1,
        1,
        1,
        1,
        1,
        4,
        4,
        4,
        4,
        4,
        4,
        4,
        4,
        4,
        4,
        5,
        5,
        5,
        5,
        5,
        5,
        5,
        5,
        5,
        5,
        5,
        5,
        5,
        5,
        5,
        5,
        5,
        5,
        1,
        1,
        1,
        1,
        1,
        1,
        1,
        1,
        1,
        1,
        1,
        1,
        1,
        1,
        1,
        1,
        3,
        3,
        3,
        3,
        3,
        3,
        1,
        1,
        1,
        1,
        1,
        1,
        1,
        1,
        1,
        1,
        1,
        1,
        1,
        1,
        1,
        1,
        1,
        1,
        1,
        1,
        1,
        1,
        3,
        3,
        3,
        3,
        3,
        3,
        3,
        3,
        3,
        3,
        3,
        3,
        3,
        3,
        3,
        3,
        3,
        3,
        3,
        3,
        3,
        3,
        3,
        3,
        3,
        3,
        3,
        3,
        3,
        3,
        3,
        3,
        3,
        3,
        3,
        1,
        1,
        1,
        1,
        1,
        1,
        1,
        1,
        1,
        1,
        1,
        1,
        1,
        1,
        1,
        1,
        1,
        1,
        1,
        1,
        1,
        1,
        1,
        4,
        4,
        4,
        4,
        4,
        4,
        5,
        5,
        5,
        5,
        5,
        5,
        5,
        5,
        5,
        5,
        5,
        5,
        5,
        5,
        5,
        5,
        5,
        5,
        1,
        1,
        1,
        1,
        1,
        1,
        1,
        1,
        1,
        1,
        1,
        1,
        1,
        1,
        1,
        1,
        1,
        1,
        1,
        1,
        1,
        1,
        1,
        1,
        1,
        1,
        1,
        1,
        1,
        1,
        1,
        1,
        1,
        1,
        1,
        1,
        1,
        1,
        1,
        1,
        1,
        1,
        1,
        1,
        1,
        1,
        1,
        1,
        1,
        1,
        1,
        3,
        3,
        3,
        3,
        3,
        3,
        3,
        3,
        3,
        3,
        3,
        3,
        3,
        3,
        3,
        3,
        3,
        3,
        3,
        3,
        3,
        3,
        1,
        1,
        1,
        1,
        1,
        1,
        1,
        1,
        1,
        1,
        1,
        1,
        1,
        1,
        1,
        1,
        1,
        1,
        1,
        1,
        1,
        1,
        1,
        1,
        1,
        1,
        1,
        1,
        1,
        1,
        1,
        1,
        1,
        1,
        1,
        5,
        5,
        5,
        5,
        5,
        5,
        5,
        5,
        5,
        5,
        5,
        5,
        5,
        5,
        5,
        5,
        5,
        5,
        1,
        1,
        1,
        1,
        1,
        1,
        1,
        1,
        1,
        1,
        1,
        1,
        1,
        1,
        1,
        1,
        1,
        1,
        1,
        1,
        1,
        1,
        1,
        1,
        1,
        1,
        1,
        1,
        1,
        1,
        1,
        1,
        1,
        1,
        1,
        1,
        1,
        1,
        1,
        1,
        1,
        1,
        1,
        1,
        1,
        1,
        1,
        1,
        1,
        1,
        1,
        1,
        1,
        1,
        3,
        3,
        3,
        3,
        3,
        3,
        3,
        3,
        3,
        3,
        3,
        3,
        3,
        3,
        3,
        1,
        1,
        1,
        1,
        1,
        1,
        1,
        1,
        1,
        1,
        1,
        1,
        1,
        1,
        1,
        1,
        1,
        1,
        1,
        1,
        1,
        1,
        1,
        1,
        1,
        1,
        1,
        1,
        1,
        1,
        1,
        1,
        1,
        1,
        1,
        1,
        1,
        1,
        1,
        1,
        1,
        1,
        5,
        5,
        5,
        5,
        5,
        5,
        5,
        5,
        5,
        5,
        5,
        5,
        5,
        5,
        5,
        1,
        1,
        1,
        1,
        1,
        1,
        1,
        1,
        1,
        1,
        1,
        1,
        1,
        1,
        1,
        1,
        1,
        1,
        1,
        1,
        1,
        1,
        1,
        1,
        1,
        1,
        1,
        1,
        1,
        1,
        1,
        1,
        1,
        1,
        1,
        1,
        1,
        1,
        1,
        1,
        1,
        1,
        1,
        1,
        1,
        1,
        1,
        1,
        1,
        1,
        1,
        1,
        1,
        1,
        1,
        1,
        1,
        1,
        1,
        1,
        1,
        1,
        1,
        1,
        1,
        1,
        1,
        1,
        1,
        1,
        1,
        1,
        1,
        1,
        1,
        1,
        1,
        1,
        1,
        1,
        1,
        1,
        1,
        1,
        1,
        1,
        1,
        1,
        1,
        1,
        1,
        1,
        1,
        1,
        1,
        1,
        1,
        1,
        1,
        1,
        1,
        1,
        1,
        1,
        1,
        1,
        1,
        1,
        1,
        1,
        1,
        1,
        1,
        1,
        1,
        1,
        1,
        1,
        1,
        1,
        1,
        1,
        1,
        1,
        1,
        1,
        1,
        1,
        1,
        1,
        1,
        1,
        1,
        1,
        1,
        1,
        1,
        1,
        1,
        1,
        1,
        1,
        1,
        1,
        1,
        1,
        1,
        1,
        1,
        1,
        1,
        1,
        1,
        1,
        1,
        1,
        1,
        1,
        1,
        1,
        1,
        1,
        1,
        1,
        1,
        1,
        1,
        1,
        1,
        1,
        1,
        1,
        1,
        1,
        1,
        1,
        1,
        1,
        1,
        1,
        1,
        1,
        1,
        1,
        1,
        1,
        1,
        1,
        1,
        1,
        1,
        1,
        1,
        1,
        1,
        1,
        1,
        1,
        1,
        1,
        1,
        1,
        1,
        1,
        1,
        1,
        1,
        1,
        1,
        1,
        1,
        1,
        1,
        1,
        1,
        1,
        1,
        1,
        1,
        1,
        1,
        1,
        1,
        1,
        1,
        1,
        1,
        1,
        1,
        1,
        1,
        1,
        1,
        1,
        1,
        1,
        1,
        1,
        1,
        1,
        1,
        1,
        1,
        1,
        1,
        1,
        1,
        1,
        1,
        1,
        1,
        1,
        1,
        1,
        1,
        1,
        1,
        1,
        1,
        1,
        1,
        1,
        1,
        1,
        1,
        1,
        1,
        1,
        1,
        1,
        1,
        1,
        1,
        1,
        1,
        1,
        1,
        1,
        1,
        1,
        1,
        1,
        1,
        1,
        1,
        1,
        1,
        1,
        1,
        1,
        1,
        1,
        1,
        1,
        1,
        1,
        1,
        1,
        1,
        1,
        1,
        1,
        1,
        1,
        1,
        1,
        1,
        1,
        1,
        1,
        1,
        1,
        1,
        1,
        1,
        1,
        1,
        1,
        1,
        1,
        1,
        1,
        1,
        1,
        1,
        1,
        1,
        1,
        1,
        1,
        1,
        1,
        1,
        1,
        1,
        1,
        1,
        1,
        1,
        1,
        1,
        1,
        1,
        1,
        1,
        1,
        1,
        1,
        1,
        1,
        1,
        1,
        1,
        1,
        1,
        1,
        1,
        1,
        1,
        1,
        1,
        1,
        1,
        1,
        1,
        1,
        1,
        1,
        1,
        1,
        1,
        1,
        1,
        1,
        1,
        1,
        1,
        1,
        1,
        1,
        1,
        1,
        1,
        1,
        1,
        1,
        1,
        1,
        1,
        1,
        1,
        1,
        1,
        1,
        1,
        1,
        1,
        1,
        1,
        1,
        1,
        1,
        1,
        1,
        1,
        1,
        1,
        1,
        1,
        1,
        1,
        1,
        1,
        1,
        1,
        1,
        1,
        1,
        1,
        1,
        1,
        1,
        1,
        1,
        1,
        1,
        1,
        1,
        1,
        1,
        1,
        1,
        1,
        1,
        1,
        1,
        1,
        1,
        1,
        1,
        1,
        1,
        1,
        1,
        1,
        1,
        1,
        1,
        1,
        1,
        1,
        1,
        1,
        1,
        1,
        1,
        1,
        1,
        1,
        1,
        1,
        1,
        1,
        1,
        1,
        1,
        1,
        1,
        1,
        1,
        1,
        1,
        1,
        1,
        1,
        1,
        1,
        1,
        1,
        1,
        1,
        1,
        1,
        1,
        1,
        1,
        1,
        1,
        1,
        1,
        1,
        1,
        1,
        1,
        1,
        1,
        1,
        1,
        1,
        1,
        1,
        1,
        1,
        1,
        1,
        1,
        1,
        1,
        1,
        1,
        1,
        1,
        1,
        1,
        1,
        1,
        1,
        1,
        1,
        1,
        1,
        1,
        1,
        1,
        1,
        1,
        1,
        1,
        1,
        1,
        1,
        1,
        1,
        1,
        1,
        1,
        1,
        1,
        1,
        1,
        1,
        1,
        1,
        1,
        1,
        1,
        1,
        1,
        1,
        1,
        1,
        1,
        1,
        1,
        1,
        1,
        1,
        1,
        1,
        1,
        1,
        1,
        1,
        1,
        1,
        1,
        1,
        1,
        1,
        1,
        1,
        1,
        1,
        1,
        1,
        1,
        1,
        1,
        1,
        1,
        1,
        1,
        1,
        1,
        1,
        1,
        1,
        1,
        1,
        1,
        1,
        1,
        1,
        1,
        1,
        1,
        1,
        1,
        1,
        1,
        1,
        1,
        1,
        1,
        1,
        1,
        1,
        1,
        1,
        1,
        1,
        1,
        1,
        1,
        1,
        1,
        1,
        1,
        1,
        1,
        1,
        1,
        1,
        1,
        1,
        1,
        1,
        1,
        1,
        1,
        1,
        1,
        1,
        1,
        1,
        1,
        1,
        1,
        1
      ],
      "height": 104,
      "id": 1,
      "name": "Ground",
      "opacity": 1,
      "type": "tilelayer",
      "visible": true,
      "width": 126,
      "x": 0,
      "y": 0
    },
    {
      "data": [
        0,
        0,
        0,
        0,
        0,
        0,
        0,
        0,
        0,
        0,
        0,
        0,
        0,
        0,
        0,
        0,
        0,
        0,
        0,
        0,
        0,
        0,
        0,
        0,
        0,
        0,
        0,
        0,
        0,
        0,
        0,
        0,
        0,
        0,
        0,
        0,
        0,
        0,
        0,
        0,
        0,
        0,
        0,
        0,
        0,
        0,
        0,
        0,
        0,
        0,
        0,
        0,
        0,
        0,
        0,
        0,
        0,
        0,
        0,
        0,
        0,
        0,
        0,
        0,
        0,
        0,
        0,
        0,
        0,
        0,
        0,
        0,
        0,
        0,
        0,
        0,
        0,
        0,
        0,
        0,
        0,
        0,
        0,
        0,
        0,
        0,
        0,
        0,
        0,
        0,
        0,
        0,
        0,
        0,
        0,
        0,
        0,
        0,
        0,
        0,
        0,
        0,
        0,
        0,
        0,
        0,
        0,
        0,
        0,
        0,
        0,
        0,
        0,
        0,
        0,
        0,
        0,
        0,
        0,
        0,
        0,
        0,
        0,
        0,
        0,
        0,
        0,
        0,
        0,
        0,
        0,
        0,
        0,
        0,
        0,
        0,
        0,
        0,
        0,
        0,
        0,
        0,
        0,
        0,
        0,
        0,
        0,
        0,
        0,
        0,
        0,
        0,
        0,
        0,
        0,
        0,
        0,
        0,
        0,
        0,
        0,
        0,
        0,
        0,
        0,
        0,
        0,
        0,
        0,
        0,
        0,
        0,
        0,
        0,
        0,
        0,
        0,
        0,
        0,
        0,
        0,
        0,
        0,
        0,
        0,
        0,
        0,
        0,
        0,
        0,
        0,
        0,
        0,
        0,
        0,
        0,
        0,
        0,
        0,
        0,
        0,
        0,
        0,
        0,
        0,
        0,
        0,
        0,
        0,
        0,
        0,
        0,
        0,
        0,
        0,
        0,
        0,
        0,
        0,
        0,
        0,
        0,
        0,
        0,
        0,
        0,
        0,
        0,
        0,
        0,
        0,
        0,
        0,
        0,
        0,
        0,
        0,
        0,
        0,
        0,
        0,
        0,
        0,
        0,
        0,
        0,
        0,
        0,
        0,
        0,
        0,
        0,
        0,
        0,
        0,
        0,
        0,
        0,
        0,
        0,
        0,
        0,
        0,
        0,
        0,
        0,
        0,
        0,
        0,
        0,
        0,
        0,
        0,
        0,
        0,
        0,
        0,
        0,
        0,
        0,
        0,
        0,
        0,
        0,
        0,
        0,
        0,
        0,
        0,
        0,
        0,
        0,
        0,
        0,
        0,
        0,
        0,
        0,
        0,
        0,
        0,
        0,
        0,
        0,
        0,
        0,
        0,
        0,
        0,
        0,
        0,
        0,
        0,
        0,
        0,
        0,
        0,
        0,
        0,
        0,
        0,
        0,
        0,
        0,
        0,
        0,
        0,
        0,
        0,
        0,
        0,
        0,
        0,
        0,
        0,
        0,
        0,
        0,
        0,
        0,
        0,
        0,
        0,
        0,
        0,
        0,
        0,
        0,
        0,
        0,
        0,
        0,
        0,
        0,
        0,
        0,
        0,
        0,
        0,
        0,
        0,
        0,
        0,
        0,
        0,
        0,
        0,
        0,
        0,
        0,
        0,
        0,
        0,
        0,
        0,
        0,
        0,
        0,
        0,
        0,
        0,
        0,
        0,
        0,
        0,
        0,
        0,
        0,
        0,
        0,
        0,
        0,
        0,
        0,
        0,
        0,
        0,
        0,
        0,
        0,
        0,
        0,
        0,
        0,
        0,
        0,
        0,
        0,
        0,
        0,
        0,
        0,
        0,
        0,
        0,
        0,
        0,
        0,
        0,
        0,
        0,
        0,
        0,
        0,
        0,
        0,
        0,
        0,
        0,
        0,
        0,
        0,
        0,
        0,
        0,
        0,
        0,
        0,
        0,
        0,
        0,
        0,
        0,
        0,
        0,
        0,
        0,
        0,
        0,
        0,
        0,
        0,
        0,
        0,
        0,
        0,
        0,
        0,
        0,
        0,
        0,
        0,
        0,
        0,
        0,
        0,
        0,
        0,
        0,
        0,
        0,
        0,
        0,
        0,
        0,
        0,
        0,
        0,
        0,
        0,
        0,
        0,
        0,
        0,
        0,
        0,
        0,
        0,
        0,
        0,
        0,
        0,
        0,
        0,
        0,
        0,
        0,
        0,
        0,
        0,
        0,
        0,
        0,
        0,
        0,
        0,
        0,
        0,
        0,
        0,
        0,
        0,
        0,
        0,
        0,
        0,
        0,
        0,
        0,
        0,
        0,
        0,
        0,
        0,
        0,
        0,
        0,
        0,
        0,
        0,
        0,
        0,
        0,
        0,
        0,
        0,
        0,
        0,
        0,
        0,
        0,
        0,
        0,
        0,
        0,
        0,
        0,
        0,
        0,
        0,
        0,
        0,
        0,
        0,
        0,
        0,
        0,
        0,
        0,
        0,
        0,
        0,
        0,
        0,
        0,
        0,
        0,
        0,
        0,
        0,
        0,
        0,
        0,
        0,
        0,
        0,
        0,
        0,
        0,
        0,
        0,
        0,
        0,
        0,
        0,
        0,
        0,
        0,
        0,
        0,
        0,
        0,
        0,
        0,
        0,
        0,
        0,
        0,
        0,
        0,
        0,
        0,
        0,
        0,
        0,
        0,
        0,
        0,
        0,
        0,
        0,
        0,
        0,
        0,
        0,
        0,
        0,
        0,
        0,
        0,
        0,
        0,
        0,
        0,
        0,
        0,
        0,
        0,
        0,
        0,
        0,
        0,
        0,
        0,
        0,
        0,
        0,
        0,
        0,
        0,
        0,
        0,
        0,
        0,
        0,
        0,
        0,
        0,
        0,
        0,
        0,
        0,
        0,
        0,
        0,
        0,
        0,
        0,
        0,
        0,
        0,
        0,
        0,
        0,
        0,
        0,
        0,
        0,
        0,
        0,
        0,
        0,
        0,
        0,
        0,
        0,
        0,
        0,
        0,
        0,
        0,
        0,
        0,
        0,
        0,
        0,
        0,
        0,
        0,
        0,
        0,
        0,
        0,
        0,
        0,
        0,
        0,
        0,
        0,
        0,
        0,
        0,
        0,
        0,
        0,
        0,
        0,
        0,
        0,
        0,
        0,
        0,
        0,
        0,
        0,
        0,
        0,
        0,
        0,
        0,
        0,
        0,
        0,
        0,
        0,
        0,
        0,
        0,
        0,
        0,
        0,
        0,
        0,
        0,
        0,
        0,
        0,
        0,
        0,
        0,
        0,
        0,
        0,
        0,
        0,
        0,
        0,
        0,
        0,
        0,
        0,
        0,
        0,
        0,
        0,
        0,
        0,
        0,
        0,
        0,
        0,
        0,
        0,
        0,
        0,
        0,
        0,
        0,
        0,
        0,
        0,
        0,
        0,
        0,
        0,
        0,
        0,
        0,
        0,
        0,
        0,
        0,
        0,
        0,
        0,
        0,
        0,
        0,
        0,
        0,
        0,
        0,
        0,
        0,
        0,
        0,
        0,
        0,
        0,
        0,
        0,
        0,
        0,
        0,
        0,
        0,
        0,
        0,
        0,
        0,
        0,
        0,
        0,
        0,
        0,
        0,
        0,
        0,
        0,
        0,
        0,
        0,
        0,
        0,
        0,
        0,
        0,
        0,
        0,
        0,
        0,
        0,
        0,
        0,
        0,
        0,
        0,
        0,
        0,
        0,
        0,
        0,
        0,
        0,
        0,
        0,
        0,
        0,
        0,
        0,
        0,
        0,
        0,
        0,
        0,
        0,
        0,
        0,
        0,
        0,
        0,
        0,
        0,
        0,
        0,
        0,
        0,
        0,
        0,
        0,
        0,
        0,
        0,
        0,
        0,
        0,
        0,
        0,
        0,
        0,
        0,
        0,
        0,
        0,
        0,
        0,
        0,
        0,
        0,
        0,
        0,
        0,
        0,
        0,
        0,
        0,
        0,
        0,
        0,
        0,
        0,
        302,
        302,
        302,
        302,
        302,
        302,
        302,
        302,
        302,
        302,
        302,
        302,
        302,
        0,
        0,
        0,
        0,
        0,
        0,
        0,
        0,
        0,
        0,
        0,
        0,
        0,
        0,
        0,
        0,
        0,
        0,
        0,
        0,
        0,
        0,
        0,
        0,
        0,
        0,
        302,
        302,
        302,
        302,
        302,
        302,
        302,
        302,
        302,
        302,
        302,
        302,
        302,
        0,
        0,
        0,
        0,
        0,
        0,
        0,
        0,
        0,
        0,
        0,
        0,
        0,
        0,
        0,
        0,
        0,
        0,
        0,
        0,
        0,
        0,
        0,
        0,
        0,
        0,
        0,
        302,
        302,
        302,
        302,
        302,
        302,
        302,
        302,
        302,
        302,
        302,
        302,
        302,
        0,
        0,
        0,
        0,
        0,
        0,
        0,
        0,
        0,
        0,
        0,
        0,
        0,
        0,
        0,
        0,
        0,
        0,
        0,
        0,
        0,
        0,
        0,
        0,
        0,
        0,
        0,
        302,
        302,
        302,
        302,
        302,
        302,
        302,
        302,
        302,
        302,
        302,
        302,
        302,
        302,
        302,
        302,
        302,
        302,
        302,
        302,
        302,
        302,
        302,
        302,
        302,
        302,
        302,
        0,
        0,
        0,
        0,
        0,
        0,
        0,
        0,
        0,
        0,
        0,
        0,
        0,
        302,
        302,
        302,
        302,
        302,
        302,
        302,
        302,
        302,
        302,
        302,
        302,
        302,
        302,
        302,
        302,
        302,
        302,
        302,
        302,
        302,
        302,
        302,
        302,
        302,
        302,
        0,
        0,
        0,
        0,
        0,
        0,
        0,
        0,
        0,
        0,
        0,
        0,
        0,
        302,
        302,
        302,
        302,
        302,
        302,
        302,
        302,
        302,
        302,
        302,
        302,
        302,
        302,
        302,
        302,
        302,
        302,
        302,
        302,
        302,
        302,
        302,
        302,
        302,
        302,
        0,
        0,
        0,
        0,
        0,
        0,
        0,
        0,
        0,
        0,
        0,
        0,
        0,
        0,
        0,
        0,
        0,
        0,
        0,
        0,
        0,
        302,
        302,
        302,
        302,
        302,
        302,
        302,
        304,
        0,
        0,
        0,
        0,
        304,
        0,
        0,
        0,
        0,
        0,
        0,
        0,
        302,
        302,
        302,
        302,
        302,
        302,
        302,
        302,
        302,
        302,
        302,
        302,
        302,
        302,
        302,
        302,
        302,
        302,
        302,
        302,
        302,
        302,
        302,
        302,
        302,
        302,
        0,
        0,
        0,
        0,
        0,
        0,
        304,
        0,
        0,
        0,
        0,
        0,
        0,
        302,
        302,
        302,
        302,
        302,
        302,
        302,
        302,
        302,
        302,
        302,
        302,
        302,
        302,
        302,
        302,
        302,
        302,
        302,
        302,
        302,
        302,
        302,
        302,
        302,
        302,
        302,
        0,
        0,
        0,
        0,
        0,
        0,
        0,
        0,
        0,
        0,
        0,
        0,
        0,
        302,
        302,
        302,
        302,
        302,
        302,
        302,
        302,
        0,
        0,
        0,
        0,
        0,
        0,
        0,
        0,
        0,
        0,
        0,
        0,
        0,
        0,
        0,
        0,
        0,
        0,
        0,
        302,
        302,
        0,
        0,
        0,
        0,
        0,
        0,
        0,
        304,
        0,
        0,
        304,
        0,
        0,
        0,
        0,
        0,
        0,
        0,
        0,
        0,
        0,
        0,
        0,
        0,
        0,
        302,
        302,
        302,
        302,
        302,
        302,
        302,
        302,
        302,
        302,
        302,
        302,
        302,
        0,
        0,
        304,
        0,
        0,
        0,
        0,
        304,
        0,
        0,
        0,
        304,
        0,
        0,
        0,
        0,
        0,
        304,
        0,
        304,
        0,
        304,
        0,
        0,
        0,
        0,
        302,
        302,
        302,
        302,
        302,
        302,
        302,
        302,
        302,
        302,
        302,
        302,
        302,
        0,
        304,
        0,
        304,
        0,
        0,
        0,
        0,
        0,
        0,
        0,
        0,
        0,
        0,
        304,
        0,
        0,
        0,
        0,
        0,
        0,
        0,
        0,
        0,
        0,
        302,
        302,
        0,
        0,
        0,
        0,
        0,
        0,
        0,
        0,
        0,
        0,
        0,
        0,
        0,
        0,
        0,
        0,
        0,
        0,
        0,
        0,
        302,
        302,
        0,
        0,
        0,
        0,
        0,
        0,
        0,
        0,
        0,
        0,
        0,
        0,
        0,
        0,
        0,
        0,
        0,
        304,
        0,
        0,
        0,
        0,
        0,
        0,
        304,
        0,
        304,
        0,
        0,
        0,
        0,
        304,
        304,
        0,
        0,
        0,
        0,
        0,
        0,
        0,
        0,
        0,
        304,
        0,
        0,
        0,
        0,
        0,
        0,
        0,
        0,
        0,
        0,
        0,
        304,
        0,
        0,
        0,
        0,
        0,
        0,
        0,
        0,
        0,
        0,
        0,
        0,
        304,
        0,
        0,
        304,
        0,
        304,
        0,
        304,
        304,
        304,
        0,
        0,
        0,
        304,
        0,
        0,
        304,
        0,
        304,
        0,
        0,
        304,
        304,
        304,
        0,
        0,
        0,
        0,
        0,
        0,
        0,
        0,
        0,
        0,
        0,
        302,
        302,
        0,
        0,
        0,
        0,
        0,
        0,
        0,
        0,
        0,
        0,
        0,
        0,
        0,
        0,
        0,
        0,
        0,
        0,
        0,
        0,
        302,
        302,
        0,
        0,
        0,
        0,
        0,
        0,
        0,
        0,
        0,
        0,
        0,
        0,
        0,
        0,
        0,
        0,
        304,
        0,
        0,
        0,
        0,
        0,
        0,
        0,
        0,
        0,
        0,
        0,
        0,
        0,
        0,
        0,
        0,
        0,
        0,
        304,
        304,
        0,
        0,
        0,
        304,
        304,
        0,
        0,
        0,
        0,
        0,
        0,
        0,
        0,
        0,
        0,
        304,
        0,
        304,
        0,
        0,
        0,
        304,
        0,
        304,
        0,
        0,
        0,
        0,
        0,
        0,
        0,
        0,
        0,
        0,
        0,
        0,
        0,
        0,
        0,
        0,
        0,
        0,
        0,
        0,
        0,
        304,
        0,
        0,
        0,
        0,
        0,
        0,
        0,
        304,
        0,
        0,
        0,
        0,
        304,
        0,
        0,
        0,
        0,
        0,
        0,
        302,
        302,
        0,
        0,
        0,
        0,
        0,
        0,
        0,
        0,
        0,
        0,
        0,
        0,
        0,
        0,
        0,
        0,
        0,
        0,
        0,
        302,
        302,
        0,
        304,
        0,
        0,
        0,
        0,
        304,
        0,
        0,
        0,
        0,
        0,
        304,
        304,
        0,
        0,
        0,
        0,
        304,
        0,
        0,
        0,
        0,
        0,
        0,
        0,
        0,
        0,
        0,
        0,
        304,
        0,
        0,
        0,
        0,
        0,
        0,
        0,
        0,
        0,
        0,
        0,
        0,
        304,
        0,
        0,
        0,
        0,
        304,
        0,
        0,
        0,
        0,
        0,
        304,
        304,
        0,
        0,
        0,
        0,
        0,
        0,
        304,
        0,
        0,
        0,
        0,
        0,
        0,
        0,
        0,
        304,
        0,
        0,
        0,
        0,
        0,
        0,
        0,
        0,
        0,
        0,
        0,
        0,
        0,
        0,
        0,
        0,
        0,
        0,
        0,
        0,
        0,
        0,
        0,
        0,
        304,
        0,
        0,
        0,
        0,
        0,
        0,
        302,
        302,
        0,
        0,
        0,
        0,
        0,
        0,
        0,
        0,
        0,
        0,
        0,
        0,
        0,
        0,
        0,
        0,
        0,
        0,
        0,
        302,
        302,
        0,
        0,
        0,
        304,
        304,
        0,
        0,
        0,
        0,
        0,
        0,
        0,
        304,
        304,
        0,
        0,
        0,
        0,
        0,
        304,
        0,
        304,
        0,
        304,
        0,
        0,
        0,
        0,
        0,
        304,
        0,
        0,
        304,
        0,
        0,
        0,
        0,
        0,
        0,
        0,
        0,
        0,
        0,
        0,
        0,
        0,
        304,
        0,
        0,
        0,
        0,
        0,
        0,
        0,
        0,
        0,
        0,
        0,
        0,
        0,
        0,
        0,
        0,
        0,
        0,
        304,
        0,
        0,
        304,
        0,
        0,
        0,
        0,
        0,
        0,
        0,
        304,
        0,
        0,
        304,
        0,
        0,
        0,
        0,
        0,
        0,
        0,
        304,
        0,
        0,
        0,
        0,
        304,
        0,
        304,
        0,
        0,
        304,
        0,
        0,
        0,
        0,
        304,
        302,
        302,
        0,
        0,
        0,
        0,
        0,
        0,
        0,
        0,
        0,
        0,
        0,
        0,
        0,
        0,
        0,
        0,
        0,
        0,
        302,
        302,
        0,
        0,
        0,
        0,
        0,
        0,
        0,
        0,
        0,
        0,
        0,
        0,
        0,
        0,
        0,
        0,
        0,
        0,
        0,
        0,
        0,
        0,
        0,
        304,
        0,
        0,
        304,
        0,
        0,
        0,
        0,
        0,
        0,
        0,
        304,
        0,
        0,
        0,
        0,
        304,
        0,
        0,
        0,
        0,
        0,
        0,
        0,
        0,
        0,
        0,
        0,
        304,
        0,
        0,
        304,
        0,
        0,
        0,
        304,
        0,
        0,
        0,
        0,
        0,
        0,
        0,
        0,
        0,
        0,
        0,
        304,
        0,
        0,
        0,
        0,
        0,
        0,
        0,
        0,
        0,
        0,
        0,
        0,
        0,
        0,
        0,
        0,
        0,
        304,
        0,
        0,
        0,
        0,
        304,
        0,
        0,
        304,
        304,
        0,
        0,
        0,
        0,
        0,
        0,
        302,
        302,
        0,
        0,
        0,
        0,
        0,
        0,
        0,
        0,
        0,
        0,
        0,
        0,
        0,
        0,
        0,
        0,
        0,
        0,
        302,
        302,
        0,
        0,
        0,
        0,
        0,
        0,
        0,
        0,
        0,
        0,
        0,
        0,
        0,
        0,
        0,
        0,
        304,
        0,
        0,
        0,
        0,
        0,
        0,
        304,
        0,
        0,
        0,
        0,
        0,
        0,
        0,
        0,
        0,
        0,
        0,
        0,
        0,
        304,
        304,
        0,
        0,
        304,
        0,
        304,
        304,
        0,
        0,
        0,
        0,
        0,
        0,
        304,
        0,
        304,
        0,
        0,
        0,
        304,
        0,
        0,
        0,
        0,
        0,
        0,
        0,
        0,
        0,
        0,
        0,
        0,
        0,
        304,
        0,
        0,
        0,
        0,
        0,
        0,
        0,
        0,
        0,
        0,
        0,
        0,
        0,
        0,
        0,
        304,
        0,
        0,
        0,
        0,
        0,
        0,
        0,
        0,
        0,
        0,
        0,
        0,
        0,
        0,
        0,
        0,
        302,
        302,
        0,
        0,
        0,
        0,
        0,
        0,
        0,
        0,
        0,
        0,
        0,
        0,
        0,
        0,
        0,
        0,
        0,
        0,
        302,
        302,
        0,
        0,
        0,
        0,
        304,
        0,
        0,
        0,
        0,
        0,
        0,
        0,
        0,
        0,
        0,
        304,
        0,
        0,
        0,
        0,
        0,
        0,
        0,
        0,
        0,
        0,
        0,
        304,
        0,
        0,
        0,
        304,
        0,
        0,
        0,
        0,
        0,
        0,
        0,
        0,
        0,
        0,
        0,
        0,
        0,
        0,
        0,
        304,
        0,
        0,
        0,
        0,
        0,
        0,
        0,
        0,
        0,
        0,
        304,
        0,
        0,
        0,
        304,
        0,
        304,
        0,
        0,
        0,
        0,
        0,
        0,
        0,
        304,
        0,
        0,
        304,
        0,
        0,
        304,
        0,
        0,
        0,
        0,
        0,
        0,
        0,
        304,
        304,
        0,
        0,
        0,
        0,
        0,
        0,
        0,
        0,
        0,
        0,
        0,
        0,
        0,
        0,
        0,
        0,
        302,
        302,
        0,
        0,
        0,
        0,
        0,
        0,
        0,
        0,
        0,
        0,
        0,
        0,
        0,
        0,
        0,
        0,
        302,
        302,
        0,
        0,
        0,
        0,
        0,
        0,
        0,
        0,
        0,
        304,
        0,
        0,
        0,
        0,
        304,
        0,
        0,
        0,
        0,
        0,
        0,
        0,
        0,
        0,
        0,
        0,
        0,
        0,
        0,
        0,
        0,
        304,
        0,
        0,
        0,
        0,
        0,
        0,
        0,
        0,
        0,
        0,
        0,
        0,
        0,
        0,
        0,
        0,
        0,
        304,
        304,
        0,
        0,
        304,
        0,
        0,
        0,
        0,
        0,
        0,
        0,
        0,
        0,
        0,
        0,
        304,
        304,
        0,
        0,
        0,
        0,
        0,
        0,
        0,
        0,
        0,
        304,
        0,
        0,
        0,
        0,
        304,
        0,
        0,
        0,
        304,
        0,
        0,
        0,
        0,
        0,
        0,
        0,
        304,
        0,
        0,
        0,
        0,
        0,
        0,
        0,
        0,
        0,
        0,
        0,
        302,
        302,
        0,
        0,
        0,
        0,
        0,
        0,
        0,
        0,
        0,
        0,
        0,
        0,
        0,
        0,
        0,
        0,
        302,
        302,
        302,
        0,
        304,
        0,
        0,
        0,
        0,
        0,
        304,
        0,
        0,
        0,
        0,
        304,
        0,
        304,
        0,
        0,
        0,
        0,
        0,
        0,
        0,
        0,
        0,
        0,
        0,
        0,
        0,
        0,
        0,
        0,
        304,
        0,
        0,
        0,
        0,
        304,
        0,
        0,
        0,
        0,
        0,
        0,
        0,
        0,
        0,
        0,
        0,
        0,
        0,
        304,
        0,
        0,
        304,
        304,
        0,
        0,
        0,
        0,
        0,
        304,
        0,
        0,
        0,
        0,
        0,
        304,
        0,
        0,
        0,
        0,
        0,
        0,
        0,
        0,
        0,
        0,
        0,
        0,
        0,
        304,
        0,
        0,
        0,
        0,
        0,
        0,
        0,
        0,
        0,
        0,
        0,
        0,
        0,
        0,
        0,
        0,
        0,
        0,
        0,
        0,
        0,
        0,
        0,
        0,
        302,
        302,
        0,
        0,
        0,
        0,
        0,
        0,
        0,
        0,
        0,
        0,
        0,
        0,
        0,
        0,
        0,
        0,
        302,
        302,
        0,
        0,
        0,
        0,
        0,
        0,
        0,
        0,
        0,
        0,
        0,
        0,
        0,
        304,
        0,
        0,
        0,
        0,
        0,
        0,
        304,
        0,
        0,
        0,
        304,
        0,
        0,
        0,
        0,
        304,
        0,
        0,
        0,
        0,
        0,
        0,
        0,
        0,
        0,
        0,
        0,
        0,
        0,
        0,
        0,
        0,
        304,
        0,
        304,
        0,
        0,
        0,
        0,
        0,
        304,
        0,
        304,
        0,
        0,
        0,
        0,
        0,
        0,
        0,
        0,
        0,
        0,
        0,
        0,
        0,
        0,
        0,
        0,
        304,
        0,
        0,
        0,
        304,
        0,
        304,
        0,
        0,
        0,
        304,
        304,
        0,
        0,
        0,
        0,
        0,
        304,
        0,
        0,
        0,
        304,
        0,
        0,
        0,
        0,
        0,
        0,
        0,
        0,
        0,
        304,
        0,
        302,
        302,
        0,
        0,
        0,
        0,
        0,
        0,
        0,
        0,
        0,
        0,
        0,
        0,
        0,
        0,
        0,
        302,
        302,
        0,
        0,
        0,
        0,
        0,
        0,
        0,
        0,
        0,
        0,
        0,
        0,
        0,
        304,
        0,
        0,
        0,
        0,
        0,
        0,
        0,
        0,
        0,
        0,
        0,
        0,
        0,
        0,
        0,
        0,
        0,
        0,
        304,
        0,
        0,
        0,
        0,
        0,
        0,
        0,
        304,
        0,
        0,
        0,
        0,
        0,
        0,
        0,
        0,
        304,
        0,
        0,
        0,
        0,
        304,
        0,
        0,
        0,
        0,
        0,
        0,
        0,
        0,
        0,
        0,
        0,
        304,
        0,
        304,
        0,
        0,
        0,
        0,
        0,
        0,
        0,
        0,
        0,
        0,
        304,
        0,
        0,
        0,
        304,
        0,
        304,
        0,
        0,
        0,
        0,
        0,
        0,
        0,
        0,
        0,
        0,
        0,
        0,
        0,
        0,
        0,
        0,
        0,
        0,
        0,
        0,
        304,
        302,
        302,
        0,
        0,
        0,
        0,
        0,
        0,
        0,
        0,
        0,
        0,
        0,
        0,
        0,
        0,
        0,
        302,
        302,
        0,
        0,
        0,
        0,
        0,
        0,
        0,
        0,
        0,
        0,
        0,
        0,
        0,
        0,
        0,
        0,
        0,
        0,
        0,
        0,
        0,
        0,
        0,
        0,
        0,
        0,
        0,
        0,
        0,
        0,
        304,
        0,
        0,
        0,
        304,
        0,
        0,
        0,
        0,
        0,
        0,
        0,
        0,
        0,
        304,
        0,
        0,
        0,
        304,
        0,
        304,
        304,
        0,
        0,
        0,
        0,
        0,
        0,
        304,
        0,
        0,
        0,
        0,
        0,
        0,
        304,
        0,
        0,
        0,
        0,
        0,
        0,
        0,
        0,
        0,
        0,
        0,
        0,
        0,
        0,
        0,
        0,
        0,
        0,
        0,
        304,
        0,
        0,
        0,
        0,
        0,
        304,
        0,
        0,
        0,
        0,
        0,
        0,
        0,
        0,
        0,
        304,
        0,
        0,
        0,
        0,
        304,
        302,
        302,
        0,
        0,
        0,
        0,
        0,
        0,
        0,
        0,
        0,
        0,
        0,
        0,
        0,
        0,
        0,
        302,
        302,
        0,
        0,
        0,
        0,
        0,
        0,
        0,
        0,
        0,
        0,
        0,
        0,
        0,
        0,
        0,
        0,
        0,
        0,
        0,
        0,
        304,
        0,
        304,
        0,
        0,
        0,
        0,
        0,
        0,
        304,
        0,
        0,
        0,
        0,
        0,
        0,
        0,
        0,
        0,
        0,
        0,
        304,
        0,
        0,
        0,
        0,
        0,
        0,
        0,
        0,
        0,
        0,
        0,
        304,
        0,
        0,
        0,
        0,
        0,
        0,
        0,
        0,
        0,
        0,
        0,
        0,
        0,
        0,
        0,
        0,
        0,
        0,
        0,
        0,
        0,
        0,
        0,
        0,
        0,
        0,
        0,
        304,
        0,
        0,
        304,
        0,
        304,
        304,
        0,
        0,
        304,
        0,
        304,
        0,
        0,
        0,
        0,
        0,
        0,
        0,
        0,
        0,
        0,
        0,
        0,
        0,
        304,
        302,
        302,
        0,
        0,
        0,
        0,
        0,
        0,
        0,
        0,
        0,
        0,
        0,
        0,
        0,
        0,
        0,
        302,
        302,
        0,
        0,
        0,
        0,
        0,
        0,
        0,
        0,
        0,
        0,
        0,
        0,
        0,
        0,
        0,
        0,
        0,
        0,
        0,
        0,
        0,
        0,
        0,
        0,
        0,
        304,
        0,
        0,
        0,
        0,
        0,
        0,
        0,
        0,
        0,
        0,
        0,
        0,
        0,
        0,
        0,
        0,
        0,
        304,
        0,
        0,
        0,
        304,
        0,
        0,
        0,
        0,
        0,
        0,
        0,
        0,
        304,
        0,
        0,
        304,
        304,
        0,
        0,
        0,
        0,
        0,
        0,
        0,
        0,
        0,
        0,
        0,
        0,
        304,
        0,
        0,
        0,
        0,
        0,
        304,
        0,
        0,
        0,
        0,
        0,
        0,
        0,
        0,
        304,
        0,
        0,
        0,
        0,
        0,
        0,
        0,
        304,
        0,
        0,
        0,
        0,
        0,
        0,
        304,
        0,
        0,
        0,
        302,
        302,
        0,
        0,
        0,
        0,
        0,
        0,
        0,
        0,
        0,
        0,
        0,
        0,
        0,
        0,
        0,
        302,
        302,
        0,
        0,
        304,
        0,
        0,
        304,
        0,
        0,
        0,
        0,
        0,
        304,
        0,
        0,
        0,
        0,
        0,
        0,
        0,
        304,
        304,
        0,
        0,
        0,
        0,
        0,
        0,
        0,
        0,
        304,
        0,
        0,
        0,
        0,
        0,
        0,
        0,
        0,
        0,
        0,
        304,
        0,
        0,
        0,
        0,
        0,
        0,
        0,
        0,
        304,
        0,
        304,
        0,
        0,
        0,
        0,
        0,
        0,
        0,
        0,
        0,
        0,
        0,
        0,
        0,
        0,
        0,
        0,
        0,
        0,
        0,
        304,
        0,
        0,
        0,
        0,
        0,
        0,
        0,
        0,
        0,
        0,
        0,
        0,
        0,
        0,
        0,
        0,
        0,
        0,
        0,
        0,
        0,
        304,
        0,
        0,
        304,
        0,
        0,
        0,
        0,
        0,
        0,
        0,
        0,
        0,
        0,
        302,
        302,
        0,
        0,
        0,
        0,
        0,
        0,
        0,
        0,
        0,
        0,
        0,
        0,
        0,
        0,
        0,
        302,
        302,
        304,
        0,
        0,
        0,
        0,
        304,
        0,
        0,
        0,
        0,
        0,
        304,
        0,
        0,
        0,
        0,
        0,
        0,
        0,
        304,
        304,
        0,
        0,
        304,
        304,
        0,
        0,
        0,
        0,
        0,
        0,
        0,
        0,
        0,
        304,
        0,
        0,
        0,
        0,
        0,
        0,
        0,
        0,
        0,
        0,
        0,
        0,
        0,
        0,
        304,
        0,
        0,
        0,
        0,
        0,
        0,
        0,
        0,
        0,
        0,
        0,
        0,
        0,
        0,
        0,
        0,
        0,
        0,
        0,
        0,
        0,
        0,
        0,
        0,
        0,
        0,
        0,
        304,
        0,
        0,
        0,
        0,
        0,
        0,
        0,
        304,
        0,
        0,
        0,
        0,
        0,
        0,
        0,
        0,
        0,
        0,
        0,
        0,
        0,
        304,
        0,
        0,
        304,
        0,
        0,
        0,
        304,
        302,
        302,
        0,
        0,
        0,
        0,
        0,
        0,
        0,
        0,
        0,
        0,
        0,
        0,
        0,
        0,
        0,
        302,
        302,
        0,
        304,
        0,
        0,
        0,
        0,
        0,
        0,
        0,
        0,
        0,
        0,
        0,
        0,
        0,
        0,
        0,
        0,
        0,
        0,
        0,
        0,
        0,
        304,
        0,
        0,
        0,
        0,
        0,
        0,
        0,
        0,
        0,
        0,
        0,
        0,
        0,
        0,
        0,
        0,
        0,
        0,
        304,
        0,
        0,
        0,
        0,
        0,
        0,
        0,
        0,
        0,
        0,
        0,
        0,
        0,
        0,
        304,
        0,
        0,
        304,
        0,
        304,
        0,
        0,
        0,
        0,
        304,
        304,
        0,
        0,
        0,
        304,
        0,
        0,
        0,
        0,
        0,
        0,
        304,
        0,
        0,
        0,
        0,
        0,
        0,
        0,
        0,
        0,
        304,
        0,
        0,
        0,
        0,
        0,
        0,
        0,
        0,
        0,
        0,
        0,
        0,
        0,
        0,
        0,
        304,
        0,
        302,
        302,
        0,
        0,
        0,
        0,
        0,
        0,
        0,
        0,
        0,
        0,
        0,
        0,
        0,
        0,
        0,
        302,
        302,
        0,
        0,
        0,
        0,
        0,
        0,
        0,
        0,
        0,
        0,
        304,
        0,
        0,
        0,
        0,
        0,
        0,
        0,
        0,
        0,
        0,
        304,
        0,
        0,
        0,
        0,
        0,
        304,
        0,
        0,
        0,
        0,
        0,
        304,
        0,
        0,
        304,
        0,
        0,
        0,
        0,
        0,
        0,
        0,
        0,
        0,
        0,
        0,
        0,
        0,
        0,
        0,
        0,
        0,
        0,
        0,
        304,
        0,
        0,
        0,
        0,
        0,
        304,
        0,
        0,
        0,
        0,
        304,
        0,
        304,
        0,
        0,
        0,
        304,
        0,
        0,
        0,
        304,
        0,
        304,
        0,
        0,
        0,
        0,
        304,
        0,
        0,
        0,
        0,
        0,
        0,
        0,
        0,
        0,
        0,
        0,
        0,
        0,
        0,
        0,
        0,
        0,
        0,
        0,
        0,
        0,
        304,
        302,
        302,
        0,
        0,
        0,
        0,
        0,
        0,
        0,
        0,
        0,
        0,
        0,
        0,
        0,
        0,
        0,
        302,
        302,
        0,
        0,
        0,
        0,
        0,
        0,
        0,
        0,
        0,
        0,
        0,
        0,
        304,
        0,
        0,
        0,
        0,
        0,
        0,
        304,
        0,
        0,
        0,
        0,
        0,
        0,
        0,
        0,
        0,
        0,
        0,
        0,
        0,
        0,
        304,
        0,
        0,
        304,
        0,
        0,
        0,
        0,
        0,
        0,
        0,
        0,
        0,
        0,
        0,
        0,
        0,
        0,
        0,
        0,
        0,
        0,
        304,
        0,
        0,
        0,
        0,
        304,
        0,
        0,
        0,
        0,
        0,
        0,
        0,
        0,
        0,
        0,
        0,
        0,
        0,
        0,
        304,
        0,
        0,
        0,
        0,
        0,
        0,
        0,
        304,
        0,
        0,
        0,
        0,
        0,
        0,
        0,
        0,
        0,
        0,
        0,
        0,
        0,
        0,
        0,
        304,
        0,
        0,
        0,
        0,
        0,
        304,
        302,
        302,
        0,
        0,
        0,
        0,
        0,
        0,
        0,
        0,
        0,
        0,
        0,
        0,
        0,
        0,
        0,
        0,
        302,
        302,
        0,
        304,
        0,
        0,
        0,
        0,
        304,
        0,
        304,
        304,
        0,
        0,
        0,
        304,
        0,
        0,
        0,
        304,
        0,
        0,
        0,
        304,
        0,
        0,
        304,
        0,
        0,
        304,
        0,
        0,
        0,
        0,
        0,
        0,
        0,
        0,
        0,
        0,
        0,
        0,
        0,
        0,
        0,
        0,
        0,
        304,
        0,
        304,
        304,
        0,
        0,
        0,
        0,
        0,
        0,
        0,
        0,
        0,
        304,
        0,
        0,
        0,
        304,
        0,
        0,
        0,
        0,
        304,
        0,
        0,
        0,
        0,
        0,
        0,
        0,
        304,
        0,
        304,
        0,
        0,
        0,
        0,
        0,
        0,
        0,
        0,
        0,
        304,
        0,
        0,
        0,
        0,
        304,
        0,
        0,
        0,
        0,
        0,
        0,
        0,
        0,
        0,
        304,
        0,
        304,
        304,
        302,
        302,
        0,
        0,
        0,
        0,
        0,
        0,
        0,
        0,
        0,
        0,
        0,
        0,
        0,
        0,
        0,
        0,
        302,
        302,
        0,
        0,
        0,
        304,
        0,
        0,
        0,
        304,
        0,
        304,
        0,
        0,
        0,
        0,
        0,
        0,
        0,
        0,
        0,
        0,
        0,
        0,
        0,
        0,
        0,
        0,
        0,
        0,
        0,
        304,
        304,
        0,
        0,
        304,
        0,
        0,
        0,
        304,
        304,
        304,
        0,
        0,
        0,
        0,
        0,
        304,
        0,
        0,
        0,
        0,
        0,
        0,
        0,
        0,
        304,
        0,
        0,
        304,
        0,
        0,
        0,
        0,
        0,
        0,
        0,
        0,
        0,
        304,
        0,
        0,
        0,
        0,
        0,
        0,
        0,
        0,
        304,
        304,
        304,
        304,
        0,
        304,
        0,
        0,
        0,
        0,
        0,
        304,
        0,
        0,
        304,
        0,
        304,
        0,
        0,
        304,
        0,
        0,
        0,
        0,
        0,
        0,
        0,
        0,
        0,
        0,
        302,
        302,
        0,
        0,
        0,
        0,
        0,
        0,
        0,
        0,
        0,
        0,
        0,
        0,
        0,
        0,
        0,
        0,
        0,
        302,
        302,
        0,
        0,
        0,
        0,
        304,
        0,
        0,
        0,
        0,
        0,
        0,
        0,
        0,
        0,
        304,
        0,
        0,
        0,
        0,
        0,
        0,
        0,
        0,
        0,
        0,
        0,
        0,
        0,
        0,
        0,
        0,
        0,
        0,
        0,
        0,
        0,
        0,
        304,
        0,
        0,
        0,
        0,
        0,
        0,
        0,
        0,
        0,
        0,
        0,
        0,
        304,
        0,
        0,
        0,
        0,
        0,
        304,
        0,
        0,
        0,
        0,
        0,
        0,
        0,
        304,
        0,
        0,
        0,
        304,
        0,
        0,
        0,
        0,
        304,
        0,
        304,
        0,
        0,
        0,
        304,
        304,
        0,
        0,
        0,
        0,
        0,
        0,
        0,
        0,
        0,
        0,
        0,
        304,
        0,
        0,
        0,
        0,
        0,
        0,
        0,
        0,
        0,
        0,
        0,
        304,
        302,
        302,
        0,
        0,
        0,
        0,
        0,
        0,
        0,
        0,
        0,
        0,
        0,
        0,
        0,
        0,
        0,
        0,
        0,
        302,
        302,
        0,
        0,
        0,
        0,
        0,
        0,
        0,
        0,
        0,
        0,
        0,
        304,
        304,
        0,
        0,
        0,
        0,
        0,
        0,
        304,
        304,
        0,
        0,
        0,
        0,
        0,
        0,
        0,
        0,
        0,
        0,
        0,
        0,
        0,
        304,
        0,
        0,
        304,
        0,
        0,
        0,
        0,
        0,
        0,
        0,
        0,
        0,
        0,
        0,
        304,
        0,
        0,
        0,
        0,
        0,
        0,
        0,
        0,
        0,
        0,
        0,
        0,
        0,
        0,
        0,
        0,
        0,
        0,
        0,
        0,
        0,
        0,
        0,
        304,
        0,
        0,
        0,
        0,
        0,
        0,
        0,
        0,
        0,
        0,
        0,
        0,
        0,
        0,
        0,
        0,
        0,
        0,
        0,
        0,
        0,
        304,
        0,
        0,
        0,
        0,
        0,
        0,
        0,
        0,
        0,
        302,
        302,
        0,
        0,
        0,
        0,
        0,
        0,
        0,
        0,
        0,
        0,
        0,
        0,
        0,
        0,
        0,
        0,
        0,
        302,
        302,
        0,
        0,
        0,
        0,
        0,
        0,
        0,
        0,
        0,
        0,
        0,
        0,
        0,
        0,
        304,
        304,
        0,
        0,
        0,
        0,
        0,
        304,
        0,
        0,
        0,
        304,
        0,
        0,
        0,
        304,
        304,
        0,
        0,
        0,
        0,
        0,
        0,
        0,
        0,
        0,
        304,
        0,
        0,
        0,
        0,
        0,
        304,
        0,
        0,
        304,
        0,
        0,
        0,
        0,
        0,
        0,
        304,
        0,
        0,
        0,
        0,
        0,
        0,
        304,
        0,
        0,
        0,
        0,
        0,
        0,
        304,
        0,
        0,
        304,
        0,
        0,
        0,
        0,
        0,
        0,
        0,
        0,
        304,
        0,
        304,
        0,
        0,
        0,
        0,
        0,
        0,
        0,
        0,
        0,
        304,
        0,
        0,
        0,
        0,
        0,
        0,
        0,
        304,
        0,
        0,
        0,
        302,
        302,
        0,
        0,
        0,
        0,
        0,
        0,
        0,
        0,
        0,
        0,
        0,
        0,
        0,
        0,
        0,
        0,
        0,
        302,
        302,
        304,
        0,
        0,
        0,
        304,
        0,
        0,
        0,
        0,
        0,
        0,
        0,
        0,
        0,
        0,
        0,
        0,
        0,
        0,
        0,
        0,
        0,
        0,
        0,
        0,
        0,
        304,
        0,
        0,
        0,
        0,
        0,
        0,
        0,
        0,
        0,
        304,
        0,
        0,
        0,
        0,
        0,
        0,
        0,
        0,
        0,
        0,
        0,
        0,
        0,
        0,
        304,
        0,
        0,
        0,
        304,
        0,
        0,
        0,
        0,
        0,
        0,
        0,
        0,
        0,
        0,
        0,
        0,
        0,
        0,
        0,
        0,
        0,
        0,
        0,
        0,
        0,
        0,
        0,
        304,
        0,
        0,
        0,
        304,
        0,
        0,
        0,
        0,
        0,
        0,
        0,
        0,
        0,
        0,
        0,
        0,
        0,
        0,
        0,
        0,
        0,
        0,
        0,
        0,
        0,
        302,
        302,
        0,
        0,
        0,
        0,
        0,
        0,
        0,
        0,
        0,
        0,
        0,
        0,
        0,
        0,
        0,
        0,
        0,
        302,
        302,
        0,
        0,
        0,
        0,
        0,
        0,
        0,
        0,
        302,
        0,
        0,
        0,
        0,
        0,
        0,
        0,
        0,
        0,
        0,
        0,
        0,
        0,
        0,
        0,
        302,
        0,
        0,
        0,
        0,
        0,
        0,
        0,
        0,
        0,
        0,
        0,
        302,
        0,
        0,
        0,
        0,
        0,
        0,
        0,
        0,
        0,
        0,
        0,
        0,
        302,
        302,
        302,
        0,
        0,
        0,
        302,
        302,
        0,
        0,
        0,
        0,
        302,
        0,
        0,
        0,
        0,
        0,
        0,
        0,
        0,
        0,
        0,
        0,
        0,
        0,
        0,
        303,
        0,
        0,
        0,
        0,
        0,
        0,
        0,
        303,
        303,
        303,
        0,
        0,
        303,
        303,
        0,
        0,
        0,
        0,
        0,
        0,
        0,
        0,
        0,
        0,
        0,
        0,
        0,
        0,
        302,
        302,
        0,
        0,
        0,
        0,
        0,
        0,
        0,
        0,
        0,
        0,
        0,
        0,
        0,
        0,
        0,
        0,
        0,
        0,
        302,
        302,
        0,
        0,
        0,
        302,
        0,
        0,
        0,
        0,
        0,
        0,
        0,
        0,
        0,
        0,
        0,
        302,
        0,
        0,
        0,
        302,
        0,
        0,
        0,
        0,
        0,
        0,
        0,
        0,
        0,
        0,
        0,
        302,
        0,
        0,
        0,
        0,
        0,
        0,
        0,
        302,
        0,
        0,
        0,
        0,
        0,
        0,
        0,
        0,
        0,
        0,
        0,
        0,
        0,
        0,
        0,
        0,
        0,
        0,
        0,
        0,
        302,
        0,
        0,
        302,
        302,
        0,
        0,
        0,
        0,
        0,
        0,
        302,
        0,
        0,
        0,
        0,
        0,
        0,
        0,
        0,
        0,
        0,
        303,
        0,
        303,
        0,
        0,
        0,
        0,
        303,
        0,
        0,
        0,
        0,
        0,
        303,
        0,
        0,
        0,
        303,
        0,
        0,
        0,
        0,
        302,
        302,
        0,
        0,
        0,
        0,
        0,
        0,
        0,
        0,
        0,
        0,
        0,
        0,
        0,
        0,
        0,
        0,
        0,
        0,
        302,
        302,
        0,
        302,
        0,
        0,
        0,
        0,
        0,
        0,
        0,
        0,
        0,
        0,
        0,
        0,
        0,
        0,
        0,
        0,
        0,
        0,
        302,
        0,
        302,
        0,
        0,
        0,
        0,
        0,
        0,
        0,
        0,
        0,
        0,
        302,
        0,
        0,
        0,
        0,
        0,
        0,
        0,
        0,
        0,
        302,
        0,
        0,
        0,
        0,
        0,
        0,
        0,
        0,
        0,
        0,
        0,
        0,
        0,
        0,
        302,
        0,
        0,
        0,
        0,
        0,
        0,
        302,
        0,
        0,
        0,
        302,
        0,
        0,
        0,
        0,
        0,
        0,
        0,
        0,
        0,
        0,
        303,
        0,
        0,
        0,
        0,
        0,
        303,
        0,
        0,
        0,
        0,
        0,
        0,
        0,
        0,
        0,
        0,
        0,
        0,
        303,
        0,
        0,
        0,
        0,
        302,
        302,
        0,
        0,
        0,
        0,
        0,
        0,
        0,
        0,
        0,
        0,
        0,
        0,
        0,
        0,
        0,
        0,
        0,
        0,
        302,
        302,
        0,
        0,
        0,
        0,
        0,
        0,
        302,
        0,
        0,
        0,
        0,
        0,
        0,
        0,
        0,
        0,
        0,
        0,
        0,
        0,
        0,
        302,
        0,
        0,
        302,
        0,
        0,
        0,
        0,
        302,
        302,
        302,
        0,
        0,
        0,
        0,
        0,
        302,
        0,
        0,
        0,
        0,
        0,
        0,
        0,
        0,
        0,
        0,
        0,
        0,
        0,
        0,
        0,
        0,
        0,
        0,
        0,
        0,
        302,
        0,
        0,
        0,
        0,
        0,
        0,
        0,
        0,
        0,
        0,
        0,
        0,
        0,
        0,
        0,
        303,
        0,
        0,
        303,
        303,
        0,
        0,
        0,
        0,
        0,
        0,
        0,
        0,
        0,
        0,
        0,
        0,
        0,
        0,
        0,
        0,
        0,
        0,
        0,
        0,
        0,
        0,
        0,
        0,
        0,
        302,
        302,
        0,
        0,
        0,
        0,
        0,
        0,
        0,
        0,
        0,
        0,
        0,
        0,
        0,
        0,
        0,
        0,
        0,
        0,
        302,
        302,
        0,
        0,
        0,
        0,
        0,
        0,
        302,
        0,
        0,
        0,
        0,
        0,
        302,
        0,
        302,
        0,
        0,
        0,
        0,
        0,
        0,
        0,
        302,
        0,
        0,
        0,
        0,
        0,
        0,
        0,
        0,
        0,
        0,
        0,
        0,
        0,
        302,
        302,
        0,
        0,
        0,
        0,
        0,
        0,
        0,
        302,
        0,
        0,
        0,
        0,
        0,
        0,
        0,
        0,
        0,
        0,
        0,
        0,
        0,
        0,
        0,
        0,
        0,
        0,
        0,
        0,
        0,
        0,
        0,
        0,
        0,
        0,
        0,
        0,
        0,
        0,
        0,
        0,
        0,
        0,
        0,
        0,
        0,
        0,
        0,
        303,
        0,
        0,
        0,
        0,
        0,
        0,
        0,
        0,
        0,
        0,
        0,
        0,
        0,
        0,
        0,
        0,
        0,
        0,
        302,
        302,
        0,
        0,
        0,
        0,
        0,
        0,
        0,
        0,
        0,
        0,
        0,
        0,
        0,
        0,
        0,
        0,
        0,
        0,
        302,
        302,
        0,
        0,
        0,
        0,
        0,
        0,
        302,
        0,
        0,
        0,
        0,
        302,
        0,
        0,
        0,
        0,
        0,
        0,
        0,
        0,
        0,
        0,
        0,
        0,
        0,
        0,
        0,
        0,
        0,
        0,
        0,
        0,
        0,
        0,
        0,
        0,
        0,
        0,
        0,
        302,
        0,
        0,
        0,
        0,
        0,
        0,
        0,
        0,
        0,
        302,
        0,
        0,
        0,
        0,
        0,
        0,
        0,
        0,
        0,
        0,
        302,
        302,
        0,
        0,
        302,
        302,
        0,
        0,
        0,
        0,
        0,
        0,
        0,
        0,
        0,
        0,
        0,
        0,
        0,
        0,
        303,
        0,
        0,
        0,
        0,
        0,
        0,
        303,
        0,
        0,
        0,
        303,
        0,
        0,
        0,
        0,
        0,
        0,
        0,
        0,
        0,
        0,
        0,
        0,
        302,
        302,
        0,
        0,
        0,
        0,
        0,
        0,
        0,
        0,
        0,
        0,
        0,
        0,
        0,
        0,
        0,
        0,
        0,
        0,
        302,
        302,
        0,
        0,
        0,
        0,
        0,
        0,
        0,
        0,
        0,
        0,
        0,
        302,
        0,
        0,
        0,
        0,
        0,
        0,
        0,
        0,
        0,
        0,
        302,
        0,
        0,
        0,
        0,
        302,
        0,
        0,
        0,
        0,
        0,
        0,
        0,
        0,
        0,
        0,
        0,
        0,
        0,
        0,
        0,
        0,
        0,
        0,
        0,
        0,
        0,
        0,
        0,
        0,
        0,
        0,
        0,
        0,
        0,
        0,
        0,
        0,
        0,
        0,
        0,
        0,
        0,
        0,
        0,
        0,
        0,
        0,
        0,
        0,
        0,
        0,
        0,
        0,
        0,
        0,
        0,
        0,
        0,
        0,
        0,
        0,
        0,
        0,
        0,
        0,
        303,
        0,
        0,
        0,
        0,
        0,
        0,
        0,
        0,
        303,
        0,
        0,
        0,
        0,
        0,
        0,
        0,
        302,
        302,
        0,
        0,
        0,
        0,
        0,
        0,
        0,
        0,
        0,
        0,
        0,
        0,
        0,
        0,
        0,
        0,
        0,
        302,
        302,
        302,
        0,
        0,
        0,
        0,
        0,
        0,
        0,
        0,
        302,
        0,
        0,
        0,
        0,
        302,
        0,
        302,
        0,
        0,
        302,
        0,
        0,
        0,
        0,
        0,
        0,
        0,
        0,
        0,
        0,
        0,
        0,
        0,
        0,
        0,
        0,
        0,
        0,
        0,
        0,
        0,
        0,
        0,
        0,
        0,
        0,
        0,
        0,
        0,
        0,
        0,
        0,
        0,
        0,
        0,
        0,
        0,
        0,
        0,
        0,
        0,
        0,
        0,
        0,
        0,
        0,
        0,
        0,
        0,
        0,
        0,
        0,
        0,
        0,
        0,
        0,
        0,
        0,
        0,
        0,
        0,
        0,
        0,
        0,
        0,
        0,
        303,
        0,
        0,
        0,
        0,
        0,
        0,
        0,
        0,
        303,
        0,
        0,
        0,
        303,
        0,
        303,
        0,
        0,
        0,
        302,
        302,
        0,
        0,
        0,
        0,
        0,
        0,
        0,
        0,
        0,
        0,
        0,
        0,
        0,
        0,
        0,
        0,
        0,
        302,
        302,
        0,
        302,
        0,
        0,
        0,
        0,
        0,
        0,
        0,
        0,
        0,
        0,
        0,
        0,
        302,
        0,
        0,
        0,
        0,
        0,
        0,
        0,
        0,
        0,
        0,
        0,
        0,
        302,
        0,
        0,
        0,
        0,
        0,
        0,
        0,
        0,
        0,
        0,
        0,
        0,
        0,
        0,
        0,
        0,
        0,
        0,
        0,
        0,
        0,
        0,
        0,
        0,
        0,
        0,
        0,
        0,
        0,
        0,
        0,
        0,
        0,
        0,
        0,
        0,
        0,
        0,
        0,
        0,
        0,
        0,
        0,
        0,
        0,
        0,
        0,
        0,
        0,
        0,
        0,
        0,
        0,
        0,
        0,
        0,
        0,
        0,
        0,
        0,
        0,
        303,
        0,
        303,
        303,
        0,
        0,
        0,
        0,
        0,
        0,
        0,
        0,
        0,
        303,
        0,
        0,
        302,
        302,
        0,
        0,
        0,
        0,
        0,
        0,
        0,
        0,
        0,
        0,
        0,
        0,
        0,
        0,
        0,
        0,
        0,
        302,
        302,
        0,
        0,
        0,
        302,
        0,
        0,
        0,
        0,
        0,
        0,
        0,
        0,
        0,
        0,
        0,
        0,
        302,
        0,
        0,
        0,
        0,
        0,
        302,
        302,
        0,
        302,
        302,
        0,
        0,
        0,
        0,
        0,
        0,
        0,
        0,
        0,
        0,
        0,
        0,
        0,
        0,
        0,
        0,
        0,
        0,
        0,
        0,
        0,
        0,
        0,
        0,
        0,
        0,
        0,
        0,
        0,
        0,
        0,
        0,
        0,
        0,
        0,
        0,
        0,
        0,
        0,
        0,
        0,
        0,
        0,
        0,
        0,
        0,
        0,
        0,
        0,
        0,
        0,
        0,
        0,
        0,
        0,
        0,
        0,
        0,
        0,
        0,
        0,
        0,
        0,
        303,
        303,
        0,
        0,
        0,
        303,
        0,
        303,
        0,
        0,
        0,
        303,
        0,
        0,
        0,
        302,
        302,
        0,
        0,
        0,
        0,
        0,
        0,
        0,
        0,
        0,
        0,
        0,
        0,
        0,
        0,
        0,
        0,
        302,
        302,
        0,
        0,
        0,
        0,
        0,
        0,
        0,
        0,
        302,
        0,
        0,
        0,
        0,
        302,
        0,
        0,
        0,
        0,
        0,
        0,
        0,
        0,
        0,
        0,
        0,
        0,
        0,
        302,
        302,
        0,
        0,
        0,
        0,
        0,
        0,
        0,
        0,
        0,
        0,
        0,
        0,
        0,
        0,
        0,
        0,
        0,
        0,
        0,
        0,
        0,
        0,
        0,
        0,
        0,
        0,
        0,
        0,
        0,
        0,
        0,
        0,
        0,
        0,
        0,
        0,
        0,
        0,
        0,
        0,
        0,
        0,
        0,
        0,
        0,
        0,
        0,
        0,
        0,
        0,
        0,
        0,
        0,
        0,
        0,
        0,
        0,
        0,
        0,
        0,
        0,
        0,
        0,
        303,
        0,
        0,
        0,
        0,
        0,
        0,
        0,
        0,
        303,
        303,
        0,
        0,
        0,
        302,
        302,
        0,
        0,
        0,
        0,
        0,
        0,
        0,
        0,
        0,
        0,
        0,
        0,
        0,
        0,
        0,
        0,
        302,
        302,
        0,
        0,
        0,
        0,
        0,
        302,
        0,
        0,
        0,
        0,
        0,
        0,
        0,
        0,
        0,
        0,
        0,
        0,
        0,
        0,
        0,
        0,
        0,
        0,
        0,
        0,
        0,
        0,
        0,
        0,
        0,
        0,
        0,
        0,
        0,
        0,
        0,
        0,
        0,
        0,
        0,
        0,
        0,
        0,
        0,
        0,
        0,
        0,
        0,
        0,
        0,
        0,
        0,
        0,
        0,
        0,
        0,
        0,
        0,
        0,
        0,
        0,
        0,
        0,
        0,
        0,
        0,
        0,
        0,
        0,
        0,
        0,
        0,
        0,
        0,
        0,
        0,
        0,
        0,
        0,
        0,
        0,
        0,
        0,
        0,
        0,
        0,
        0,
        303,
        0,
        0,
        0,
        0,
        0,
        0,
        0,
        0,
        303,
        0,
        0,
        303,
        0,
        0,
        303,
        0,
        0,
        302,
        302,
        0,
        0,
        0,
        0,
        0,
        0,
        0,
        0,
        0,
        0,
        0,
        0,
        0,
        0,
        0,
        302,
        302,
        0,
        302,
        0,
        0,
        0,
        0,
        0,
        302,
        0,
        0,
        0,
        0,
        0,
        0,
        302,
        0,
        0,
        0,
        0,
        0,
        0,
        0,
        0,
        0,
        0,
        0,
        0,
        0,
        0,
        0,
        0,
        0,
        0,
        0,
        0,
        0,
        0,
        0,
        0,
        0,
        0,
        0,
        0,
        0,
        0,
        0,
        0,
        0,
        0,
        0,
        0,
        0,
        0,
        0,
        0,
        0,
        0,
        0,
        0,
        0,
        0,
        0,
        0,
        0,
        0,
        0,
        0,
        0,
        0,
        0,
        0,
        0,
        0,
        0,
        0,
        0,
        0,
        0,
        0,
        0,
        0,
        0,
        0,
        0,
        0,
        0,
        0,
        0,
        0,
        303,
        0,
        0,
        0,
        0,
        0,
        0,
        0,
        0,
        0,
        0,
        0,
        0,
        0,
        0,
        0,
        0,
        0,
        302,
        302,
        0,
        0,
        0,
        0,
        0,
        0,
        0,
        0,
        0,
        0,
        0,
        0,
        0,
        0,
        0,
        302,
        302,
        0,
        302,
        0,
        0,
        0,
        302,
        0,
        0,
        0,
        0,
        0,
        0,
        0,
        0,
        0,
        0,
        302,
        302,
        0,
        0,
        0,
        0,
        0,
        0,
        0,
        0,
        0,
        0,
        0,
        0,
        0,
        0,
        0,
        0,
        0,
        0,
        0,
        0,
        0,
        0,
        0,
        0,
        0,
        0,
        0,
        0,
        0,
        0,
        0,
        0,
        0,
        0,
        0,
        0,
        0,
        0,
        0,
        0,
        0,
        0,
        0,
        0,
        0,
        0,
        0,
        0,
        0,
        0,
        0,
        0,
        0,
        0,
        0,
        0,
        0,
        0,
        0,
        0,
        0,
        0,
        0,
        0,
        0,
        0,
        0,
        0,
        0,
        0,
        0,
        0,
        303,
        0,
        0,
        0,
        0,
        0,
        0,
        0,
        0,
        0,
        0,
        0,
        0,
        0,
        0,
        0,
        0,
        302,
        302,
        0,
        0,
        0,
        0,
        0,
        0,
        0,
        0,
        0,
        0,
        0,
        0,
        0,
        0,
        0,
        302,
        302,
        0,
        0,
        0,
        302,
        0,
        0,
        0,
        0,
        302,
        0,
        0,
        302,
        0,
        0,
        0,
        0,
        0,
        0,
        0,
        0,
        0,
        0,
        0,
        302,
        0,
        0,
        0,
        0,
        0,
        0,
        0,
        0,
        0,
        0,
        0,
        0,
        0,
        0,
        0,
        0,
        0,
        0,
        0,
        0,
        0,
        0,
        0,
        0,
        0,
        0,
        0,
        0,
        0,
        0,
        0,
        0,
        0,
        0,
        0,
        0,
        0,
        0,
        0,
        0,
        0,
        0,
        0,
        0,
        0,
        0,
        0,
        0,
        0,
        0,
        0,
        0,
        0,
        0,
        0,
        0,
        0,
        0,
        0,
        0,
        0,
        0,
        0,
        0,
        0,
        0,
        0,
        0,
        0,
        0,
        303,
        0,
        0,
        0,
        303,
        0,
        0,
        0,
        0,
        0,
        0,
        0,
        0,
        302,
        302,
        0,
        0,
        0,
        0,
        0,
        0,
        0,
        0,
        0,
        0,
        0,
        0,
        0,
        0,
        0,
        302,
        302,
        302,
        302,
        0,
        0,
        0,
        0,
        0,
        0,
        0,
        0,
        0,
        0,
        0,
        0,
        302,
        0,
        0,
        0,
        0,
        0,
        0,
        0,
        0,
        0,
        0,
        0,
        0,
        0,
        0,
        302,
        0,
        0,
        0,
        0,
        0,
        0,
        0,
        0,
        0,
        0,
        0,
        0,
        0,
        0,
        0,
        0,
        0,
        0,
        0,
        0,
        0,
        0,
        0,
        0,
        0,
        0,
        0,
        0,
        0,
        0,
        0,
        0,
        0,
        0,
        0,
        0,
        0,
        0,
        0,
        0,
        0,
        0,
        0,
        0,
        0,
        0,
        0,
        0,
        0,
        0,
        0,
        0,
        0,
        0,
        0,
        0,
        0,
        0,
        0,
        0,
        0,
        0,
        0,
        0,
        0,
        0,
        0,
        0,
        0,
        0,
        0,
        0,
        0,
        0,
        0,
        0,
        0,
        302,
        302,
        0,
        0,
        0,
        0,
        0,
        0,
        0,
        0,
        0,
        0,
        0,
        0,
        0,
        0,
        302,
        302,
        302,
        302,
        0,
        0,
        0,
        302,
        0,
        0,
        0,
        0,
        0,
        0,
        0,
        0,
        0,
        0,
        0,
        302,
        0,
        302,
        0,
        0,
        0,
        0,
        0,
        302,
        0,
        0,
        0,
        0,
        0,
        0,
        0,
        0,
        0,
        0,
        0,
        0,
        0,
        0,
        0,
        0,
        0,
        0,
        0,
        0,
        0,
        0,
        0,
        0,
        0,
        0,
        0,
        0,
        0,
        0,
        0,
        0,
        0,
        0,
        0,
        0,
        0,
        0,
        0,
        0,
        0,
        0,
        0,
        0,
        0,
        0,
        0,
        0,
        0,
        0,
        0,
        0,
        0,
        0,
        0,
        0,
        0,
        0,
        0,
        0,
        0,
        0,
        0,
        0,
        0,
        0,
        0,
        0,
        0,
        0,
        303,
        0,
        0,
        0,
        0,
        0,
        0,
        0,
        0,
        0,
        0,
        303,
        302,
        302,
        0,
        0,
        0,
        0,
        0,
        0,
        0,
        0,
        0,
        0,
        0,
        0,
        0,
        0,
        302,
        302,
        0,
        0,
        0,
        0,
        302,
        0,
        0,
        0,
        0,
        0,
        0,
        0,
        0,
        0,
        0,
        0,
        0,
        0,
        0,
        0,
        302,
        302,
        0,
        302,
        302,
        0,
        0,
        302,
        0,
        0,
        0,
        0,
        0,
        0,
        0,
        0,
        0,
        0,
        0,
        0,
        0,
        0,
        0,
        0,
        0,
        0,
        0,
        0,
        0,
        0,
        0,
        0,
        0,
        0,
        0,
        0,
        0,
        0,
        0,
        0,
        0,
        0,
        0,
        0,
        0,
        0,
        0,
        0,
        0,
        0,
        0,
        0,
        0,
        0,
        0,
        0,
        0,
        0,
        0,
        0,
        0,
        0,
        0,
        0,
        0,
        0,
        0,
        0,
        0,
        0,
        0,
        0,
        303,
        0,
        0,
        0,
        0,
        0,
        0,
        0,
        303,
        0,
        303,
        0,
        0,
        0,
        0,
        303,
        302,
        302,
        0,
        0,
        0,
        0,
        0,
        0,
        0,
        0,
        0,
        0,
        0,
        0,
        0,
        302,
        302,
        0,
        0,
        0,
        0,
        0,
        0,
        302,
        0,
        302,
        0,
        0,
        0,
        0,
        0,
        0,
        0,
        0,
        0,
        0,
        0,
        0,
        0,
        0,
        302,
        0,
        0,
        302,
        0,
        0,
        0,
        302,
        0,
        0,
        0,
        0,
        0,
        0,
        0,
        0,
        0,
        0,
        0,
        0,
        0,
        0,
        0,
        0,
        0,
        0,
        0,
        0,
        0,
        0,
        0,
        0,
        0,
        0,
        0,
        0,
        0,
        0,
        0,
        0,
        0,
        0,
        0,
        0,
        0,
        0,
        0,
        0,
        0,
        0,
        0,
        0,
        0,
        0,
        0,
        0,
        0,
        0,
        0,
        0,
        0,
        0,
        0,
        0,
        0,
        0,
        0,
        0,
        0,
        303,
        0,
        0,
        0,
        0,
        0,
        0,
        303,
        0,
        0,
        0,
        0,
        303,
        0,
        0,
        0,
        303,
        302,
        302,
        0,
        0,
        0,
        0,
        0,
        0,
        0,
        0,
        0,
        0,
        0,
        0,
        0,
        302,
        302,
        0,
        0,
        0,
        0,
        0,
        0,
        0,
        0,
        302,
        0,
        0,
        0,
        302,
        0,
        0,
        302,
        0,
        302,
        0,
        302,
        0,
        0,
        0,
        0,
        0,
        302,
        0,
        0,
        0,
        0,
        0,
        0,
        0,
        0,
        0,
        0,
        0,
        0,
        0,
        0,
        0,
        0,
        0,
        0,
        0,
        0,
        0,
        0,
        0,
        0,
        0,
        0,
        0,
        0,
        0,
        0,
        0,
        0,
        0,
        0,
        0,
        0,
        0,
        0,
        0,
        0,
        0,
        0,
        0,
        0,
        0,
        0,
        0,
        0,
        0,
        0,
        0,
        0,
        0,
        0,
        0,
        0,
        0,
        0,
        0,
        0,
        0,
        0,
        0,
        0,
        0,
        0,
        0,
        0,
        0,
        0,
        0,
        0,
        0,
        0,
        0,
        0,
        303,
        0,
        0,
        0,
        0,
        0,
        0,
        302,
        302,
        0,
        0,
        0,
        0,
        0,
        0,
        0,
        0,
        0,
        0,
        0,
        0,
        0,
        302,
        302,
        0,
        0,
        0,
        0,
        0,
        0,
        0,
        302,
        0,
        0,
        0,
        0,
        0,
        0,
        0,
        0,
        0,
        0,
        0,
        0,
        0,
        0,
        0,
        0,
        0,
        302,
        0,
        0,
        0,
        0,
        302,
        0,
        0,
        0,
        0,
        0,
        0,
        0,
        0,
        0,
        0,
        0,
        0,
        0,
        0,
        0,
        0,
        0,
        0,
        0,
        0,
        0,
        0,
        0,
        0,
        0,
        0,
        0,
        0,
        0,
        0,
        0,
        0,
        0,
        0,
        0,
        0,
        0,
        0,
        0,
        0,
        0,
        0,
        0,
        0,
        0,
        0,
        0,
        0,
        0,
        0,
        0,
        0,
        0,
        0,
        0,
        0,
        0,
        0,
        0,
        0,
        0,
        303,
        0,
        0,
        0,
        303,
        0,
        0,
        0,
        0,
        303,
        0,
        0,
        303,
        0,
        0,
        0,
        0,
        302,
        302,
        0,
        0,
        0,
        0,
        0,
        0,
        0,
        0,
        0,
        0,
        0,
        0,
        0,
        302,
        302,
        0,
        302,
        302,
        0,
        0,
        0,
        0,
        0,
        0,
        0,
        0,
        0,
        0,
        0,
        0,
        0,
        0,
        0,
        302,
        302,
        0,
        0,
        0,
        0,
        0,
        0,
        0,
        0,
        0,
        0,
        0,
        0,
        0,
        0,
        0,
        0,
        0,
        0,
        0,
        0,
        0,
        0,
        0,
        0,
        0,
        0,
        0,
        0,
        0,
        0,
        0,
        0,
        0,
        0,
        0,
        0,
        0,
        0,
        0,
        0,
        0,
        0,
        0,
        0,
        0,
        0,
        0,
        0,
        0,
        0,
        0,
        0,
        0,
        0,
        0,
        0,
        0,
        0,
        0,
        0,
        0,
        0,
        0,
        0,
        0,
        0,
        0,
        0,
        0,
        0,
        0,
        0,
        0,
        0,
        303,
        0,
        0,
        303,
        0,
        0,
        0,
        303,
        303,
        0,
        0,
        0,
        0,
        0,
        0,
        302,
        302,
        0,
        0,
        0,
        0,
        0,
        0,
        0,
        0,
        0,
        0,
        0,
        0,
        0,
        302,
        302,
        0,
        0,
        0,
        0,
        0,
        0,
        0,
        0,
        0,
        0,
        0,
        0,
        0,
        0,
        0,
        0,
        0,
        0,
        0,
        0,
        302,
        0,
        0,
        302,
        0,
        0,
        302,
        0,
        0,
        0,
        0,
        0,
        0,
        0,
        0,
        0,
        0,
        0,
        0,
        0,
        0,
        0,
        0,
        0,
        0,
        0,
        0,
        0,
        0,
        0,
        0,
        0,
        0,
        0,
        0,
        0,
        0,
        0,
        0,
        0,
        0,
        0,
        0,
        0,
        0,
        0,
        0,
        0,
        0,
        0,
        0,
        0,
        0,
        0,
        0,
        0,
        0,
        0,
        0,
        0,
        0,
        0,
        0,
        0,
        0,
        0,
        0,
        0,
        0,
        0,
        0,
        0,
        0,
        0,
        0,
        0,
        0,
        0,
        0,
        0,
        0,
        0,
        0,
        0,
        0,
        0,
        0,
        303,
        302,
        302,
        0,
        0,
        0,
        0,
        0,
        0,
        0,
        0,
        0,
        0,
        0,
        0,
        0,
        0,
        302,
        302,
        0,
        302,
        0,
        0,
        302,
        302,
        0,
        0,
        0,
        0,
        0,
        0,
        0,
        0,
        0,
        0,
        0,
        0,
        0,
        0,
        0,
        0,
        0,
        0,
        0,
        0,
        0,
        0,
        0,
        0,
        0,
        0,
        0,
        0,
        0,
        0,
        0,
        0,
        0,
        0,
        0,
        0,
        0,
        0,
        0,
        0,
        0,
        0,
        0,
        0,
        0,
        0,
        0,
        0,
        0,
        0,
        0,
        0,
        0,
        0,
        0,
        0,
        0,
        0,
        0,
        0,
        0,
        0,
        0,
        0,
        0,
        0,
        0,
        0,
        0,
        0,
        0,
        0,
        0,
        0,
        0,
        0,
        0,
        0,
        0,
        0,
        0,
        0,
        0,
        0,
        0,
        0,
        0,
        0,
        0,
        0,
        0,
        303,
        0,
        303,
        0,
        0,
        0,
        0,
        0,
        0,
        0,
        0,
        302,
        302,
        0,
        0,
        0,
        0,
        0,
        0,
        0,
        0,
        0,
        0,
        0,
        0,
        0,
        0,
        302,
        302,
        0,
        0,
        0,
        0,
        0,
        0,
        0,
        0,
        0,
        0,
        0,
        0,
        0,
        0,
        302,
        0,
        0,
        0,
        0,
        302,
        302,
        0,
        0,
        0,
        0,
        0,
        0,
        0,
        0,
        302,
        0,
        0,
        0,
        0,
        0,
        0,
        0,
        0,
        0,
        0,
        0,
        0,
        0,
        0,
        0,
        0,
        0,
        0,
        0,
        0,
        0,
        0,
        0,
        0,
        0,
        0,
        0,
        0,
        0,
        0,
        0,
        0,
        0,
        0,
        0,
        0,
        0,
        0,
        0,
        0,
        0,
        0,
        0,
        0,
        0,
        0,
        0,
        0,
        0,
        0,
        0,
        0,
        0,
        0,
        0,
        0,
        0,
        0,
        0,
        0,
        303,
        0,
        0,
        0,
        0,
        0,
        303,
        0,
        0,
        0,
        0,
        0,
        0,
        0,
        0,
        0,
        0,
        0,
        302,
        302,
        0,
        0,
        0,
        0,
        0,
        0,
        0,
        0,
        0,
        0,
        0,
        0,
        0,
        0,
        302,
        302,
        0,
        0,
        0,
        0,
        0,
        0,
        0,
        0,
        0,
        0,
        0,
        0,
        0,
        0,
        0,
        0,
        0,
        0,
        0,
        302,
        0,
        0,
        302,
        0,
        0,
        0,
        0,
        0,
        0,
        0,
        0,
        0,
        0,
        0,
        0,
        0,
        0,
        0,
        0,
        0,
        0,
        0,
        0,
        0,
        0,
        0,
        0,
        0,
        0,
        0,
        0,
        0,
        0,
        0,
        0,
        0,
        0,
        0,
        0,
        0,
        0,
        0,
        0,
        0,
        0,
        0,
        0,
        0,
        0,
        0,
        0,
        0,
        0,
        0,
        0,
        0,
        0,
        0,
        0,
        0,
        0,
        0,
        0,
        0,
        0,
        0,
        0,
        0,
        0,
        0,
        0,
        0,
        0,
        0,
        0,
        0,
        0,
        0,
        0,
        0,
        0,
        0,
        0,
        303,
        0,
        0,
        0,
        0,
        302,
        302,
        0,
        0,
        0,
        0,
        0,
        0,
        0,
        0,
        0,
        0,
        0,
        0,
        0,
        0,
        302,
        302,
        0,
        0,
        0,
        0,
        302,
        0,
        0,
        0,
        0,
        0,
        0,
        0,
        0,
        302,
        0,
        0,
        0,
        0,
        0,
        0,
        0,
        0,
        0,
        0,
        0,
        0,
        0,
        0,
        0,
        0,
        0,
        302,
        0,
        0,
        0,
        0,
        0,
        0,
        0,
        0,
        0,
        0,
        0,
        0,
        0,
        0,
        0,
        0,
        0,
        0,
        0,
        0,
        0,
        0,
        0,
        0,
        0,
        0,
        0,
        0,
        0,
        0,
        0,
        0,
        0,
        0,
        0,
        0,
        0,
        0,
        0,
        0,
        0,
        0,
        0,
        0,
        0,
        0,
        0,
        0,
        0,
        0,
        0,
        0,
        0,
        0,
        0,
        0,
        0,
        0,
        0,
        0,
        0,
        0,
        0,
        0,
        0,
        0,
        0,
        0,
        0,
        0,
        0,
        0,
        0,
        0,
        0,
        0,
        302,
        302,
        0,
        0,
        0,
        0,
        0,
        0,
        0,
        0,
        0,
        0,
        0,
        0,
        0,
        0,
        0,
        302,
        302,
        0,
        0,
        0,
        302,
        0,
        0,
        0,
        0,
        0,
        0,
        0,
        302,
        0,
        0,
        0,
        0,
        302,
        0,
        302,
        0,
        0,
        0,
        0,
        0,
        0,
        0,
        0,
        0,
        0,
        0,
        0,
        0,
        0,
        0,
        0,
        0,
        0,
        0,
        0,
        0,
        0,
        0,
        0,
        0,
        0,
        0,
        0,
        0,
        0,
        0,
        0,
        0,
        0,
        0,
        0,
        0,
        0,
        0,
        0,
        0,
        0,
        0,
        0,
        0,
        0,
        0,
        0,
        0,
        0,
        0,
        0,
        0,
        0,
        0,
        0,
        0,
        0,
        0,
        0,
        0,
        0,
        0,
        0,
        0,
        0,
        0,
        0,
        0,
        0,
        0,
        0,
        0,
        0,
        0,
        0,
        0,
        0,
        0,
        0,
        0,
        0,
        303,
        0,
        303,
        0,
        0,
        0,
        302,
        302,
        0,
        0,
        0,
        0,
        0,
        0,
        0,
        0,
        0,
        0,
        0,
        0,
        0,
        0,
        0,
        302,
        302,
        0,
        0,
        0,
        0,
        302,
        0,
        302,
        0,
        0,
        0,
        0,
        0,
        0,
        0,
        0,
        0,
        0,
        0,
        0,
        0,
        0,
        0,
        0,
        302,
        0,
        0,
        0,
        0,
        0,
        0,
        0,
        0,
        0,
        0,
        0,
        0,
        0,
        0,
        0,
        0,
        0,
        0,
        0,
        0,
        0,
        0,
        0,
        0,
        0,
        0,
        0,
        0,
        0,
        0,
        0,
        0,
        0,
        0,
        0,
        0,
        0,
        0,
        0,
        0,
        0,
        0,
        0,
        0,
        0,
        0,
        0,
        0,
        0,
        0,
        0,
        0,
        0,
        0,
        0,
        0,
        0,
        0,
        0,
        0,
        0,
        0,
        0,
        0,
        0,
        0,
        0,
        303,
        0,
        303,
        0,
        0,
        303,
        0,
        0,
        0,
        0,
        0,
        0,
        0,
        0,
        0,
        0,
        302,
        302,
        0,
        0,
        0,
        0,
        0,
        0,
        0,
        0,
        0,
        0,
        0,
        0,
        0,
        0,
        0,
        0,
        302,
        302,
        0,
        0,
        0,
        0,
        0,
        0,
        0,
        0,
        302,
        0,
        0,
        0,
        0,
        0,
        0,
        0,
        0,
        0,
        0,
        0,
        0,
        0,
        302,
        0,
        0,
        0,
        0,
        0,
        0,
        0,
        0,
        0,
        302,
        0,
        0,
        0,
        0,
        0,
        0,
        0,
        302,
        0,
        302,
        0,
        0,
        0,
        0,
        0,
        0,
        0,
        0,
        0,
        0,
        0,
        302,
        0,
        0,
        0,
        0,
        0,
        0,
        0,
        0,
        0,
        0,
        0,
        302,
        0,
        0,
        0,
        0,
        0,
        0,
        0,
        0,
        0,
        0,
        0,
        0,
        303,
        0,
        0,
        0,
        0,
        0,
        0,
        0,
        0,
        0,
        0,
        0,
        0,
        0,
        0,
        303,
        0,
        0,
        0,
        0,
        0,
        0,
        0,
        0,
        0,
        0,
        0,
        302,
        302,
        0,
        0,
        0,
        0,
        0,
        0,
        0,
        0,
        0,
        0,
        0,
        0,
        0,
        0,
        0,
        0,
        302,
        302,
        0,
        0,
        0,
        0,
        302,
        0,
        0,
        0,
        0,
        0,
        0,
        0,
        0,
        0,
        0,
        0,
        302,
        0,
        0,
        0,
        0,
        0,
        0,
        0,
        302,
        0,
        0,
        0,
        0,
        0,
        0,
        302,
        0,
        0,
        0,
        0,
        0,
        302,
        0,
        0,
        0,
        0,
        0,
        0,
        0,
        0,
        0,
        0,
        302,
        0,
        0,
        0,
        0,
        0,
        0,
        0,
        0,
        0,
        0,
        0,
        0,
        0,
        0,
        0,
        302,
        302,
        0,
        0,
        0,
        0,
        0,
        0,
        0,
        0,
        0,
        0,
        0,
        0,
        303,
        0,
        0,
        0,
        0,
        0,
        0,
        0,
        0,
        0,
        0,
        0,
        0,
        0,
        0,
        0,
        0,
        0,
        0,
        303,
        0,
        0,
        303,
        0,
        0,
        0,
        0,
        302,
        302,
        0,
        0,
        0,
        0,
        0,
        0,
        0,
        0,
        0,
        0,
        0,
        0,
        0,
        0,
        0,
        0,
        0,
        302,
        302,
        0,
        302,
        0,
        0,
        0,
        0,
        0,
        0,
        302,
        0,
        302,
        0,
        0,
        0,
        0,
        0,
        0,
        0,
        0,
        0,
        0,
        302,
        0,
        0,
        0,
        302,
        0,
        0,
        0,
        0,
        302,
        0,
        0,
        0,
        0,
        0,
        0,
        0,
        0,
        0,
        0,
        0,
        0,
        0,
        0,
        0,
        0,
        302,
        302,
        0,
        0,
        0,
        0,
        302,
        0,
        302,
        0,
        0,
        0,
        0,
        0,
        0,
        0,
        302,
        0,
        302,
        0,
        0,
        0,
        0,
        0,
        0,
        0,
        0,
        0,
        0,
        0,
        0,
        0,
        0,
        0,
        0,
        0,
        0,
        0,
        0,
        0,
        0,
        303,
        0,
        303,
        0,
        0,
        0,
        0,
        0,
        0,
        0,
        0,
        0,
        0,
        0,
        0,
        303,
        0,
        302,
        302,
        0,
        0,
        0,
        0,
        0,
        0,
        0,
        0,
        0,
        0,
        0,
        0,
        0,
        0,
        0,
        0,
        0,
        0,
        302,
        302,
        302,
        0,
        0,
        0,
        0,
        0,
        0,
        0,
        0,
        302,
        0,
        302,
        302,
        0,
        0,
        302,
        0,
        0,
        0,
        0,
        0,
        0,
        0,
        0,
        0,
        302,
        0,
        0,
        302,
        302,
        0,
        0,
        0,
        0,
        0,
        0,
        0,
        0,
        0,
        0,
        0,
        0,
        302,
        0,
        0,
        0,
        0,
        0,
        0,
        0,
        0,
        0,
        0,
        0,
        302,
        0,
        0,
        0,
        0,
        0,
        302,
        0,
        302,
        0,
        0,
        0,
        0,
        0,
        0,
        0,
        0,
        0,
        302,
        0,
        0,
        0,
        0,
        0,
        0,
        0,
        0,
        0,
        0,
        0,
        303,
        0,
        0,
        0,
        0,
        0,
        0,
        0,
        303,
        303,
        0,
        0,
        0,
        0,
        0,
        303,
        0,
        0,
        0,
        0,
        302,
        302,
        0,
        0,
        0,
        0,
        0,
        0,
        0,
        0,
        0,
        0,
        0,
        0,
        0,
        0,
        0,
        0,
        0,
        0,
        302,
        302,
        0,
        0,
        0,
        0,
        0,
        302,
        0,
        0,
        0,
        0,
        0,
        0,
        0,
        0,
        0,
        0,
        0,
        0,
        0,
        0,
        0,
        0,
        0,
        0,
        0,
        0,
        302,
        0,
        0,
        0,
        0,
        0,
        0,
        0,
        0,
        0,
        0,
        0,
        0,
        0,
        0,
        302,
        0,
        0,
        0,
        0,
        0,
        0,
        0,
        0,
        0,
        302,
        0,
        302,
        0,
        0,
        0,
        0,
        0,
        0,
        0,
        0,
        0,
        0,
        302,
        0,
        302,
        0,
        302,
        0,
        0,
        0,
        0,
        0,
        0,
        0,
        0,
        0,
        0,
        303,
        0,
        0,
        0,
        0,
        0,
        0,
        0,
        0,
        0,
        0,
        0,
        0,
        0,
        0,
        0,
        0,
        0,
        0,
        0,
        303,
        0,
        0,
        0,
        0,
        302,
        302,
        0,
        0,
        0,
        0,
        0,
        0,
        0,
        0,
        0,
        0,
        0,
        0,
        0,
        0,
        0,
        0,
        0,
        0,
        0,
        302,
        302,
        0,
        0,
        0,
        302,
        0,
        302,
        0,
        0,
        0,
        0,
        0,
        0,
        0,
        0,
        0,
        0,
        0,
        0,
        0,
        302,
        0,
        0,
        0,
        0,
        0,
        0,
        0,
        0,
        0,
        0,
        302,
        302,
        0,
        0,
        0,
        0,
        0,
        0,
        0,
        0,
        302,
        0,
        0,
        0,
        0,
        0,
        0,
        0,
        0,
        0,
        302,
        0,
        0,
        0,
        0,
        0,
        0,
        0,
        0,
        0,
        0,
        0,
        0,
        0,
        0,
        0,
        302,
        0,
        0,
        0,
        0,
        302,
        0,
        0,
        0,
        303,
        0,
        0,
        0,
        303,
        0,
        0,
        0,
        303,
        0,
        0,
        0,
        0,
        0,
        0,
        0,
        0,
        0,
        0,
        0,
        0,
        0,
        0,
        0,
        0,
        0,
        0,
        0,
        302,
        302,
        0,
        0,
        0,
        0,
        0,
        0,
        0,
        0,
        0,
        0,
        0,
        0,
        0,
        0,
        0,
        0,
        0,
        0,
        0,
        302,
        302,
        302,
        0,
        0,
        0,
        0,
        0,
        0,
        0,
        0,
        0,
        0,
        302,
        0,
        0,
        0,
        0,
        0,
        0,
        0,
        0,
        0,
        0,
        0,
        0,
        302,
        0,
        0,
        0,
        0,
        0,
        302,
        0,
        0,
        302,
        302,
        0,
        0,
        0,
        0,
        0,
        0,
        0,
        0,
        0,
        0,
        0,
        0,
        0,
        0,
        0,
        0,
        0,
        0,
        0,
        0,
        0,
        0,
        0,
        0,
        0,
        0,
        0,
        0,
        0,
        0,
        0,
        0,
        0,
        0,
        0,
        0,
        0,
        0,
        0,
        303,
        0,
        0,
        0,
        0,
        303,
        0,
        0,
        0,
        0,
        0,
        0,
        0,
        0,
        0,
        0,
        0,
        0,
        0,
        0,
        0,
        0,
        0,
        0,
        0,
        0,
        0,
        0,
        303,
        302,
        302,
        0,
        0,
        0,
        0,
        0,
        0,
        0,
        0,
        0,
        0,
        0,
        0,
        0,
        0,
        0,
        0,
        0,
        0,
        0,
        302,
        302,
        0,
        0,
        0,
        0,
        0,
        0,
        0,
        0,
        302,
        0,
        0,
        0,
        0,
        0,
        0,
        0,
        0,
        0,
        0,
        0,
        0,
        302,
        0,
        0,
        0,
        0,
        0,
        0,
        302,
        302,
        0,
        0,
        0,
        302,
        0,
        0,
        0,
        302,
        0,
        0,
        0,
        0,
        302,
        0,
        0,
        0,
        0,
        0,
        0,
        0,
        302,
        0,
        0,
        0,
        0,
        0,
        302,
        0,
        0,
        0,
        0,
        0,
        0,
        0,
        0,
        0,
        0,
        0,
        0,
        302,
        0,
        0,
        0,
        0,
        0,
        0,
        0,
        0,
        0,
        0,
        0,
        0,
        0,
        0,
        0,
        0,
        0,
        0,
        0,
        0,
        0,
        0,
        0,
        0,
        0,
        0,
        303,
        0,
        0,
        0,
        0,
        0,
        0,
        302,
        302,
        0,
        0,
        0,
        0,
        0,
        0,
        0,
        0,
        0,
        0,
        0,
        0,
        0,
        0,
        0,
        0,
        0,
        0,
        0,
        302,
        302,
        0,
        0,
        0,
        0,
        0,
        0,
        0,
        0,
        0,
        0,
        0,
        0,
        0,
        0,
        302,
        0,
        0,
        0,
        0,
        0,
        0,
        0,
        0,
        302,
        0,
        0,
        0,
        0,
        0,
        0,
        0,
        0,
        0,
        0,
        0,
        0,
        0,
        302,
        0,
        0,
        0,
        0,
        0,
        0,
        0,
        0,
        0,
        0,
        0,
        0,
        0,
        0,
        0,
        0,
        0,
        0,
        0,
        302,
        0,
        0,
        0,
        0,
        0,
        0,
        0,
        0,
        0,
        0,
        0,
        0,
        0,
        0,
        0,
        0,
        303,
        0,
        0,
        0,
        0,
        0,
        0,
        0,
        303,
        0,
        0,
        0,
        0,
        0,
        0,
        0,
        0,
        0,
        0,
        0,
        0,
        0,
        0,
        0,
        303,
        0,
        0,
        0,
        0,
        302,
        302,
        0,
        0,
        0,
        0,
        0,
        0,
        0,
        0,
        0,
        0,
        0,
        0,
        0,
        0,
        0,
        0,
        0,
        0,
        0,
        302,
        302,
        0,
        0,
        0,
        0,
        0,
        0,
        0,
        0,
        0,
        0,
        0,
        0,
        302,
        0,
        0,
        0,
        0,
        302,
        0,
        0,
        302,
        0,
        0,
        0,
        0,
        0,
        0,
        0,
        0,
        302,
        0,
        0,
        0,
        302,
        0,
        0,
        0,
        302,
        302,
        0,
        0,
        0,
        0,
        0,
        0,
        0,
        0,
        0,
        0,
        0,
        0,
        0,
        302,
        0,
        0,
        0,
        0,
        0,
        0,
        0,
        0,
        0,
        0,
        0,
        0,
        0,
        0,
        0,
        0,
        0,
        0,
        0,
        0,
        0,
        0,
        0,
        0,
        0,
        0,
        303,
        0,
        0,
        0,
        0,
        0,
        0,
        0,
        303,
        0,
        0,
        0,
        0,
        0,
        303,
        0,
        0,
        303,
        0,
        0,
        0,
        0,
        0,
        0,
        302,
        302,
        0,
        0,
        0,
        0,
        0,
        0,
        0,
        0,
        0,
        0,
        0,
        0,
        0,
        0,
        0,
        0,
        0,
        0,
        0,
        302,
        302,
        302,
        0,
        0,
        0,
        0,
        0,
        0,
        0,
        0,
        0,
        302,
        302,
        0,
        0,
        0,
        0,
        0,
        0,
        0,
        0,
        0,
        0,
        0,
        0,
        0,
        0,
        0,
        0,
        0,
        0,
        0,
        0,
        0,
        0,
        0,
        0,
        0,
        302,
        0,
        0,
        0,
        0,
        0,
        302,
        302,
        0,
        0,
        0,
        0,
        0,
        0,
        302,
        0,
        0,
        0,
        302,
        302,
        0,
        0,
        0,
        302,
        0,
        302,
        0,
        0,
        0,
        0,
        0,
        0,
        0,
        0,
        0,
        0,
        0,
        303,
        0,
        0,
        0,
        303,
        0,
        0,
        0,
        0,
        0,
        0,
        0,
        0,
        0,
        0,
        0,
        0,
        0,
        303,
        0,
        0,
        0,
        0,
        303,
        0,
        0,
        0,
        0,
        0,
        302,
        302,
        0,
        0,
        0,
        0,
        0,
        0,
        0,
        0,
        0,
        0,
        0,
        0,
        0,
        0,
        0,
        0,
        0,
        0,
        0,
        302,
        302,
        0,
        0,
        302,
        0,
        0,
        0,
        302,
        0,
        0,
        0,
        0,
        0,
        0,
        0,
        0,
        0,
        0,
        0,
        0,
        0,
        0,
        0,
        0,
        0,
        0,
        0,
        0,
        0,
        0,
        0,
        0,
        0,
        0,
        0,
        0,
        0,
        302,
        0,
        0,
        0,
        0,
        0,
        302,
        0,
        0,
        0,
        0,
        0,
        0,
        0,
        0,
        0,
        0,
        0,
        0,
        0,
        302,
        0,
        0,
        0,
        0,
        302,
        0,
        302,
        0,
        302,
        0,
        0,
        0,
        0,
        0,
        0,
        0,
        0,
        0,
        0,
        0,
        0,
        0,
        0,
        303,
        0,
        0,
        303,
        0,
        0,
        303,
        0,
        0,
        0,
        303,
        0,
        0,
        0,
        0,
        0,
        303,
        0,
        0,
        0,
        0,
        303,
        0,
        302,
        302,
        0,
        0,
        0,
        0,
        0,
        0,
        0,
        0,
        0,
        0,
        0,
        0,
        0,
        0,
        0,
        0,
        0,
        0,
        0,
        302,
        302,
        0,
        0,
        0,
        0,
        0,
        0,
        0,
        0,
        302,
        0,
        0,
        0,
        0,
        0,
        0,
        0,
        0,
        0,
        0,
        0,
        0,
        0,
        0,
        0,
        0,
        0,
        0,
        0,
        0,
        0,
        302,
        0,
        302,
        0,
        0,
        0,
        0,
        302,
        0,
        0,
        0,
        0,
        0,
        0,
        0,
        0,
        0,
        0,
        0,
        0,
        0,
        0,
        0,
        0,
        0,
        0,
        0,
        0,
        302,
        0,
        0,
        0,
        0,
        0,
        0,
        0,
        0,
        0,
        0,
        0,
        0,
        0,
        0,
        0,
        0,
        0,
        0,
        0,
        0,
        0,
        0,
        303,
        0,
        0,
        0,
        0,
        0,
        0,
        0,
        0,
        0,
        0,
        303,
        0,
        0,
        0,
        0,
        0,
        0,
        0,
        0,
        0,
        0,
        302,
        302,
        0,
        0,
        0,
        0,
        0,
        0,
        0,
        0,
        0,
        0,
        0,
        0,
        0,
        0,
        0,
        0,
        0,
        0,
        0,
        302,
        302,
        0,
        302,
        0,
        0,
        0,
        0,
        0,
        0,
        0,
        0,
        302,
        0,
        0,
        0,
        0,
        0,
        0,
        0,
        0,
        0,
        0,
        0,
        0,
        0,
        0,
        0,
        0,
        302,
        302,
        0,
        0,
        0,
        0,
        0,
        0,
        0,
        0,
        0,
        0,
        0,
        0,
        0,
        0,
        0,
        0,
        0,
        0,
        0,
        0,
        0,
        0,
        0,
        0,
        0,
        0,
        0,
        0,
        0,
        0,
        302,
        0,
        0,
        0,
        0,
        0,
        0,
        0,
        0,
        0,
        302,
        0,
        0,
        0,
        0,
        0,
        0,
        0,
        0,
        0,
        0,
        0,
        0,
        0,
        0,
        0,
        0,
        0,
        0,
        0,
        0,
        0,
        0,
        0,
        0,
        0,
        0,
        0,
        0,
        0,
        0,
        0,
        303,
        0,
        302,
        302,
        0,
        0,
        0,
        0,
        0,
        0,
        0,
        0,
        0,
        0,
        0,
        0,
        0,
        0,
        0,
        0,
        0,
        0,
        302,
        302,
        0,
        0,
        0,
        0,
        302,
        0,
        0,
        0,
        0,
        302,
        0,
        0,
        0,
        0,
        302,
        0,
        0,
        0,
        0,
        0,
        0,
        0,
        0,
        0,
        302,
        0,
        302,
        0,
        0,
        0,
        0,
        0,
        0,
        0,
        0,
        0,
        0,
        0,
        0,
        0,
        0,
        302,
        0,
        302,
        302,
        0,
        0,
        0,
        0,
        0,
        0,
        0,
        0,
        0,
        302,
        0,
        0,
        302,
        0,
        0,
        0,
        0,
        0,
        0,
        0,
        0,
        302,
        0,
        0,
        0,
        0,
        0,
        0,
        0,
        0,
        0,
        0,
        0,
        0,
        0,
        0,
        303,
        0,
        0,
        0,
        0,
        0,
        0,
        0,
        0,
        0,
        0,
        303,
        0,
        0,
        0,
        0,
        0,
        0,
        0,
        0,
        0,
        0,
        0,
        302,
        302,
        0,
        0,
        0,
        0,
        0,
        0,
        0,
        0,
        0,
        0,
        0,
        0,
        0,
        0,
        0,
        0,
        0,
        0,
        302,
        302,
        302,
        0,
        0,
        0,
        302,
        0,
        0,
        302,
        0,
        302,
        0,
        302,
        302,
        0,
        0,
        0,
        0,
        0,
        0,
        302,
        0,
        0,
        0,
        0,
        0,
        302,
        0,
        0,
        0,
        0,
        0,
        0,
        0,
        0,
        0,
        0,
        0,
        0,
        0,
        0,
        0,
        0,
        0,
        0,
        0,
        0,
        0,
        0,
        0,
        0,
        302,
        0,
        0,
        0,
        0,
        0,
        0,
        0,
        0,
        0,
        0,
        0,
        0,
        0,
        0,
        0,
        0,
        0,
        0,
        0,
        0,
        302,
        0,
        302,
        0,
        303,
        0,
        303,
        0,
        303,
        0,
        0,
        0,
        0,
        0,
        303,
        0,
        0,
        0,
        303,
        0,
        0,
        0,
        0,
        0,
        0,
        0,
        0,
        0,
        0,
        0,
        0,
        0,
        0,
        302,
        302,
        0,
        0,
        0,
        0,
        0,
        0,
        0,
        0,
        0,
        0,
        0,
        0,
        0,
        0,
        0,
        0,
        0,
        302,
        302,
        302,
        0,
        0,
        302,
        0,
        302,
        0,
        0,
        0,
        0,
        0,
        0,
        0,
        0,
        0,
        0,
        0,
        0,
        0,
        0,
        0,
        0,
        0,
        0,
        0,
        0,
        0,
        0,
        0,
        0,
        0,
        0,
        0,
        0,
        302,
        0,
        0,
        0,
        0,
        302,
        0,
        0,
        302,
        302,
        0,
        0,
        302,
        0,
        0,
        0,
        0,
        0,
        0,
        0,
        0,
        302,
        0,
        0,
        0,
        0,
        0,
        0,
        0,
        0,
        0,
        0,
        0,
        0,
        0,
        0,
        0,
        302,
        0,
        0,
        0,
        302,
        0,
        0,
        0,
        0,
        0,
        0,
        303,
        0,
        0,
        0,
        303,
        0,
        0,
        0,
        0,
        0,
        0,
        0,
        0,
        0,
        0,
        0,
        303,
        0,
        0,
        303,
        0,
        303,
        0,
        302,
        302,
        0,
        0,
        0,
        0,
        0,
        0,
        0,
        0,
        0,
        0,
        0,
        0,
        0,
        0,
        0,
        0,
        0,
        302,
        302,
        302,
        0,
        302,
        0,
        0,
        0,
        0,
        302,
        0,
        0,
        0,
        0,
        0,
        0,
        0,
        0,
        0,
        0,
        0,
        0,
        302,
        0,
        0,
        0,
        0,
        0,
        0,
        0,
        0,
        0,
        0,
        0,
        0,
        302,
        0,
        0,
        0,
        0,
        0,
        0,
        0,
        0,
        302,
        0,
        0,
        0,
        0,
        0,
        0,
        0,
        0,
        0,
        0,
        0,
        0,
        0,
        0,
        0,
        0,
        0,
        0,
        0,
        0,
        0,
        0,
        0,
        0,
        0,
        0,
        0,
        302,
        0,
        0,
        0,
        0,
        0,
        0,
        0,
        0,
        0,
        303,
        0,
        0,
        0,
        0,
        0,
        0,
        0,
        0,
        0,
        0,
        0,
        0,
        0,
        0,
        0,
        0,
        0,
        0,
        0,
        0,
        0,
        0,
        303,
        0,
        0,
        302,
        302,
        0,
        0,
        0,
        0,
        0,
        0,
        0,
        0,
        0,
        0,
        0,
        0,
        0,
        0,
        0,
        0,
        302,
        302,
        0,
        0,
        0,
        0,
        0,
        0,
        0,
        0,
        0,
        0,
        0,
        0,
        0,
        302,
        0,
        0,
        0,
        0,
        0,
        0,
        0,
        0,
        302,
        0,
        0,
        0,
        0,
        0,
        0,
        0,
        0,
        0,
        0,
        0,
        0,
        302,
        0,
        0,
        0,
        0,
        0,
        0,
        0,
        0,
        0,
        0,
        0,
        302,
        302,
        0,
        0,
        0,
        0,
        0,
        0,
        0,
        0,
        0,
        0,
        302,
        0,
        0,
        0,
        0,
        0,
        0,
        0,
        0,
        0,
        0,
        302,
        0,
        0,
        0,
        0,
        0,
        0,
        303,
        0,
        0,
        0,
        0,
        0,
        0,
        0,
        0,
        0,
        0,
        0,
        0,
        0,
        0,
        0,
        0,
        0,
        0,
        0,
        0,
        303,
        0,
        0,
        0,
        303,
        0,
        0,
        0,
        302,
        302,
        0,
        0,
        0,
        0,
        0,
        0,
        0,
        0,
        0,
        0,
        0,
        0,
        0,
        0,
        0,
        0,
        302,
        302,
        0,
        0,
        0,
        0,
        302,
        0,
        0,
        0,
        0,
        0,
        0,
        0,
        302,
        0,
        0,
        0,
        0,
        0,
        302,
        0,
        0,
        0,
        0,
        302,
        302,
        0,
        0,
        0,
        0,
        0,
        0,
        0,
        0,
        0,
        0,
        302,
        0,
        0,
        0,
        0,
        0,
        302,
        0,
        0,
        0,
        0,
        0,
        0,
        0,
        0,
        0,
        0,
        0,
        0,
        0,
        0,
        0,
        0,
        0,
        0,
        0,
        0,
        0,
        0,
        0,
        0,
        0,
        302,
        302,
        0,
        0,
        0,
        0,
        0,
        0,
        0,
        0,
        0,
        0,
        0,
        0,
        0,
        0,
        0,
        0,
        303,
        0,
        0,
        0,
        0,
        0,
        0,
        303,
        0,
        0,
        0,
        0,
        303,
        0,
        0,
        0,
        0,
        303,
        0,
        0,
        0,
        302,
        302,
        0,
        0,
        0,
        0,
        0,
        0,
        0,
        0,
        0,
        0,
        0,
        0,
        0,
        0,
        0,
        302,
        302,
        0,
        0,
        0,
        0,
        302,
        0,
        0,
        0,
        0,
        0,
        0,
        0,
        0,
        0,
        0,
        0,
        302,
        0,
        0,
        0,
        0,
        0,
        0,
        0,
        0,
        0,
        0,
        0,
        0,
        0,
        0,
        0,
        0,
        302,
        0,
        0,
        0,
        0,
        0,
        0,
        0,
        0,
        0,
        0,
        0,
        0,
        0,
        0,
        0,
        0,
        0,
        0,
        0,
        0,
        0,
        0,
        0,
        0,
        0,
        0,
        0,
        0,
        0,
        0,
        0,
        0,
        0,
        0,
        0,
        0,
        0,
        0,
        0,
        0,
        0,
        0,
        0,
        0,
        0,
        303,
        0,
        0,
        0,
        0,
        0,
        0,
        303,
        303,
        0,
        0,
        0,
        0,
        0,
        0,
        0,
        0,
        0,
        303,
        0,
        0,
        0,
        0,
        303,
        303,
        0,
        0,
        0,
        302,
        302,
        0,
        0,
        0,
        0,
        0,
        0,
        0,
        0,
        0,
        0,
        0,
        0,
        0,
        0,
        0,
        302,
        302,
        0,
        0,
        0,
        0,
        0,
        0,
        0,
        0,
        302,
        0,
        0,
        0,
        0,
        302,
        0,
        0,
        0,
        0,
        0,
        0,
        302,
        0,
        0,
        0,
        0,
        0,
        0,
        0,
        0,
        302,
        0,
        0,
        0,
        0,
        0,
        0,
        302,
        0,
        0,
        0,
        0,
        0,
        0,
        0,
        0,
        302,
        0,
        0,
        0,
        0,
        0,
        0,
        0,
        0,
        0,
        0,
        0,
        302,
        302,
        0,
        0,
        0,
        0,
        0,
        0,
        0,
        0,
        0,
        0,
        0,
        0,
        0,
        0,
        0,
        0,
        0,
        0,
        0,
        0,
        0,
        0,
        0,
        0,
        0,
        0,
        0,
        0,
        0,
        0,
        0,
        0,
        0,
        303,
        0,
        0,
        0,
        0,
        0,
        0,
        0,
        0,
        0,
        303,
        303,
        0,
        0,
        0,
        302,
        302,
        0,
        0,
        0,
        0,
        0,
        0,
        0,
        0,
        0,
        0,
        0,
        0,
        0,
        0,
        302,
        302,
        0,
        0,
        0,
        302,
        0,
        0,
        0,
        0,
        0,
        0,
        0,
        0,
        302,
        302,
        0,
        0,
        0,
        0,
        0,
        0,
        0,
        0,
        0,
        302,
        0,
        0,
        0,
        0,
        302,
        0,
        0,
        0,
        302,
        0,
        0,
        0,
        0,
        0,
        0,
        0,
        0,
        0,
        0,
        0,
        0,
        0,
        0,
        0,
        0,
        0,
        0,
        302,
        0,
        0,
        0,
        0,
        0,
        0,
        0,
        0,
        0,
        0,
        0,
        0,
        0,
        302,
        0,
        0,
        0,
        0,
        302,
        0,
        0,
        0,
        0,
        0,
        0,
        0,
        303,
        0,
        0,
        0,
        0,
        0,
        0,
        0,
        0,
        0,
        0,
        0,
        0,
        0,
        0,
        0,
        0,
        0,
        0,
        0,
        0,
        0,
        0,
        0,
        0,
        0,
        303,
        0,
        0,
        0,
        302,
        302,
        0,
        0,
        0,
        0,
        0,
        0,
        0,
        0,
        0,
        0,
        0,
        0,
        0,
        0,
        302,
        302,
        0,
        0,
        0,
        0,
        0,
        0,
        0,
        0,
        0,
        302,
        0,
        0,
        302,
        302,
        0,
        0,
        0,
        0,
        0,
        0,
        302,
        0,
        0,
        0,
        302,
        0,
        0,
        0,
        0,
        0,
        0,
        0,
        0,
        0,
        0,
        0,
        0,
        302,
        0,
        0,
        0,
        0,
        0,
        0,
        0,
        0,
        0,
        302,
        0,
        0,
        0,
        0,
        0,
        0,
        0,
        302,
        302,
        0,
        0,
        0,
        0,
        0,
        0,
        0,
        0,
        0,
        302,
        0,
        0,
        0,
        0,
        0,
        0,
        0,
        302,
        0,
        302,
        0,
        0,
        0,
        0,
        0,
        0,
        0,
        0,
        0,
        0,
        0,
        0,
        303,
        303,
        0,
        0,
        0,
        0,
        0,
        0,
        0,
        0,
        0,
        0,
        0,
        0,
        0,
        0,
        0,
        0,
        0,
        302,
        302,
        0,
        0,
        0,
        0,
        0,
        0,
        0,
        0,
        0,
        0,
        0,
        0,
        0,
        0,
        302,
        302,
        0,
        0,
        0,
        302,
        0,
        0,
        0,
        302,
        302,
        0,
        0,
        0,
        0,
        302,
        0,
        0,
        0,
        0,
        0,
        0,
        0,
        302,
        0,
        0,
        0,
        0,
        302,
        0,
        0,
        0,
        0,
        302,
        0,
        0,
        0,
        0,
        0,
        0,
        0,
        0,
        0,
        0,
        0,
        0,
        0,
        0,
        0,
        0,
        0,
        0,
        0,
        0,
        302,
        0,
        0,
        0,
        302,
        0,
        0,
        0,
        0,
        0,
        0,
        0,
        302,
        0,
        0,
        0,
        0,
        0,
        0,
        0,
        0,
        0,
        0,
        0,
        0,
        302,
        0,
        0,
        303,
        0,
        0,
        0,
        0,
        0,
        0,
        303,
        0,
        0,
        303,
        0,
        0,
        0,
        303,
        0,
        0,
        0,
        0,
        0,
        303,
        0,
        0,
        0,
        0,
        0,
        302,
        302,
        0,
        0,
        0,
        0,
        0,
        0,
        0,
        0,
        0,
        0,
        0,
        0,
        0,
        0,
        0,
        0,
        302,
        302,
        0,
        302,
        0,
        0,
        0,
        0,
        0,
        0,
        0,
        0,
        0,
        0,
        0,
        302,
        0,
        0,
        0,
        0,
        0,
        0,
        0,
        0,
        0,
        0,
        0,
        0,
        0,
        0,
        0,
        0,
        0,
        302,
        0,
        0,
        302,
        0,
        0,
        0,
        0,
        0,
        0,
        0,
        0,
        0,
        0,
        0,
        0,
        0,
        0,
        0,
        0,
        0,
        0,
        0,
        302,
        0,
        0,
        0,
        302,
        0,
        0,
        0,
        0,
        0,
        0,
        302,
        0,
        0,
        0,
        302,
        0,
        0,
        0,
        0,
        0,
        0,
        302,
        0,
        303,
        0,
        0,
        0,
        0,
        0,
        0,
        0,
        0,
        0,
        0,
        0,
        0,
        0,
        303,
        0,
        0,
        303,
        0,
        0,
        0,
        0,
        0,
        0,
        0,
        0,
        0,
        303,
        303,
        302,
        302,
        0,
        0,
        0,
        0,
        0,
        0,
        0,
        0,
        0,
        0,
        0,
        0,
        0,
        0,
        0,
        302,
        302,
        0,
        0,
        0,
        0,
        0,
        0,
        302,
        0,
        0,
        0,
        0,
        0,
        0,
        0,
        0,
        0,
        0,
        0,
        0,
        0,
        0,
        0,
        0,
        0,
        0,
        0,
        0,
        0,
        0,
        0,
        0,
        0,
        0,
        0,
        0,
        0,
        0,
        0,
        0,
        0,
        0,
        0,
        0,
        0,
        0,
        0,
        0,
        0,
        0,
        0,
        0,
        302,
        0,
        302,
        0,
        0,
        0,
        0,
        0,
        0,
        0,
        0,
        0,
        0,
        0,
        0,
        0,
        0,
        0,
        0,
        0,
        0,
        0,
        0,
        0,
        0,
        0,
        0,
        0,
        0,
        0,
        0,
        0,
        0,
        0,
        0,
        0,
        0,
        303,
        0,
        0,
        0,
        0,
        0,
        0,
        0,
        0,
        0,
        0,
        0,
        0,
        303,
        0,
        0,
        0,
        0,
        0,
        302,
        302,
        0,
        0,
        0,
        0,
        0,
        0,
        0,
        0,
        0,
        0,
        0,
        0,
        0,
        0,
        0,
        302,
        302,
        0,
        0,
        0,
        0,
        0,
        0,
        0,
        0,
        0,
        0,
        0,
        0,
        0,
        0,
        0,
        0,
        0,
        0,
        0,
        0,
        0,
        0,
        0,
        0,
        0,
        0,
        0,
        0,
        0,
        0,
        0,
        0,
        0,
        0,
        0,
        0,
        0,
        302,
        0,
        0,
        0,
        0,
        0,
        302,
        0,
        0,
        0,
        0,
        0,
        0,
        0,
        0,
        0,
        0,
        0,
        0,
        0,
        0,
        0,
        0,
        0,
        302,
        0,
        302,
        0,
        0,
        0,
        0,
        0,
        0,
        0,
        0,
        0,
        0,
        0,
        0,
        0,
        0,
        0,
        0,
        0,
        0,
        0,
        0,
        0,
        0,
        0,
        0,
        0,
        0,
        0,
        0,
        303,
        0,
        0,
        0,
        303,
        0,
        0,
        0,
        0,
        0,
        0,
        0,
        0,
        0,
        0,
        302,
        302,
        0,
        0,
        0,
        0,
        0,
        0,
        0,
        0,
        0,
        0,
        0,
        0,
        0,
        0,
        0,
        302,
        302,
        0,
        302,
        0,
        302,
        0,
        0,
        0,
        0,
        0,
        302,
        302,
        302,
        302,
        302,
        302,
        302,
        302,
        302,
        302,
        302,
        302,
        302,
        302,
        302,
        0,
        0,
        0,
        0,
        0,
        0,
        0,
        0,
        0,
        0,
        0,
        0,
        302,
        0,
        0,
        0,
        0,
        0,
        0,
        0,
        0,
        0,
        0,
        0,
        0,
        0,
        0,
        0,
        0,
        0,
        0,
        0,
        0,
        0,
        0,
        0,
        302,
        0,
        0,
        0,
        0,
        0,
        302,
        302,
        302,
        302,
        302,
        302,
        302,
        302,
        302,
        302,
        302,
        302,
        302,
        302,
        302,
        0,
        0,
        0,
        0,
        0,
        0,
        0,
        0,
        0,
        0,
        0,
        303,
        0,
        0,
        0,
        0,
        0,
        0,
        0,
        0,
        0,
        0,
        0,
        0,
        0,
        0,
        302,
        302,
        0,
        0,
        0,
        0,
        0,
        0,
        0,
        0,
        0,
        0,
        0,
        0,
        0,
        0,
        0,
        302,
        302,
        0,
        0,
        0,
        302,
        0,
        302,
        302,
        302,
        302,
        302,
        302,
        302,
        302,
        302,
        302,
        302,
        302,
        302,
        302,
        302,
        302,
        302,
        302,
        302,
        302,
        302,
        302,
        0,
        0,
        0,
        0,
        0,
        0,
        0,
        0,
        0,
        302,
        0,
        302,
        302,
        0,
        302,
        0,
        0,
        0,
        0,
        0,
        0,
        302,
        0,
        0,
        0,
        0,
        0,
        0,
        302,
        0,
        0,
        0,
        0,
        0,
        0,
        302,
        302,
        302,
        302,
        302,
        302,
        302,
        302,
        302,
        302,
        302,
        302,
        302,
        302,
        302,
        302,
        302,
        302,
        302,
        302,
        302,
        302,
        302,
        0,
        0,
        0,
        0,
        0,
        0,
        0,
        0,
        0,
        0,
        0,
        0,
        0,
        0,
        0,
        0,
        0,
        0,
        0,
        303,
        0,
        0,
        302,
        302,
        0,
        0,
        0,
        0,
        0,
        0,
        0,
        0,
        0,
        0,
        0,
        0,
        0,
        0,
        0,
        302,
        302,
        302,
        302,
        302,
        302,
        302,
        302,
        302,
        302,
        302,
        0,
        0,
        0,
        0,
        0,
        0,
        0,
        0,
        0,
        0,
        0,
        0,
        0,
        0,
        0,
        302,
        302,
        302,
        302,
        302,
        302,
        302,
        302,
        302,
        302,
        0,
        0,
        0,
        0,
        0,
        0,
        0,
        0,
        0,
        0,
        0,
        302,
        0,
        0,
        0,
        302,
        302,
        0,
        0,
        0,
        0,
        0,
        302,
        302,
        302,
        302,
        302,
        302,
        302,
        302,
        302,
        302,
        0,
        0,
        0,
        0,
        0,
        0,
        0,
        0,
        0,
        0,
        0,
        0,
        0,
        0,
        0,
        302,
        302,
        302,
        302,
        302,
        302,
        302,
        302,
        302,
        302,
        0,
        0,
        0,
        0,
        0,
        303,
        0,
        0,
        0,
        0,
        0,
        0,
        0,
        0,
        0,
        303,
        302,
        302,
        0,
        0,
        0,
        0,
        0,
        0,
        0,
        0,
        0,
        0,
        0,
        0,
        0,
        0,
        0,
        0,
        302,
        302,
        302,
        302,
        302,
        302,
        0,
        0,
        0,
        0,
        0,
        0,
        0,
        0,
        0,
        0,
        0,
        0,
        0,
        0,
        0,
        0,
        0,
        0,
        0,
        0,
        0,
        0,
        302,
        302,
        302,
        302,
        302,
        302,
        302,
        302,
        302,
        302,
        0,
        0,
        0,
        0,
        0,
        0,
        0,
        0,
        0,
        0,
        0,
        0,
        0,
        0,
        0,
        302,
        302,
        302,
        302,
        302,
        302,
        302,
        302,
        302,
        302,
        0,
        0,
        0,
        0,
        0,
        0,
        0,
        0,
        0,
        0,
        0,
        0,
        0,
        0,
        0,
        0,
        0,
        0,
        0,
        0,
        0,
        0,
        0,
        302,
        302,
        302,
        302,
        302,
        302,
        302,
        302,
        302,
        0,
        0,
        0,
        0,
        0,
        0,
        0,
        303,
        0,
        0,
        0,
        303,
        0,
        302,
        302,
        0,
        0,
        0,
        0,
        0,
        0,
        0,
        0,
        0,
        0,
        0,
        0,
        0,
        0,
        0,
        0,
        0,
        0,
        0,
        0,
        0,
        0,
        0,
        0,
        0,
        0,
        0,
        0,
        0,
        0,
        0,
        0,
        0,
        0,
        0,
        0,
        0,
        0,
        0,
        0,
        0,
        0,
        0,
        0,
        0,
        0,
        0,
        0,
        0,
        0,
        0,
        302,
        302,
        302,
        302,
        302,
        302,
        302,
        302,
        302,
        302,
        302,
        302,
        302,
        302,
        302,
        302,
        302,
        302,
        302,
        302,
        302,
        302,
        0,
        0,
        0,
        0,
        0,
        0,
        0,
        0,
        0,
        0,
        0,
        0,
        0,
        0,
        0,
        0,
        0,
        0,
        0,
        0,
        0,
        0,
        0,
        0,
        0,
        0,
        0,
        0,
        0,
        0,
        0,
        0,
        0,
        0,
        0,
        302,
        302,
        302,
        302,
        302,
        302,
        302,
        302,
        302,
        302,
        302,
        302,
        302,
        302,
        302,
        302,
        302,
        302,
        0,
        0,
        0,
        0,
        0,
        0,
        0,
        0,
        0,
        0,
        0,
        0,
        0,
        0,
        0,
        0,
        0,
        0,
        0,
        0,
        0,
        0,
        0,
        0,
        0,
        0,
        0,
        0,
        0,
        0,
        0,
        0,
        0,
        0,
        0,
        0,
        0,
        0,
        0,
        0,
        0,
        0,
        0,
        0,
        0,
        0,
        0,
        0,
        0,
        0,
        0,
        0,
        0,
        0,
        302,
        302,
        302,
        302,
        302,
        302,
        302,
        302,
        302,
        302,
        302,
        302,
        302,
        302,
        302,
        0,
        0,
        0,
        0,
        0,
        0,
        0,
        0,
        0,
        0,
        0,
        0,
        0,
        0,
        0,
        0,
        0,
        0,
        0,
        0,
        0,
        0,
        0,
        0,
        0,
        0,
        0,
        0,
        0,
        0,
        0,
        0,
        0,
        0,
        0,
        0,
        0,
        0,
        0,
        0,
        0,
        0,
        302,
        302,
        302,
        302,
        302,
        302,
        302,
        302,
        302,
        302,
        302,
        302,
        302,
        302,
        302,
        0,
        0,
        0,
        0,
        0,
        0,
        0,
        0,
        0,
        0,
        0,
        0,
        0,
        0,
        0,
        0,
        0,
        0,
        0,
        0,
        0,
        0,
        0,
        0,
        0,
        0,
        0,
        0,
        0,
        0,
        0,
        0,
        0,
        0,
        0,
        0,
        0,
        0,
        0,
        0,
        0,
        0,
        0,
        0,
        0,
        0,
        0,
        0,
        0,
        0,
        0,
        0,
        0,
        0,
        0,
        0,
        0,
        0,
        0,
        0,
        0,
        0,
        0,
        0,
        0,
        0,
        0,
        0,
        0,
        0,
        0,
        0,
        0,
        0,
        0,
        0,
        0,
        0,
        0,
        0,
        0,
        0,
        0,
        0,
        0,
        0,
        0,
        0,
        0,
        0,
        0,
        0,
        0,
        0,
        0,
        0,
        0,
        0,
        0,
        0,
        0,
        0,
        0,
        0,
        0,
        0,
        0,
        0,
        0,
        0,
        0,
        0,
        0,
        0,
        0,
        0,
        0,
        0,
        0,
        0,
        0,
        0,
        0,
        0,
        0,
        0,
        0,
        0,
        0,
        0,
        0,
        0,
        0,
        0,
        0,
        0,
        0,
        0,
        0,
        0,
        0,
        0,
        0,
        0,
        0,
        0,
        0,
        0,
        0,
        0,
        0,
        0,
        0,
        0,
        0,
        0,
        0,
        0,
        0,
        0,
        0,
        0,
        0,
        0,
        0,
        0,
        0,
        0,
        0,
        0,
        0,
        0,
        0,
        0,
        0,
        0,
        0,
        0,
        0,
        0,
        0,
        0,
        0,
        0,
        0,
        0,
        0,
        0,
        0,
        0,
        0,
        0,
        0,
        0,
        0,
        0,
        0,
        0,
        0,
        0,
        0,
        0,
        0,
        0,
        0,
        0,
        0,
        0,
        0,
        0,
        0,
        0,
        0,
        0,
        0,
        0,
        0,
        0,
        0,
        0,
        0,
        0,
        0,
        0,
        0,
        0,
        0,
        0,
        0,
        0,
        0,
        0,
        0,
        0,
        0,
        0,
        0,
        0,
        0,
        0,
        0,
        0,
        0,
        0,
        0,
        0,
        0,
        0,
        0,
        0,
        0,
        0,
        0,
        0,
        0,
        0,
        0,
        0,
        0,
        0,
        0,
        0,
        0,
        0,
        0,
        0,
        0,
        0,
        0,
        0,
        0,
        0,
        0,
        0,
        0,
        0,
        0,
        0,
        0,
        0,
        0,
        0,
        0,
        0,
        0,
        0,
        0,
        0,
        0,
        0,
        0,
        0,
        0,
        0,
        0,
        0,
        0,
        0,
        0,
        0,
        0,
        0,
        0,
        0,
        0,
        0,
        0,
        0,
        0,
        0,
        0,
        0,
        0,
        0,
        0,
        0,
        0,
        0,
        0,
        0,
        0,
        0,
        0,
        0,
        0,
        0,
        0,
        0,
        0,
        0,
        0,
        0,
        0,
        0,
        0,
        0,
        0,
        0,
        0,
        0,
        0,
        0,
        0,
        0,
        0,
        0,
        0,
        0,
        0,
        0,
        0,
        0,
        0,
        0,
        0,
        0,
        0,
        0,
        0,
        0,
        0,
        0,
        0,
        0,
        0,
        0,
        0,
        0,
        0,
        0,
        0,
        0,
        0,
        0,
        0,
        0,
        0,
        0,
        0,
        0,
        0,
        0,
        0,
        0,
        0,
        0,
        0,
        0,
        0,
        0,
        0,
        0,
        0,
        0,
        0,
        0,
        0,
        0,
        0,
        0,
        0,
        0,
        0,
        0,
        0,
        0,
        0,
        0,
        0,
        0,
        0,
        0,
        0,
        0,
        0,
        0,
        0,
        0,
        0,
        0,
        0,
        0,
        0,
        0,
        0,
        0,
        0,
        0,
        0,
        0,
        0,
        0,
        0,
        0,
        0,
        0,
        0,
        0,
        0,
        0,
        0,
        0,
        0,
        0,
        0,
        0,
        0,
        0,
        0,
        0,
        0,
        0,
        0,
        0,
        0,
        0,
        0,
        0,
        0,
        0,
        0,
        0,
        0,
        0,
        0,
        0,
        0,
        0,
        0,
        0,
        0,
        0,
        0,
        0,
        0,
        0,
        0,
        0,
        0,
        0,
        0,
        0,
        0,
        0,
        0,
        0,
        0,
        0,
        0,
        0,
        0,
        0,
        0,
        0,
        0,
        0,
        0,
        0,
        0,
        0,
        0,
        0,
        0,
        0,
        0,
        0,
        0,
        0,
        0,
        0,
        0,
        0,
        0,
        0,
        0,
        0,
        0,
        0,
        0,
        0,
        0,
        0,
        0,
        0,
        0,
        0,
        0,
        0,
        0,
        0,
        0,
        0,
        0,
        0,
        0,
        0,
        0,
        0,
        0,
        0,
        0,
        0,
        0,
        0,
        0,
        0,
        0,
        0,
        0,
        0,
        0,
        0,
        0,
        0,
        0,
        0,
        0,
        0,
        0,
        0,
        0,
        0,
        0,
        0,
        0,
        0,
        0,
        0,
        0,
        0,
        0,
        0,
        0,
        0,
        0,
        0,
        0,
        0,
        0,
        0,
        0,
        0,
        0,
        0,
        0,
        0,
        0,
        0,
        0,
        0,
        0,
        0,
        0,
        0,
        0,
        0,
        0,
        0,
        0,
        0,
        0,
        0,
        0,
        0,
        0,
        0,
        0,
        0,
        0,
        0,
        0,
        0,
        0,
        0,
        0,
        0,
        0,
        0,
        0,
        0,
        0,
        0,
        0,
        0,
        0,
        0,
        0,
        0,
        0,
        0,
        0,
        0,
        0,
        0,
        0,
        0,
        0,
        0,
        0
      ],
      "height": 104,
      "id": 11,
      "name": "Decor",
      "opacity": 1,
      "type": "tilelayer",
      "visible": true,
      "width": 126,
      "x": 0,
      "y": 0
    },
    {
      "data": [
        0,
        0,
        0,
        0,
        0,
        0,
        0,
        0,
        0,
        0,
        0,
        0,
        0,
        0,
        0,
        0,
        0,
        0,
        0,
        0,
        0,
        0,
        0,
        0,
        0,
        0,
        0,
        0,
        0,
        0,
        0,
        0,
        0,
        0,
        0,
        0,
        0,
        0,
        0,
        0,
        0,
        0,
        0,
        0,
        0,
        0,
        0,
        0,
        0,
        0,
        0,
        0,
        0,
        0,
        0,
        0,
        0,
        0,
        0,
        0,
        0,
        0,
        0,
        0,
        0,
        0,
        0,
        0,
        0,
        0,
        0,
        0,
        0,
        0,
        0,
        0,
        0,
        0,
        0,
        0,
        0,
        0,
        0,
        0,
        0,
        0,
        0,
        0,
        0,
        0,
        0,
        0,
        0,
        0,
        0,
        0,
        0,
        0,
        0,
        0,
        0,
        0,
        0,
        0,
        0,
        0,
        0,
        0,
        0,
        0,
        0,
        0,
        0,
        0,
        0,
        0,
        0,
        0,
        0,
        0,
        0,
        0,
        0,
        0,
        0,
        0,
        0,
        0,
        0,
        0,
        0,
        0,
        0,
        0,
        0,
        0,
        0,
        0,
        0,
        0,
        0,
        0,
        0,
        0,
        0,
        0,
        0,
        0,
        0,
        0,
        0,
        0,
        0,
        0,
        0,
        0,
        0,
        0,
        0,
        0,
        0,
        0,
        0,
        0,
        0,
        0,
        0,
        0,
        0,
        0,
        0,
        0,
        0,
        0,
        0,
        0,
        0,
        0,
        0,
        0,
        0,
        0,
        0,
        0,
        0,
        0,
        0,
        0,
        0,
        0,
        0,
        0,
        0,
        0,
        0,
        0,
        0,
        0,
        0,
        0,
        0,
        0,
        0,
        0,
        0,
        0,
        0,
        0,
        0,
        0,
        0,
        0,
        0,
        0,
        0,
        0,
        0,
        0,
        0,
        0,
        0,
        0,
        0,
        0,
        0,
        0,
        0,
        0,
        0,
        0,
        0,
        0,
        0,
        0,
        0,
        0,
        0,
        0,
        0,
        0,
        0,
        0,
        0,
        0,
        0,
        0,
        0,
        0,
        0,
        0,
        0,
        0,
        0,
        0,
        0,
        0,
        0,
        0,
        0,
        0,
        0,
        0,
        0,
        0,
        0,
        0,
        0,
        0,
        0,
        0,
        0,
        0,
        0,
        0,
        0,
        0,
        0,
        0,
        0,
        0,
        0,
        0,
        0,
        0,
        0,
        0,
        0,
        0,
        0,
        0,
        0,
        0,
        0,
        0,
        0,
        0,
        0,
        0,
        0,
        0,
        0,
        0,
        0,
        0,
        0,
        0,
        0,
        0,
        0,
        0,
        0,
        0,
        0,
        0,
        0,
        0,
        0,
        0,
        0,
        0,
        0,
        0,
        0,
        0,
        0,
        0,
        0,
        0,
        0,
        0,
        0,
        0,
        0,
        0,
        0,
        0,
        0,
        0,
        0,
        0,
        0,
        0,
        0,
        0,
        0,
        0,
        0,
        0,
        0,
        0,
        0,
        0,
        0,
        0,
        0,
        0,
        0,
        0,
        0,
        0,
        0,
        0,
        0,
        0,
        0,
        0,
        0,
        0,
        0,
        0,
        0,
        0,
        0,
        0,
        0,
        0,
        0,
        0,
        0,
        0,
        0,
        0,
        0,
        0,
        0,
        0,
        0,
        0,
        0,
        0,
        0,
        0,
        0,
        0,
        0,
        0,
        0,
        0,
        0,
        0,
        0,
        0,
        0,
        0,
        0,
        0,
        0,
        0,
        0,
        0,
        0,
        0,
        0,
        0,
        0,
        0,
        0,
        0,
        0,
        0,
        0,
        0,
        0,
        0,
        0,
        0,
        0,
        0,
        0,
        0,
        0,
        0,
        0,
        0,
        0,
        0,
        0,
        0,
        0,
        0,
        0,
        0,
        0,
        0,
        0,
        0,
        0,
        0,
        0,
        0,
        0,
        0,
        0,
        0,
        0,
        0,
        0,
        0,
        0,
        0,
        0,
        0,
        0,
        0,
        0,
        0,
        0,
        0,
        0,
        0,
        0,
        0,
        0,
        0,
        0,
        0,
        0,
        0,
        0,
        0,
        0,
        0,
        0,
        0,
        0,
        0,
        0,
        0,
        0,
        0,
        0,
        0,
        0,
        0,
        0,
        0,
        0,
        0,
        0,
        0,
        0,
        0,
        0,
        0,
        0,
        0,
        0,
        0,
        0,
        0,
        0,
        0,
        0,
        0,
        0,
        0,
        0,
        0,
        0,
        0,
        0,
        0,
        0,
        0,
        0,
        0,
        0,
        0,
        0,
        0,
        0,
        0,
        0,
        0,
        0,
        0,
        0,
        0,
        0,
        0,
        0,
        0,
        0,
        0,
        0,
        0,
        0,
        0,
        0,
        0,
        0,
        0,
        0,
        0,
        0,
        0,
        0,
        0,
        0,
        0,
        0,
        0,
        0,
        0,
        0,
        0,
        0,
        0,
        0,
        0,
        0,
        0,
        0,
        0,
        0,
        0,
        0,
        0,
        0,
        0,
        0,
        0,
        0,
        0,
        0,
        0,
        0,
        0,
        0,
        0,
        0,
        0,
        0,
        0,
        0,
        0,
        0,
        0,
        0,
        0,
        0,
        0,
        0,
        0,
        0,
        0,
        0,
        0,
        0,
        0,
        0,
        0,
        0,
        0,
        0,
        0,
        0,
        0,
        0,
        0,
        0,
        0,
        0,
        0,
        0,
        0,
        0,
        0,
        0,
        0,
        0,
        0,
        0,
        0,
        0,
        0,
        0,
        0,
        0,
        0,
        0,
        0,
        0,
        0,
        0,
        0,
        0,
        0,
        0,
        0,
        0,
        0,
        0,
        0,
        0,
        0,
        0,
        0,
        0,
        0,
        0,
        0,
        0,
        0,
        0,
        0,
        0,
        0,
        0,
        0,
        0,
        0,
        0,
        0,
        0,
        0,
        0,
        0,
        0,
        0,
        0,
        0,
        0,
        0,
        0,
        0,
        0,
        0,
        0,
        0,
        0,
        0,
        0,
        0,
        0,
        0,
        0,
        0,
        0,
        0,
        0,
        0,
        0,
        0,
        0,
        0,
        0,
        0,
        0,
        0,
        0,
        0,
        0,
        0,
        0,
        0,
        0,
        0,
        0,
        0,
        0,
        0,
        0,
        0,
        0,
        0,
        0,
        0,
        0,
        0,
        0,
        0,
        0,
        0,
        0,
        0,
        0,
        0,
        0,
        0,
        0,
        0,
        0,
        0,
        0,
        0,
        0,
        0,
        0,
        0,
        0,
        0,
        0,
        0,
        0,
        0,
        0,
        0,
        0,
        0,
        0,
        0,
        0,
        0,
        0,
        0,
        0,
        0,
        0,
        0,
        0,
        0,
        0,
        0,
        0,
        0,
        0,
        0,
        0,
        0,
        0,
        0,
        0,
        0,
        0,
        0,
        0,
        0,
        0,
        0,
        0,
        0,
        0,
        0,
        0,
        0,
        0,
        0,
        0,
        0,
        0,
        0,
        0,
        0,
        0,
        0,
        0,
        0,
        0,
        0,
        0,
        0,
        0,
        0,
        0,
        0,
        0,
        0,
        0,
        0,
        0,
        0,
        0,
        0,
        0,
        0,
        0,
        0,
        0,
        0,
        0,
        0,
        0,
        0,
        0,
        0,
        0,
        0,
        0,
        0,
        0,
        0,
        0,
        0,
        0,
        0,
        0,
        0,
        0,
        0,
        0,
        0,
        0,
        0,
        0,
        0,
        0,
        0,
        0,
        0,
        0,
        0,
        0,
        0,
        0,
        0,
        0,
        0,
        0,
        0,
        0,
        0,
        0,
        0,
        0,
        0,
        0,
        0,
        0,
        0,
        0,
        0,
        0,
        0,
        0,
        0,
        0,
        0,
        0,
        0,
        0,
        0,
        0,
        0,
        0,
        0,
        0,
        0,
        0,
        0,
        0,
        7,
        8,
        7,
        7,
        8,
        7,
        7,
        8,
        7,
        7,
        8,
        7,
        7,
        0,
        0,
        0,
        0,
        0,
        0,
        0,
        0,
        0,
        0,
        0,
        0,
        0,
        0,
        0,
        0,
        0,
        0,
        0,
        0,
        0,
        0,
        0,
        0,
        0,
        0,
        7,
        8,
        7,
        7,
        8,
        7,
        7,
        8,
        7,
        7,
        8,
        7,
        7,
        0,
        0,
        0,
        0,
        0,
        0,
        0,
        0,
        0,
        0,
        0,
        0,
        0,
        0,
        0,
        0,
        0,
        0,
        0,
        0,
        0,
        0,
        0,
        0,
        0,
        0,
        0,
        8,
        7,
        7,
        8,
        7,
        7,
        8,
        7,
        7,
        8,
        7,
        7,
        8,
        0,
        0,
        0,
        0,
        0,
        0,
        0,
        0,
        0,
        0,
        0,
        0,
        0,
        0,
        0,
        0,
        0,
        0,
        0,
        0,
        0,
        0,
        0,
        0,
        0,
        0,
        0,
        7,
        8,
        7,
        7,
        8,
        7,
        7,
        8,
        7,
        7,
        8,
        7,
        7,
        8,
        7,
        7,
        8,
        7,
        7,
        8,
        7,
        7,
        8,
        7,
        7,
        8,
        7,
        0,
        0,
        0,
        0,
        0,
        0,
        0,
        0,
        0,
        0,
        0,
        0,
        0,
        8,
        7,
        7,
        8,
        7,
        7,
        8,
        7,
        7,
        8,
        7,
        7,
        8,
        7,
        7,
        8,
        7,
        7,
        8,
        7,
        7,
        8,
        7,
        7,
        8,
        7,
        0,
        0,
        0,
        0,
        0,
        0,
        0,
        0,
        0,
        0,
        0,
        0,
        0,
        8,
        7,
        7,
        8,
        7,
        7,
        8,
        7,
        7,
        8,
        7,
        7,
        8,
        7,
        7,
        8,
        7,
        7,
        8,
        7,
        7,
        8,
        7,
        7,
        8,
        7,
        0,
        0,
        0,
        0,
        0,
        0,
        0,
        0,
        0,
        0,
        0,
        0,
        0,
        0,
        0,
        0,
        0,
        0,
        0,
        0,
        0,
        8,
        7,
        7,
        8,
        7,
        7,
        8,
        0,
        0,
        0,
        0,
        0,
        0,
        0,
        0,
        0,
        0,
        0,
        0,
        0,
        7,
        8,
        7,
        7,
        8,
        7,
        7,
        8,
        7,
        7,
        8,
        7,
        7,
        8,
        7,
        7,
        8,
        7,
        7,
        8,
        7,
        7,
        8,
        7,
        7,
        8,
        0,
        0,
        0,
        0,
        0,
        0,
        0,
        0,
        0,
        0,
        0,
        0,
        0,
        7,
        8,
        7,
        7,
        8,
        7,
        7,
        8,
        7,
        7,
        8,
        7,
        7,
        8,
        7,
        7,
        8,
        7,
        7,
        8,
        7,
        7,
        8,
        7,
        7,
        8,
        7,
        0,
        0,
        0,
        0,
        0,
        0,
        0,
        0,
        0,
        0,
        0,
        0,
        0,
        8,
        7,
        7,
        8,
        7,
        7,
        8,
        7,
        0,
        0,
        0,
        0,
        0,
        0,
        0,
        0,
        0,
        0,
        0,
        0,
        0,
        0,
        0,
        0,
        0,
        0,
        0,
        7,
        7,
        0,
        0,
        0,
        0,
        0,
        0,
        0,
        0,
        0,
        0,
        0,
        0,
        0,
        0,
        0,
        0,
        0,
        0,
        0,
        0,
        0,
        0,
        0,
        0,
        0,
        7,
        7,
        8,
        7,
        7,
        8,
        7,
        7,
        8,
        7,
        7,
        8,
        7,
        0,
        0,
        0,
        0,
        0,
        0,
        0,
        0,
        0,
        0,
        0,
        0,
        0,
        0,
        0,
        0,
        0,
        0,
        0,
        0,
        0,
        0,
        0,
        0,
        0,
        0,
        7,
        7,
        8,
        7,
        7,
        8,
        7,
        7,
        8,
        7,
        7,
        8,
        7,
        0,
        0,
        0,
        0,
        0,
        0,
        0,
        0,
        0,
        0,
        0,
        0,
        0,
        0,
        0,
        0,
        0,
        0,
        0,
        0,
        0,
        0,
        0,
        0,
        0,
        8,
        7,
        0,
        0,
        0,
        0,
        0,
        0,
        0,
        0,
        0,
        0,
        0,
        0,
        0,
        0,
        0,
        0,
        0,
        0,
        0,
        0,
        7,
        8,
        0,
        0,
        0,
        0,
        0,
        0,
        0,
        0,
        0,
        0,
        0,
        0,
        0,
        0,
        0,
        0,
        0,
        0,
        0,
        0,
        0,
        0,
        0,
        0,
        0,
        0,
        0,
        0,
        0,
        0,
        0,
        0,
        0,
        0,
        0,
        0,
        0,
        0,
        0,
        0,
        0,
        0,
        0,
        0,
        0,
        0,
        0,
        0,
        0,
        0,
        0,
        0,
        0,
        0,
        0,
        0,
        0,
        0,
        0,
        0,
        0,
        0,
        0,
        0,
        0,
        0,
        0,
        0,
        0,
        0,
        0,
        0,
        0,
        0,
        0,
        0,
        0,
        0,
        0,
        0,
        0,
        0,
        0,
        0,
        0,
        0,
        0,
        0,
        0,
        0,
        0,
        0,
        0,
        0,
        0,
        0,
        0,
        0,
        0,
        0,
        0,
        0,
        7,
        7,
        0,
        0,
        0,
        0,
        0,
        0,
        0,
        0,
        0,
        0,
        0,
        0,
        0,
        0,
        0,
        0,
        0,
        0,
        0,
        0,
        8,
        7,
        0,
        0,
        0,
        0,
        0,
        0,
        0,
        0,
        0,
        0,
        0,
        0,
        0,
        0,
        0,
        0,
        0,
        0,
        0,
        0,
        0,
        0,
        8,
        8,
        0,
        0,
        0,
        0,
        0,
        0,
        0,
        0,
        0,
        0,
        0,
        0,
        0,
        0,
        0,
        0,
        0,
        0,
        0,
        0,
        8,
        0,
        0,
        0,
        0,
        0,
        0,
        8,
        0,
        0,
        0,
        0,
        0,
        0,
        0,
        0,
        0,
        0,
        0,
        0,
        0,
        0,
        0,
        8,
        0,
        0,
        0,
        0,
        0,
        0,
        0,
        8,
        0,
        0,
        0,
        0,
        0,
        0,
        0,
        0,
        0,
        0,
        0,
        0,
        0,
        0,
        0,
        0,
        0,
        0,
        0,
        0,
        0,
        0,
        0,
        0,
        0,
        0,
        7,
        8,
        0,
        0,
        0,
        0,
        0,
        0,
        0,
        0,
        0,
        0,
        0,
        0,
        0,
        0,
        0,
        0,
        0,
        0,
        0,
        8,
        7,
        0,
        0,
        0,
        0,
        0,
        0,
        0,
        0,
        0,
        0,
        0,
        0,
        0,
        0,
        0,
        0,
        8,
        0,
        0,
        0,
        0,
        0,
        0,
        0,
        0,
        0,
        0,
        0,
        8,
        0,
        0,
        0,
        8,
        0,
        0,
        0,
        0,
        0,
        0,
        0,
        0,
        0,
        0,
        0,
        0,
        0,
        0,
        0,
        0,
        0,
        0,
        0,
        0,
        0,
        0,
        0,
        0,
        0,
        0,
        8,
        0,
        0,
        0,
        8,
        0,
        0,
        0,
        0,
        0,
        0,
        0,
        0,
        0,
        0,
        0,
        0,
        0,
        0,
        0,
        0,
        0,
        0,
        0,
        0,
        0,
        0,
        0,
        0,
        0,
        0,
        0,
        0,
        0,
        0,
        0,
        8,
        0,
        0,
        0,
        0,
        8,
        0,
        0,
        8,
        7,
        0,
        0,
        0,
        0,
        0,
        0,
        0,
        0,
        0,
        0,
        0,
        0,
        0,
        0,
        0,
        0,
        0,
        0,
        0,
        7,
        7,
        0,
        0,
        0,
        0,
        0,
        0,
        0,
        0,
        0,
        0,
        0,
        0,
        0,
        0,
        0,
        0,
        8,
        0,
        0,
        0,
        8,
        0,
        0,
        0,
        0,
        0,
        0,
        0,
        0,
        0,
        0,
        0,
        0,
        0,
        0,
        0,
        0,
        0,
        0,
        0,
        0,
        0,
        8,
        0,
        0,
        0,
        0,
        8,
        0,
        0,
        0,
        0,
        0,
        0,
        0,
        0,
        0,
        8,
        0,
        0,
        0,
        0,
        0,
        0,
        0,
        0,
        0,
        0,
        0,
        0,
        0,
        0,
        0,
        0,
        8,
        0,
        0,
        0,
        0,
        0,
        0,
        0,
        0,
        0,
        0,
        0,
        0,
        0,
        0,
        0,
        0,
        0,
        0,
        0,
        0,
        8,
        0,
        0,
        0,
        0,
        0,
        0,
        0,
        7,
        7,
        0,
        0,
        0,
        0,
        0,
        0,
        0,
        0,
        0,
        0,
        0,
        0,
        0,
        0,
        0,
        0,
        0,
        0,
        7,
        7,
        0,
        0,
        0,
        0,
        0,
        0,
        0,
        0,
        0,
        0,
        0,
        0,
        0,
        0,
        0,
        8,
        8,
        0,
        0,
        0,
        0,
        8,
        0,
        0,
        0,
        0,
        0,
        0,
        0,
        0,
        0,
        0,
        0,
        0,
        0,
        0,
        0,
        0,
        0,
        0,
        0,
        0,
        0,
        8,
        0,
        0,
        0,
        0,
        8,
        0,
        0,
        0,
        0,
        0,
        0,
        0,
        0,
        0,
        0,
        0,
        0,
        0,
        0,
        0,
        0,
        0,
        8,
        0,
        0,
        0,
        0,
        0,
        0,
        0,
        0,
        0,
        8,
        0,
        0,
        0,
        8,
        0,
        0,
        0,
        0,
        8,
        0,
        0,
        0,
        0,
        0,
        0,
        0,
        0,
        0,
        0,
        0,
        0,
        0,
        0,
        0,
        8,
        0,
        0,
        7,
        8,
        0,
        0,
        0,
        0,
        0,
        0,
        0,
        0,
        0,
        0,
        0,
        0,
        0,
        0,
        0,
        0,
        0,
        0,
        7,
        8,
        0,
        0,
        0,
        0,
        0,
        0,
        0,
        0,
        0,
        0,
        0,
        0,
        0,
        0,
        0,
        0,
        0,
        8,
        0,
        0,
        0,
        0,
        0,
        0,
        0,
        0,
        0,
        0,
        0,
        0,
        8,
        0,
        0,
        0,
        0,
        0,
        0,
        0,
        0,
        0,
        0,
        0,
        0,
        0,
        0,
        0,
        0,
        0,
        0,
        0,
        0,
        21,
        21,
        21,
        0,
        0,
        0,
        0,
        0,
        0,
        0,
        0,
        0,
        0,
        0,
        0,
        0,
        0,
        0,
        0,
        0,
        0,
        0,
        0,
        0,
        0,
        0,
        0,
        0,
        0,
        0,
        0,
        0,
        0,
        0,
        0,
        0,
        0,
        0,
        0,
        0,
        0,
        0,
        0,
        0,
        0,
        0,
        0,
        0,
        8,
        0,
        0,
        0,
        0,
        8,
        7,
        0,
        0,
        0,
        0,
        0,
        0,
        0,
        0,
        0,
        0,
        0,
        0,
        0,
        0,
        0,
        0,
        0,
        0,
        8,
        7,
        0,
        0,
        0,
        0,
        0,
        8,
        0,
        0,
        0,
        0,
        0,
        0,
        0,
        0,
        0,
        0,
        0,
        0,
        0,
        0,
        0,
        0,
        0,
        0,
        0,
        0,
        0,
        0,
        0,
        0,
        0,
        0,
        0,
        0,
        0,
        0,
        0,
        0,
        0,
        0,
        0,
        0,
        0,
        0,
        0,
        0,
        8,
        0,
        0,
        0,
        0,
        21,
        21,
        21,
        0,
        0,
        0,
        0,
        0,
        0,
        0,
        0,
        0,
        0,
        0,
        0,
        0,
        0,
        8,
        0,
        0,
        0,
        0,
        8,
        0,
        0,
        0,
        0,
        0,
        0,
        0,
        0,
        0,
        0,
        0,
        0,
        0,
        0,
        0,
        0,
        0,
        0,
        0,
        0,
        0,
        0,
        8,
        0,
        0,
        0,
        0,
        0,
        0,
        0,
        7,
        7,
        0,
        0,
        0,
        0,
        0,
        0,
        0,
        0,
        0,
        0,
        0,
        0,
        0,
        0,
        0,
        0,
        7,
        8,
        0,
        0,
        0,
        0,
        0,
        0,
        0,
        0,
        0,
        0,
        0,
        0,
        0,
        0,
        0,
        0,
        0,
        0,
        0,
        8,
        0,
        0,
        0,
        0,
        0,
        0,
        0,
        0,
        0,
        0,
        0,
        0,
        0,
        0,
        0,
        0,
        0,
        0,
        0,
        0,
        0,
        0,
        0,
        0,
        0,
        0,
        0,
        0,
        0,
        0,
        0,
        8,
        0,
        21,
        21,
        21,
        0,
        0,
        0,
        0,
        0,
        0,
        0,
        0,
        0,
        0,
        0,
        0,
        0,
        0,
        0,
        0,
        8,
        0,
        0,
        0,
        0,
        0,
        0,
        0,
        0,
        0,
        0,
        0,
        0,
        0,
        0,
        0,
        8,
        0,
        0,
        0,
        0,
        0,
        0,
        0,
        0,
        0,
        0,
        0,
        0,
        0,
        0,
        0,
        0,
        7,
        7,
        0,
        0,
        0,
        0,
        0,
        0,
        0,
        0,
        0,
        0,
        0,
        0,
        0,
        0,
        0,
        0,
        7,
        8,
        7,
        0,
        0,
        0,
        0,
        0,
        0,
        0,
        0,
        0,
        0,
        0,
        0,
        0,
        0,
        0,
        0,
        0,
        0,
        0,
        0,
        0,
        0,
        0,
        8,
        8,
        0,
        0,
        0,
        0,
        0,
        0,
        0,
        0,
        0,
        0,
        0,
        0,
        0,
        0,
        0,
        0,
        0,
        0,
        0,
        0,
        0,
        8,
        0,
        0,
        0,
        0,
        0,
        0,
        22,
        22,
        22,
        0,
        0,
        0,
        0,
        0,
        0,
        0,
        0,
        0,
        0,
        0,
        0,
        0,
        0,
        0,
        0,
        0,
        0,
        0,
        0,
        0,
        0,
        0,
        0,
        0,
        0,
        0,
        0,
        0,
        0,
        0,
        0,
        0,
        0,
        0,
        0,
        0,
        0,
        0,
        0,
        0,
        0,
        8,
        0,
        0,
        0,
        8,
        0,
        0,
        7,
        8,
        0,
        0,
        0,
        0,
        0,
        0,
        0,
        0,
        0,
        0,
        0,
        0,
        0,
        0,
        0,
        0,
        8,
        7,
        0,
        0,
        0,
        0,
        8,
        0,
        0,
        0,
        0,
        0,
        0,
        0,
        0,
        0,
        0,
        0,
        0,
        0,
        0,
        0,
        0,
        0,
        0,
        8,
        0,
        0,
        0,
        0,
        0,
        0,
        0,
        0,
        0,
        8,
        0,
        0,
        0,
        8,
        0,
        0,
        0,
        0,
        0,
        0,
        0,
        8,
        0,
        0,
        0,
        0,
        0,
        0,
        0,
        0,
        22,
        22,
        22,
        0,
        0,
        0,
        0,
        0,
        0,
        0,
        0,
        0,
        0,
        0,
        0,
        0,
        0,
        0,
        0,
        0,
        0,
        0,
        0,
        0,
        0,
        0,
        0,
        0,
        0,
        0,
        0,
        0,
        0,
        0,
        0,
        0,
        0,
        0,
        0,
        0,
        0,
        0,
        8,
        0,
        0,
        0,
        0,
        8,
        0,
        0,
        0,
        0,
        8,
        7,
        0,
        0,
        0,
        0,
        0,
        0,
        0,
        0,
        0,
        0,
        0,
        0,
        0,
        0,
        0,
        8,
        7,
        0,
        0,
        0,
        0,
        0,
        0,
        0,
        0,
        0,
        0,
        0,
        0,
        0,
        0,
        0,
        0,
        0,
        0,
        0,
        0,
        0,
        0,
        0,
        0,
        0,
        0,
        0,
        0,
        0,
        0,
        0,
        0,
        0,
        0,
        0,
        0,
        8,
        0,
        0,
        0,
        0,
        8,
        0,
        0,
        0,
        0,
        0,
        0,
        0,
        0,
        0,
        0,
        0,
        0,
        0,
        22,
        22,
        22,
        0,
        0,
        0,
        0,
        0,
        0,
        0,
        0,
        0,
        0,
        0,
        0,
        0,
        0,
        0,
        0,
        0,
        0,
        0,
        0,
        0,
        0,
        0,
        0,
        0,
        0,
        0,
        0,
        0,
        0,
        0,
        0,
        0,
        0,
        0,
        8,
        0,
        0,
        0,
        0,
        8,
        0,
        0,
        0,
        0,
        0,
        0,
        8,
        0,
        7,
        7,
        0,
        0,
        0,
        0,
        0,
        0,
        0,
        0,
        0,
        0,
        0,
        0,
        0,
        0,
        0,
        7,
        7,
        0,
        0,
        0,
        0,
        0,
        0,
        0,
        0,
        0,
        0,
        0,
        0,
        0,
        0,
        0,
        0,
        0,
        0,
        0,
        0,
        0,
        0,
        0,
        0,
        0,
        0,
        0,
        0,
        0,
        0,
        0,
        0,
        0,
        0,
        0,
        0,
        0,
        0,
        0,
        0,
        0,
        0,
        8,
        0,
        0,
        22,
        22,
        22,
        0,
        0,
        0,
        0,
        0,
        0,
        0,
        0,
        0,
        0,
        0,
        0,
        0,
        0,
        8,
        0,
        0,
        0,
        0,
        0,
        0,
        0,
        0,
        0,
        0,
        0,
        0,
        0,
        0,
        0,
        0,
        0,
        8,
        0,
        0,
        0,
        0,
        0,
        0,
        0,
        0,
        0,
        0,
        0,
        0,
        8,
        0,
        0,
        0,
        0,
        0,
        8,
        0,
        0,
        0,
        0,
        0,
        8,
        0,
        7,
        8,
        0,
        0,
        0,
        0,
        0,
        0,
        0,
        0,
        0,
        0,
        0,
        0,
        0,
        0,
        0,
        7,
        8,
        0,
        0,
        0,
        0,
        0,
        0,
        0,
        0,
        0,
        0,
        0,
        0,
        0,
        0,
        0,
        8,
        0,
        0,
        0,
        0,
        0,
        0,
        0,
        0,
        0,
        0,
        0,
        0,
        0,
        0,
        8,
        0,
        0,
        0,
        0,
        0,
        0,
        0,
        0,
        0,
        0,
        0,
        0,
        0,
        0,
        22,
        22,
        22,
        0,
        0,
        0,
        0,
        0,
        0,
        0,
        0,
        0,
        0,
        0,
        0,
        0,
        0,
        0,
        0,
        0,
        0,
        22,
        22,
        22,
        0,
        0,
        0,
        0,
        0,
        0,
        0,
        0,
        0,
        0,
        0,
        0,
        0,
        0,
        0,
        0,
        0,
        0,
        0,
        0,
        0,
        0,
        0,
        0,
        0,
        0,
        0,
        0,
        0,
        0,
        0,
        0,
        8,
        0,
        0,
        0,
        0,
        0,
        8,
        7,
        0,
        0,
        0,
        0,
        0,
        0,
        0,
        0,
        0,
        0,
        0,
        0,
        0,
        0,
        0,
        8,
        7,
        0,
        0,
        0,
        0,
        0,
        0,
        8,
        0,
        8,
        0,
        0,
        0,
        0,
        0,
        0,
        0,
        0,
        0,
        0,
        0,
        0,
        0,
        0,
        0,
        0,
        0,
        0,
        0,
        0,
        0,
        0,
        0,
        0,
        0,
        0,
        0,
        0,
        0,
        0,
        0,
        0,
        0,
        0,
        0,
        0,
        22,
        22,
        22,
        0,
        0,
        0,
        0,
        0,
        0,
        8,
        0,
        0,
        0,
        0,
        0,
        0,
        0,
        0,
        0,
        0,
        0,
        22,
        22,
        22,
        0,
        0,
        0,
        0,
        0,
        0,
        0,
        0,
        0,
        8,
        0,
        0,
        0,
        0,
        0,
        8,
        0,
        0,
        8,
        0,
        0,
        0,
        0,
        0,
        0,
        0,
        0,
        0,
        0,
        0,
        0,
        0,
        0,
        0,
        0,
        0,
        0,
        0,
        7,
        7,
        0,
        0,
        0,
        0,
        0,
        0,
        0,
        0,
        0,
        0,
        0,
        0,
        0,
        0,
        0,
        7,
        7,
        0,
        0,
        0,
        0,
        0,
        0,
        0,
        0,
        0,
        0,
        0,
        0,
        0,
        0,
        0,
        0,
        8,
        0,
        0,
        0,
        0,
        0,
        0,
        0,
        0,
        0,
        0,
        0,
        0,
        0,
        0,
        0,
        0,
        0,
        0,
        0,
        0,
        0,
        0,
        0,
        0,
        0,
        0,
        0,
        8,
        0,
        0,
        0,
        0,
        0,
        0,
        0,
        0,
        0,
        0,
        0,
        0,
        0,
        0,
        0,
        0,
        0,
        0,
        0,
        0,
        0,
        22,
        22,
        22,
        0,
        0,
        0,
        0,
        0,
        0,
        0,
        0,
        0,
        0,
        0,
        0,
        0,
        0,
        0,
        0,
        0,
        0,
        0,
        0,
        0,
        0,
        0,
        0,
        0,
        0,
        0,
        0,
        0,
        0,
        0,
        0,
        0,
        0,
        0,
        0,
        0,
        0,
        7,
        8,
        0,
        0,
        0,
        0,
        0,
        0,
        0,
        0,
        0,
        0,
        0,
        0,
        0,
        0,
        0,
        7,
        8,
        0,
        0,
        0,
        8,
        0,
        0,
        0,
        0,
        0,
        0,
        0,
        0,
        0,
        0,
        0,
        8,
        0,
        0,
        0,
        0,
        0,
        0,
        0,
        0,
        0,
        0,
        0,
        0,
        0,
        0,
        0,
        0,
        0,
        0,
        0,
        0,
        0,
        0,
        0,
        8,
        0,
        0,
        8,
        0,
        0,
        0,
        0,
        0,
        0,
        0,
        0,
        0,
        0,
        0,
        0,
        0,
        0,
        0,
        0,
        0,
        0,
        0,
        0,
        0,
        0,
        0,
        0,
        0,
        8,
        0,
        0,
        0,
        0,
        0,
        0,
        0,
        0,
        0,
        0,
        0,
        0,
        0,
        0,
        0,
        0,
        0,
        0,
        0,
        0,
        0,
        0,
        0,
        0,
        0,
        0,
        0,
        0,
        0,
        0,
        0,
        0,
        0,
        0,
        0,
        0,
        8,
        0,
        8,
        7,
        0,
        0,
        0,
        0,
        0,
        0,
        0,
        0,
        0,
        0,
        0,
        0,
        0,
        0,
        0,
        8,
        7,
        0,
        0,
        8,
        0,
        8,
        0,
        0,
        0,
        0,
        0,
        0,
        0,
        8,
        0,
        0,
        0,
        0,
        0,
        0,
        0,
        0,
        0,
        0,
        0,
        0,
        0,
        0,
        0,
        0,
        0,
        0,
        0,
        0,
        0,
        0,
        0,
        0,
        0,
        0,
        0,
        0,
        0,
        0,
        0,
        8,
        0,
        0,
        0,
        0,
        0,
        0,
        0,
        8,
        0,
        0,
        0,
        0,
        0,
        0,
        0,
        0,
        0,
        0,
        0,
        0,
        0,
        0,
        0,
        0,
        0,
        0,
        0,
        0,
        0,
        0,
        0,
        8,
        0,
        0,
        0,
        0,
        0,
        0,
        0,
        0,
        0,
        0,
        8,
        0,
        0,
        24,
        0,
        0,
        0,
        0,
        0,
        0,
        0,
        0,
        0,
        0,
        0,
        0,
        8,
        0,
        0,
        0,
        7,
        7,
        0,
        0,
        0,
        0,
        0,
        0,
        0,
        0,
        0,
        0,
        0,
        0,
        0,
        0,
        0,
        7,
        7,
        0,
        0,
        0,
        0,
        0,
        0,
        0,
        0,
        0,
        0,
        0,
        0,
        0,
        0,
        0,
        8,
        0,
        0,
        0,
        0,
        0,
        0,
        8,
        0,
        0,
        0,
        0,
        0,
        0,
        0,
        0,
        0,
        0,
        0,
        0,
        8,
        0,
        0,
        0,
        0,
        0,
        0,
        0,
        0,
        0,
        0,
        0,
        0,
        0,
        0,
        0,
        8,
        0,
        8,
        0,
        0,
        0,
        0,
        0,
        0,
        0,
        0,
        0,
        0,
        0,
        0,
        0,
        0,
        0,
        0,
        0,
        0,
        0,
        0,
        0,
        0,
        0,
        0,
        0,
        0,
        0,
        0,
        0,
        0,
        0,
        0,
        0,
        0,
        0,
        0,
        24,
        0,
        0,
        0,
        0,
        0,
        0,
        0,
        0,
        0,
        0,
        0,
        0,
        0,
        8,
        0,
        0,
        7,
        8,
        0,
        0,
        0,
        0,
        0,
        0,
        0,
        0,
        0,
        0,
        0,
        0,
        0,
        0,
        0,
        7,
        8,
        0,
        0,
        0,
        0,
        0,
        0,
        0,
        0,
        0,
        0,
        0,
        8,
        0,
        0,
        0,
        0,
        0,
        0,
        0,
        0,
        0,
        0,
        0,
        0,
        0,
        0,
        0,
        0,
        0,
        0,
        8,
        0,
        0,
        8,
        0,
        0,
        0,
        0,
        0,
        0,
        0,
        0,
        0,
        0,
        0,
        0,
        0,
        0,
        0,
        0,
        0,
        0,
        0,
        0,
        0,
        0,
        0,
        0,
        0,
        0,
        0,
        0,
        0,
        0,
        0,
        0,
        0,
        0,
        0,
        0,
        0,
        0,
        0,
        0,
        0,
        0,
        0,
        0,
        0,
        0,
        0,
        0,
        0,
        0,
        0,
        0,
        0,
        0,
        0,
        0,
        24,
        0,
        0,
        0,
        0,
        0,
        0,
        0,
        0,
        0,
        0,
        0,
        0,
        0,
        0,
        0,
        0,
        8,
        7,
        0,
        0,
        0,
        0,
        0,
        0,
        0,
        0,
        0,
        0,
        0,
        0,
        0,
        0,
        0,
        0,
        7,
        7,
        0,
        0,
        0,
        0,
        0,
        0,
        0,
        0,
        0,
        0,
        0,
        0,
        0,
        0,
        0,
        0,
        0,
        0,
        0,
        0,
        0,
        0,
        0,
        0,
        0,
        0,
        0,
        0,
        0,
        0,
        0,
        0,
        0,
        0,
        0,
        0,
        0,
        0,
        0,
        0,
        0,
        0,
        0,
        0,
        0,
        0,
        0,
        0,
        0,
        0,
        0,
        0,
        0,
        0,
        0,
        0,
        0,
        0,
        0,
        0,
        0,
        0,
        0,
        0,
        0,
        0,
        0,
        0,
        0,
        0,
        0,
        0,
        0,
        0,
        0,
        0,
        0,
        0,
        0,
        0,
        0,
        0,
        0,
        0,
        0,
        0,
        0,
        0,
        0,
        24,
        0,
        0,
        0,
        0,
        0,
        0,
        0,
        0,
        0,
        0,
        0,
        8,
        0,
        0,
        0,
        0,
        7,
        7,
        0,
        0,
        0,
        0,
        0,
        0,
        0,
        0,
        0,
        0,
        0,
        0,
        0,
        0,
        0,
        0,
        7,
        8,
        0,
        0,
        0,
        0,
        0,
        0,
        0,
        0,
        0,
        0,
        0,
        0,
        0,
        0,
        0,
        0,
        0,
        0,
        0,
        0,
        0,
        0,
        0,
        0,
        0,
        0,
        0,
        0,
        0,
        0,
        0,
        0,
        0,
        0,
        0,
        0,
        0,
        0,
        0,
        0,
        0,
        0,
        0,
        0,
        0,
        0,
        8,
        0,
        0,
        0,
        0,
        0,
        0,
        0,
        0,
        0,
        0,
        0,
        0,
        0,
        0,
        0,
        0,
        0,
        0,
        0,
        0,
        0,
        0,
        0,
        0,
        0,
        0,
        0,
        0,
        0,
        0,
        0,
        0,
        0,
        0,
        0,
        0,
        0,
        0,
        0,
        0,
        0,
        8,
        24,
        0,
        0,
        0,
        0,
        0,
        0,
        0,
        0,
        0,
        0,
        0,
        0,
        0,
        8,
        0,
        0,
        7,
        8,
        0,
        0,
        0,
        0,
        0,
        0,
        0,
        0,
        0,
        0,
        0,
        0,
        0,
        0,
        0,
        0,
        0,
        7,
        7,
        0,
        0,
        0,
        0,
        0,
        0,
        0,
        0,
        0,
        0,
        0,
        0,
        8,
        8,
        0,
        0,
        0,
        0,
        0,
        0,
        0,
        0,
        0,
        0,
        0,
        0,
        0,
        0,
        0,
        0,
        0,
        0,
        0,
        0,
        0,
        0,
        0,
        0,
        0,
        0,
        0,
        0,
        0,
        0,
        0,
        0,
        0,
        0,
        0,
        0,
        0,
        0,
        0,
        0,
        0,
        0,
        0,
        0,
        0,
        0,
        0,
        0,
        0,
        0,
        0,
        0,
        0,
        0,
        0,
        0,
        0,
        0,
        0,
        0,
        0,
        0,
        0,
        0,
        0,
        0,
        0,
        0,
        0,
        0,
        0,
        0,
        0,
        0,
        24,
        0,
        0,
        0,
        0,
        0,
        0,
        0,
        0,
        8,
        0,
        0,
        8,
        0,
        0,
        0,
        0,
        8,
        7,
        0,
        0,
        0,
        0,
        0,
        0,
        0,
        0,
        0,
        0,
        0,
        0,
        0,
        0,
        0,
        0,
        0,
        7,
        8,
        0,
        0,
        0,
        0,
        0,
        0,
        0,
        0,
        0,
        0,
        0,
        0,
        0,
        0,
        8,
        0,
        0,
        0,
        0,
        0,
        0,
        0,
        0,
        0,
        0,
        0,
        0,
        0,
        0,
        0,
        0,
        0,
        0,
        0,
        0,
        0,
        0,
        0,
        0,
        0,
        8,
        0,
        0,
        0,
        8,
        0,
        0,
        0,
        0,
        0,
        0,
        0,
        0,
        0,
        0,
        0,
        0,
        0,
        0,
        0,
        0,
        0,
        0,
        0,
        0,
        0,
        0,
        0,
        0,
        0,
        0,
        0,
        0,
        0,
        0,
        0,
        0,
        0,
        8,
        0,
        0,
        0,
        0,
        0,
        0,
        0,
        0,
        0,
        24,
        0,
        0,
        8,
        0,
        0,
        8,
        0,
        0,
        0,
        0,
        0,
        0,
        0,
        0,
        0,
        0,
        7,
        7,
        0,
        0,
        0,
        0,
        0,
        0,
        0,
        0,
        0,
        0,
        0,
        0,
        0,
        0,
        0,
        0,
        0,
        8,
        7,
        0,
        0,
        0,
        0,
        0,
        0,
        8,
        0,
        0,
        0,
        0,
        0,
        0,
        0,
        0,
        0,
        0,
        0,
        8,
        0,
        0,
        0,
        0,
        0,
        0,
        0,
        0,
        0,
        0,
        0,
        0,
        0,
        0,
        0,
        8,
        0,
        0,
        0,
        0,
        0,
        0,
        0,
        0,
        0,
        0,
        0,
        0,
        0,
        0,
        0,
        0,
        0,
        0,
        0,
        0,
        0,
        0,
        0,
        0,
        0,
        0,
        0,
        0,
        0,
        0,
        0,
        0,
        0,
        0,
        0,
        0,
        0,
        0,
        0,
        0,
        0,
        0,
        0,
        0,
        0,
        0,
        0,
        0,
        0,
        0,
        0,
        0,
        0,
        24,
        0,
        0,
        0,
        0,
        0,
        0,
        0,
        19,
        19,
        19,
        19,
        0,
        0,
        0,
        0,
        0,
        0,
        8,
        7,
        0,
        0,
        0,
        0,
        0,
        0,
        0,
        0,
        0,
        0,
        0,
        0,
        0,
        0,
        0,
        0,
        0,
        7,
        8,
        0,
        0,
        0,
        0,
        0,
        0,
        0,
        0,
        0,
        0,
        0,
        0,
        0,
        0,
        0,
        0,
        0,
        0,
        0,
        0,
        0,
        0,
        0,
        0,
        0,
        0,
        0,
        0,
        0,
        8,
        0,
        0,
        0,
        0,
        0,
        0,
        0,
        0,
        0,
        0,
        0,
        0,
        0,
        0,
        0,
        0,
        0,
        8,
        0,
        0,
        0,
        0,
        0,
        0,
        0,
        0,
        0,
        0,
        0,
        0,
        0,
        0,
        0,
        0,
        0,
        0,
        0,
        0,
        0,
        0,
        0,
        0,
        0,
        0,
        0,
        0,
        0,
        0,
        0,
        0,
        0,
        0,
        0,
        0,
        0,
        0,
        0,
        24,
        0,
        0,
        0,
        0,
        0,
        0,
        0,
        19,
        19,
        19,
        19,
        0,
        0,
        0,
        0,
        0,
        0,
        7,
        7,
        0,
        0,
        0,
        0,
        0,
        0,
        0,
        0,
        0,
        0,
        0,
        0,
        0,
        0,
        0,
        0,
        0,
        8,
        7,
        0,
        0,
        0,
        0,
        0,
        0,
        0,
        0,
        0,
        0,
        0,
        0,
        0,
        0,
        0,
        0,
        0,
        0,
        0,
        0,
        0,
        7,
        0,
        0,
        0,
        0,
        0,
        0,
        0,
        0,
        7,
        0,
        0,
        0,
        0,
        7,
        0,
        25,
        25,
        25,
        25,
        25,
        25,
        25,
        25,
        25,
        25,
        25,
        25,
        25,
        25,
        25,
        25,
        25,
        25,
        25,
        25,
        25,
        25,
        25,
        25,
        25,
        25,
        25,
        25,
        25,
        25,
        25,
        25,
        25,
        0,
        0,
        0,
        0,
        0,
        0,
        0,
        0,
        0,
        0,
        0,
        7,
        0,
        0,
        0,
        0,
        0,
        24,
        0,
        0,
        0,
        0,
        0,
        0,
        0,
        19,
        19,
        19,
        19,
        0,
        0,
        0,
        0,
        0,
        0,
        7,
        8,
        0,
        0,
        0,
        0,
        0,
        0,
        0,
        0,
        0,
        0,
        0,
        0,
        0,
        0,
        0,
        0,
        0,
        0,
        7,
        8,
        0,
        7,
        0,
        0,
        0,
        0,
        0,
        0,
        0,
        0,
        0,
        0,
        0,
        0,
        0,
        0,
        0,
        0,
        0,
        0,
        0,
        0,
        0,
        7,
        0,
        0,
        0,
        7,
        0,
        0,
        0,
        0,
        0,
        0,
        0,
        0,
        0,
        0,
        0,
        0,
        0,
        7,
        0,
        0,
        0,
        0,
        0,
        0,
        0,
        0,
        0,
        0,
        0,
        0,
        0,
        0,
        0,
        0,
        0,
        0,
        0,
        0,
        0,
        0,
        0,
        0,
        0,
        0,
        0,
        0,
        0,
        0,
        0,
        0,
        0,
        0,
        0,
        0,
        0,
        0,
        0,
        0,
        0,
        0,
        0,
        0,
        24,
        0,
        0,
        0,
        0,
        0,
        0,
        0,
        19,
        19,
        19,
        19,
        0,
        0,
        0,
        0,
        0,
        0,
        8,
        7,
        0,
        0,
        0,
        0,
        0,
        0,
        0,
        0,
        0,
        0,
        0,
        0,
        0,
        0,
        0,
        0,
        0,
        0,
        8,
        7,
        0,
        0,
        0,
        0,
        0,
        0,
        0,
        0,
        7,
        0,
        0,
        0,
        0,
        0,
        7,
        0,
        0,
        7,
        0,
        0,
        0,
        0,
        0,
        0,
        0,
        0,
        0,
        0,
        0,
        0,
        0,
        0,
        0,
        0,
        0,
        0,
        0,
        0,
        0,
        0,
        0,
        0,
        0,
        0,
        0,
        0,
        0,
        0,
        0,
        0,
        0,
        0,
        0,
        0,
        0,
        0,
        0,
        0,
        0,
        0,
        0,
        0,
        0,
        0,
        0,
        0,
        0,
        0,
        0,
        0,
        0,
        0,
        0,
        0,
        0,
        0,
        0,
        0,
        0,
        0,
        0,
        0,
        0,
        0,
        7,
        0,
        24,
        0,
        0,
        0,
        0,
        0,
        0,
        0,
        0,
        0,
        0,
        0,
        0,
        0,
        0,
        0,
        0,
        0,
        7,
        7,
        0,
        0,
        0,
        0,
        0,
        0,
        0,
        0,
        0,
        0,
        0,
        0,
        0,
        0,
        0,
        0,
        0,
        0,
        7,
        7,
        0,
        0,
        0,
        0,
        7,
        0,
        0,
        0,
        0,
        0,
        0,
        0,
        0,
        0,
        0,
        0,
        0,
        0,
        0,
        0,
        0,
        0,
        7,
        0,
        0,
        0,
        7,
        0,
        0,
        0,
        0,
        0,
        0,
        0,
        0,
        0,
        0,
        0,
        0,
        0,
        0,
        0,
        0,
        0,
        0,
        0,
        0,
        0,
        0,
        0,
        0,
        0,
        0,
        0,
        0,
        0,
        0,
        0,
        0,
        0,
        0,
        0,
        0,
        0,
        0,
        0,
        0,
        0,
        0,
        0,
        0,
        0,
        0,
        0,
        0,
        0,
        0,
        0,
        0,
        0,
        0,
        0,
        0,
        0,
        0,
        0,
        24,
        0,
        0,
        0,
        0,
        0,
        0,
        0,
        0,
        0,
        0,
        0,
        0,
        0,
        8,
        0,
        0,
        0,
        7,
        8,
        0,
        0,
        0,
        0,
        0,
        0,
        0,
        0,
        0,
        0,
        0,
        0,
        0,
        0,
        0,
        0,
        0,
        0,
        7,
        8,
        0,
        0,
        0,
        0,
        0,
        0,
        0,
        0,
        0,
        0,
        0,
        0,
        0,
        0,
        0,
        0,
        0,
        0,
        0,
        0,
        0,
        0,
        0,
        0,
        0,
        0,
        0,
        0,
        0,
        0,
        0,
        0,
        0,
        0,
        0,
        0,
        0,
        0,
        0,
        0,
        0,
        0,
        0,
        0,
        0,
        0,
        0,
        0,
        0,
        0,
        0,
        0,
        0,
        0,
        0,
        0,
        0,
        0,
        0,
        0,
        0,
        0,
        0,
        0,
        0,
        0,
        0,
        0,
        7,
        0,
        0,
        0,
        0,
        0,
        0,
        0,
        0,
        0,
        0,
        0,
        0,
        0,
        0,
        0,
        0,
        0,
        24,
        0,
        0,
        0,
        0,
        0,
        0,
        0,
        0,
        0,
        0,
        0,
        0,
        0,
        0,
        0,
        0,
        0,
        8,
        7,
        0,
        0,
        0,
        0,
        0,
        0,
        0,
        0,
        0,
        0,
        0,
        0,
        0,
        0,
        0,
        0,
        0,
        0,
        8,
        7,
        0,
        0,
        0,
        0,
        0,
        0,
        0,
        0,
        0,
        0,
        0,
        0,
        0,
        0,
        0,
        0,
        0,
        0,
        0,
        0,
        0,
        0,
        0,
        0,
        0,
        0,
        0,
        0,
        0,
        0,
        0,
        7,
        0,
        0,
        0,
        0,
        0,
        0,
        0,
        0,
        0,
        0,
        0,
        0,
        0,
        0,
        0,
        0,
        0,
        0,
        0,
        0,
        0,
        0,
        0,
        0,
        0,
        0,
        0,
        0,
        0,
        0,
        0,
        0,
        0,
        0,
        0,
        0,
        0,
        0,
        0,
        0,
        0,
        0,
        0,
        0,
        0,
        0,
        0,
        0,
        0,
        0,
        0,
        7,
        0,
        0,
        24,
        0,
        0,
        0,
        0,
        0,
        0,
        0,
        0,
        0,
        0,
        8,
        0,
        0,
        0,
        0,
        0,
        0,
        7,
        7,
        0,
        0,
        0,
        0,
        0,
        0,
        0,
        0,
        0,
        0,
        0,
        0,
        0,
        0,
        0,
        0,
        0,
        0,
        7,
        7,
        0,
        0,
        0,
        0,
        0,
        0,
        0,
        0,
        0,
        0,
        0,
        0,
        0,
        0,
        0,
        0,
        0,
        0,
        0,
        0,
        0,
        0,
        0,
        0,
        0,
        0,
        0,
        0,
        0,
        0,
        0,
        0,
        0,
        0,
        0,
        0,
        0,
        0,
        0,
        0,
        0,
        0,
        0,
        0,
        0,
        0,
        0,
        0,
        0,
        0,
        0,
        0,
        0,
        0,
        0,
        0,
        0,
        0,
        0,
        0,
        0,
        0,
        0,
        0,
        0,
        0,
        0,
        0,
        0,
        0,
        0,
        0,
        0,
        0,
        0,
        0,
        0,
        0,
        0,
        0,
        0,
        0,
        0,
        0,
        0,
        0,
        24,
        0,
        0,
        0,
        0,
        0,
        0,
        0,
        0,
        0,
        0,
        0,
        0,
        8,
        0,
        0,
        0,
        0,
        0,
        8,
        7,
        0,
        0,
        0,
        0,
        0,
        0,
        0,
        0,
        0,
        0,
        0,
        0,
        0,
        0,
        0,
        0,
        0,
        7,
        8,
        0,
        0,
        0,
        0,
        0,
        0,
        0,
        0,
        0,
        0,
        0,
        0,
        0,
        0,
        0,
        7,
        0,
        0,
        0,
        0,
        0,
        0,
        0,
        0,
        0,
        0,
        7,
        0,
        0,
        0,
        0,
        0,
        0,
        0,
        0,
        0,
        0,
        0,
        0,
        0,
        0,
        0,
        0,
        0,
        0,
        0,
        0,
        0,
        0,
        0,
        0,
        0,
        0,
        0,
        0,
        0,
        0,
        0,
        0,
        0,
        0,
        0,
        0,
        0,
        0,
        0,
        0,
        0,
        0,
        0,
        0,
        0,
        0,
        0,
        0,
        0,
        0,
        0,
        0,
        0,
        0,
        0,
        0,
        0,
        0,
        0,
        24,
        0,
        0,
        0,
        0,
        0,
        0,
        0,
        0,
        0,
        0,
        0,
        0,
        0,
        0,
        0,
        0,
        0,
        0,
        7,
        7,
        0,
        0,
        0,
        0,
        0,
        0,
        0,
        0,
        0,
        0,
        0,
        0,
        0,
        0,
        0,
        0,
        0,
        8,
        7,
        0,
        0,
        0,
        0,
        0,
        7,
        0,
        0,
        0,
        7,
        0,
        0,
        0,
        0,
        0,
        0,
        0,
        0,
        7,
        0,
        0,
        0,
        0,
        0,
        0,
        0,
        0,
        0,
        0,
        0,
        0,
        0,
        0,
        0,
        0,
        0,
        0,
        0,
        0,
        0,
        0,
        0,
        0,
        0,
        0,
        0,
        0,
        0,
        0,
        0,
        0,
        0,
        0,
        0,
        0,
        0,
        0,
        0,
        0,
        0,
        0,
        0,
        0,
        0,
        0,
        0,
        0,
        0,
        0,
        0,
        0,
        0,
        0,
        0,
        0,
        0,
        0,
        0,
        0,
        0,
        0,
        0,
        0,
        0,
        0,
        0,
        24,
        0,
        0,
        0,
        0,
        0,
        0,
        0,
        0,
        0,
        0,
        0,
        0,
        0,
        0,
        0,
        0,
        0,
        0,
        7,
        8,
        0,
        0,
        0,
        0,
        0,
        0,
        0,
        0,
        0,
        0,
        0,
        0,
        0,
        0,
        0,
        0,
        0,
        7,
        7,
        0,
        0,
        0,
        0,
        0,
        0,
        0,
        0,
        0,
        0,
        0,
        0,
        0,
        0,
        0,
        0,
        0,
        0,
        0,
        0,
        7,
        0,
        0,
        0,
        0,
        0,
        0,
        0,
        0,
        0,
        0,
        0,
        0,
        0,
        0,
        0,
        0,
        0,
        0,
        0,
        0,
        0,
        0,
        0,
        0,
        0,
        0,
        0,
        0,
        0,
        0,
        0,
        0,
        0,
        0,
        0,
        0,
        0,
        0,
        0,
        0,
        0,
        0,
        0,
        0,
        0,
        0,
        0,
        0,
        0,
        0,
        0,
        0,
        0,
        0,
        0,
        0,
        0,
        0,
        0,
        0,
        0,
        0,
        0,
        0,
        0,
        24,
        0,
        0,
        0,
        0,
        0,
        0,
        0,
        0,
        0,
        8,
        0,
        8,
        8,
        0,
        0,
        0,
        0,
        0,
        8,
        7,
        0,
        0,
        0,
        0,
        0,
        0,
        0,
        0,
        0,
        0,
        0,
        0,
        0,
        0,
        0,
        0,
        7,
        7,
        0,
        0,
        0,
        0,
        0,
        0,
        0,
        0,
        0,
        0,
        0,
        0,
        0,
        0,
        0,
        0,
        0,
        0,
        7,
        7,
        0,
        0,
        0,
        0,
        0,
        0,
        0,
        0,
        0,
        0,
        0,
        0,
        0,
        0,
        0,
        0,
        0,
        0,
        0,
        0,
        0,
        0,
        0,
        0,
        0,
        0,
        0,
        0,
        0,
        0,
        0,
        0,
        0,
        0,
        0,
        0,
        0,
        0,
        0,
        0,
        0,
        0,
        0,
        0,
        0,
        0,
        0,
        0,
        0,
        0,
        0,
        0,
        0,
        0,
        0,
        0,
        0,
        0,
        0,
        0,
        0,
        18,
        18,
        18,
        0,
        0,
        0,
        24,
        0,
        0,
        0,
        0,
        0,
        0,
        0,
        0,
        0,
        0,
        0,
        0,
        0,
        0,
        0,
        0,
        0,
        0,
        7,
        7,
        0,
        0,
        0,
        0,
        0,
        0,
        0,
        0,
        0,
        0,
        0,
        0,
        0,
        0,
        0,
        0,
        7,
        8,
        0,
        0,
        0,
        0,
        0,
        0,
        0,
        0,
        0,
        0,
        0,
        0,
        0,
        0,
        0,
        0,
        0,
        7,
        0,
        0,
        7,
        0,
        0,
        0,
        0,
        0,
        0,
        0,
        0,
        0,
        0,
        0,
        0,
        0,
        0,
        0,
        0,
        0,
        0,
        0,
        0,
        0,
        0,
        0,
        0,
        0,
        0,
        0,
        0,
        0,
        0,
        0,
        0,
        0,
        0,
        0,
        0,
        0,
        0,
        0,
        0,
        0,
        0,
        0,
        0,
        0,
        0,
        0,
        0,
        0,
        0,
        0,
        0,
        0,
        0,
        0,
        0,
        0,
        0,
        0,
        0,
        18,
        18,
        18,
        0,
        0,
        0,
        24,
        0,
        0,
        0,
        0,
        0,
        0,
        0,
        8,
        0,
        0,
        0,
        0,
        0,
        0,
        0,
        0,
        0,
        8,
        7,
        8,
        0,
        0,
        0,
        0,
        0,
        0,
        0,
        0,
        0,
        0,
        0,
        0,
        0,
        0,
        0,
        7,
        8,
        0,
        0,
        0,
        0,
        0,
        0,
        0,
        0,
        0,
        0,
        0,
        7,
        0,
        0,
        0,
        0,
        0,
        0,
        0,
        7,
        0,
        0,
        0,
        0,
        0,
        0,
        0,
        0,
        0,
        0,
        0,
        0,
        0,
        0,
        0,
        0,
        0,
        0,
        0,
        0,
        0,
        0,
        0,
        0,
        0,
        0,
        0,
        0,
        0,
        0,
        0,
        0,
        0,
        0,
        0,
        0,
        0,
        0,
        0,
        0,
        0,
        0,
        0,
        0,
        0,
        0,
        0,
        0,
        0,
        0,
        0,
        0,
        0,
        0,
        0,
        0,
        0,
        0,
        0,
        0,
        0,
        0,
        18,
        18,
        18,
        0,
        0,
        0,
        24,
        0,
        0,
        0,
        0,
        0,
        0,
        0,
        0,
        0,
        0,
        0,
        0,
        0,
        0,
        0,
        0,
        0,
        0,
        8,
        7,
        0,
        0,
        0,
        0,
        0,
        0,
        0,
        0,
        0,
        0,
        0,
        0,
        0,
        0,
        0,
        8,
        7,
        0,
        0,
        0,
        0,
        0,
        0,
        0,
        7,
        0,
        0,
        0,
        0,
        0,
        0,
        0,
        0,
        0,
        0,
        0,
        0,
        0,
        0,
        0,
        0,
        0,
        0,
        7,
        0,
        0,
        0,
        0,
        0,
        0,
        0,
        0,
        0,
        0,
        0,
        0,
        0,
        0,
        0,
        0,
        0,
        0,
        0,
        0,
        0,
        0,
        0,
        0,
        0,
        0,
        0,
        0,
        0,
        0,
        0,
        0,
        0,
        0,
        0,
        0,
        0,
        0,
        0,
        27,
        27,
        27,
        27,
        27,
        27,
        0,
        0,
        0,
        0,
        0,
        0,
        0,
        0,
        0,
        0,
        0,
        0,
        0,
        0,
        0,
        0,
        24,
        0,
        0,
        0,
        0,
        0,
        0,
        0,
        0,
        0,
        20,
        20,
        20,
        0,
        0,
        0,
        0,
        0,
        0,
        7,
        7,
        0,
        0,
        0,
        0,
        0,
        0,
        0,
        0,
        0,
        0,
        0,
        0,
        0,
        0,
        0,
        7,
        7,
        0,
        0,
        0,
        0,
        0,
        0,
        0,
        0,
        0,
        0,
        0,
        0,
        0,
        0,
        0,
        0,
        0,
        0,
        0,
        0,
        0,
        0,
        0,
        0,
        0,
        0,
        0,
        0,
        0,
        0,
        0,
        0,
        0,
        0,
        0,
        0,
        0,
        0,
        0,
        0,
        0,
        0,
        0,
        0,
        0,
        0,
        0,
        0,
        0,
        0,
        0,
        0,
        0,
        0,
        0,
        0,
        0,
        0,
        0,
        0,
        0,
        0,
        0,
        0,
        0,
        0,
        27,
        27,
        27,
        27,
        27,
        27,
        0,
        0,
        0,
        0,
        0,
        0,
        0,
        0,
        0,
        0,
        0,
        0,
        0,
        0,
        0,
        0,
        24,
        0,
        0,
        0,
        0,
        0,
        0,
        0,
        0,
        0,
        20,
        20,
        20,
        0,
        0,
        8,
        0,
        0,
        8,
        7,
        8,
        0,
        0,
        0,
        0,
        0,
        0,
        0,
        0,
        0,
        0,
        0,
        0,
        0,
        0,
        0,
        7,
        8,
        0,
        0,
        0,
        0,
        0,
        0,
        0,
        0,
        0,
        0,
        0,
        0,
        0,
        0,
        0,
        0,
        0,
        0,
        0,
        0,
        0,
        0,
        0,
        0,
        7,
        0,
        0,
        0,
        0,
        0,
        0,
        0,
        0,
        0,
        0,
        0,
        0,
        0,
        0,
        0,
        0,
        0,
        0,
        0,
        0,
        0,
        0,
        0,
        0,
        0,
        0,
        0,
        0,
        0,
        0,
        0,
        0,
        0,
        0,
        0,
        0,
        0,
        0,
        0,
        0,
        0,
        27,
        27,
        27,
        27,
        27,
        27,
        0,
        0,
        0,
        0,
        0,
        0,
        0,
        0,
        0,
        0,
        0,
        0,
        0,
        0,
        0,
        0,
        24,
        0,
        0,
        0,
        0,
        0,
        0,
        0,
        0,
        0,
        20,
        20,
        20,
        0,
        8,
        0,
        0,
        0,
        0,
        8,
        7,
        0,
        0,
        0,
        0,
        0,
        0,
        0,
        0,
        0,
        0,
        0,
        0,
        0,
        0,
        7,
        8,
        0,
        0,
        0,
        0,
        0,
        0,
        0,
        0,
        0,
        0,
        0,
        0,
        0,
        0,
        0,
        0,
        0,
        0,
        0,
        0,
        0,
        0,
        0,
        0,
        0,
        0,
        0,
        0,
        0,
        0,
        0,
        0,
        0,
        0,
        0,
        0,
        0,
        0,
        0,
        0,
        0,
        0,
        0,
        0,
        0,
        0,
        0,
        0,
        0,
        0,
        0,
        0,
        0,
        0,
        0,
        0,
        0,
        0,
        0,
        0,
        0,
        0,
        0,
        0,
        0,
        0,
        0,
        27,
        27,
        27,
        27,
        27,
        27,
        0,
        0,
        0,
        0,
        0,
        0,
        0,
        0,
        0,
        0,
        0,
        0,
        0,
        0,
        0,
        0,
        24,
        0,
        0,
        0,
        0,
        0,
        0,
        0,
        0,
        0,
        0,
        0,
        0,
        0,
        0,
        0,
        0,
        0,
        0,
        7,
        7,
        0,
        0,
        0,
        0,
        0,
        0,
        0,
        0,
        0,
        0,
        0,
        0,
        0,
        0,
        8,
        7,
        0,
        0,
        0,
        0,
        0,
        0,
        0,
        0,
        0,
        0,
        7,
        0,
        0,
        0,
        0,
        0,
        0,
        0,
        0,
        0,
        0,
        0,
        0,
        0,
        0,
        0,
        0,
        0,
        7,
        0,
        0,
        0,
        0,
        0,
        0,
        0,
        0,
        0,
        0,
        0,
        0,
        0,
        0,
        0,
        0,
        0,
        0,
        0,
        0,
        0,
        0,
        0,
        0,
        0,
        0,
        0,
        0,
        0,
        0,
        0,
        0,
        0,
        0,
        0,
        0,
        0,
        0,
        27,
        27,
        27,
        27,
        27,
        27,
        0,
        0,
        0,
        0,
        0,
        0,
        0,
        0,
        0,
        0,
        0,
        0,
        0,
        0,
        0,
        0,
        24,
        8,
        0,
        0,
        0,
        0,
        0,
        0,
        0,
        0,
        0,
        0,
        0,
        0,
        0,
        0,
        0,
        0,
        0,
        7,
        8,
        0,
        0,
        0,
        0,
        0,
        0,
        0,
        0,
        0,
        0,
        0,
        0,
        0,
        8,
        7,
        0,
        0,
        0,
        0,
        0,
        0,
        0,
        7,
        0,
        0,
        0,
        0,
        0,
        0,
        0,
        0,
        7,
        0,
        0,
        0,
        0,
        0,
        0,
        0,
        0,
        0,
        0,
        0,
        0,
        0,
        0,
        0,
        0,
        0,
        0,
        0,
        0,
        0,
        0,
        0,
        0,
        0,
        0,
        0,
        0,
        0,
        0,
        0,
        0,
        0,
        0,
        0,
        0,
        0,
        0,
        0,
        0,
        0,
        0,
        0,
        0,
        0,
        0,
        0,
        0,
        0,
        0,
        0,
        27,
        27,
        27,
        27,
        27,
        27,
        0,
        0,
        0,
        0,
        0,
        0,
        0,
        0,
        0,
        0,
        0,
        0,
        0,
        0,
        0,
        0,
        24,
        0,
        0,
        0,
        0,
        0,
        0,
        0,
        0,
        0,
        0,
        0,
        0,
        0,
        0,
        0,
        0,
        0,
        0,
        8,
        7,
        0,
        0,
        0,
        0,
        0,
        0,
        0,
        0,
        0,
        0,
        0,
        0,
        0,
        7,
        7,
        0,
        0,
        0,
        0,
        0,
        0,
        0,
        0,
        0,
        0,
        0,
        0,
        0,
        0,
        0,
        0,
        0,
        0,
        0,
        0,
        0,
        0,
        0,
        0,
        0,
        0,
        0,
        0,
        0,
        0,
        0,
        0,
        0,
        0,
        0,
        0,
        0,
        0,
        0,
        0,
        0,
        0,
        0,
        0,
        0,
        0,
        0,
        0,
        0,
        0,
        0,
        0,
        0,
        0,
        0,
        0,
        0,
        0,
        0,
        0,
        0,
        0,
        0,
        0,
        0,
        0,
        0,
        0,
        0,
        0,
        0,
        0,
        0,
        0,
        0,
        0,
        0,
        0,
        0,
        0,
        0,
        0,
        0,
        0,
        0,
        0,
        0,
        0,
        0,
        0,
        24,
        0,
        0,
        0,
        0,
        0,
        0,
        0,
        0,
        0,
        8,
        8,
        0,
        0,
        0,
        0,
        0,
        0,
        0,
        7,
        7,
        0,
        0,
        0,
        0,
        0,
        0,
        0,
        0,
        0,
        0,
        0,
        0,
        0,
        7,
        8,
        0,
        0,
        0,
        0,
        0,
        0,
        0,
        0,
        0,
        0,
        0,
        0,
        0,
        0,
        0,
        0,
        0,
        0,
        0,
        0,
        7,
        7,
        0,
        0,
        0,
        0,
        0,
        0,
        0,
        0,
        0,
        0,
        0,
        0,
        0,
        0,
        0,
        0,
        0,
        0,
        0,
        0,
        0,
        0,
        0,
        0,
        0,
        0,
        0,
        0,
        0,
        0,
        0,
        0,
        0,
        0,
        0,
        0,
        0,
        0,
        0,
        0,
        0,
        0,
        0,
        0,
        0,
        0,
        0,
        0,
        0,
        0,
        0,
        0,
        0,
        0,
        0,
        0,
        0,
        0,
        0,
        0,
        0,
        0,
        0,
        0,
        0,
        0,
        0,
        0,
        24,
        0,
        0,
        0,
        0,
        0,
        0,
        0,
        0,
        0,
        0,
        0,
        0,
        0,
        0,
        0,
        0,
        0,
        0,
        7,
        8,
        0,
        0,
        0,
        0,
        0,
        0,
        0,
        0,
        0,
        0,
        0,
        0,
        0,
        8,
        7,
        0,
        0,
        0,
        0,
        0,
        0,
        0,
        0,
        0,
        0,
        7,
        0,
        0,
        0,
        0,
        0,
        0,
        0,
        0,
        0,
        7,
        0,
        0,
        0,
        0,
        0,
        0,
        0,
        0,
        0,
        0,
        0,
        0,
        0,
        0,
        0,
        0,
        0,
        0,
        0,
        0,
        0,
        0,
        0,
        0,
        0,
        0,
        0,
        0,
        0,
        0,
        0,
        0,
        0,
        0,
        0,
        0,
        0,
        0,
        0,
        0,
        0,
        0,
        0,
        0,
        0,
        0,
        0,
        0,
        0,
        0,
        0,
        0,
        0,
        0,
        0,
        0,
        0,
        0,
        0,
        0,
        0,
        0,
        0,
        0,
        0,
        0,
        0,
        0,
        0,
        24,
        0,
        0,
        0,
        0,
        0,
        0,
        0,
        0,
        0,
        0,
        0,
        0,
        0,
        0,
        0,
        0,
        0,
        0,
        8,
        7,
        0,
        0,
        0,
        0,
        0,
        0,
        0,
        0,
        0,
        0,
        0,
        0,
        0,
        7,
        7,
        0,
        0,
        0,
        0,
        0,
        0,
        0,
        0,
        0,
        0,
        0,
        0,
        0,
        0,
        7,
        0,
        0,
        0,
        0,
        0,
        0,
        0,
        0,
        0,
        0,
        0,
        0,
        0,
        0,
        7,
        0,
        0,
        0,
        0,
        0,
        0,
        0,
        0,
        0,
        0,
        0,
        0,
        0,
        0,
        0,
        0,
        0,
        0,
        0,
        0,
        0,
        0,
        0,
        0,
        0,
        0,
        0,
        0,
        0,
        0,
        0,
        0,
        0,
        0,
        0,
        0,
        0,
        0,
        0,
        0,
        0,
        0,
        0,
        0,
        0,
        0,
        0,
        0,
        0,
        0,
        0,
        0,
        0,
        0,
        0,
        0,
        0,
        0,
        0,
        0,
        24,
        8,
        0,
        0,
        0,
        0,
        0,
        0,
        0,
        0,
        0,
        0,
        8,
        0,
        0,
        0,
        8,
        0,
        8,
        7,
        0,
        0,
        0,
        0,
        0,
        0,
        0,
        0,
        0,
        0,
        0,
        0,
        0,
        0,
        7,
        8,
        0,
        0,
        0,
        7,
        0,
        0,
        0,
        0,
        0,
        0,
        0,
        0,
        0,
        0,
        0,
        0,
        0,
        0,
        0,
        0,
        0,
        0,
        0,
        0,
        0,
        0,
        0,
        0,
        0,
        0,
        0,
        0,
        0,
        0,
        0,
        0,
        0,
        0,
        0,
        0,
        0,
        0,
        0,
        0,
        0,
        0,
        0,
        0,
        0,
        0,
        0,
        0,
        0,
        0,
        0,
        0,
        0,
        0,
        0,
        0,
        0,
        0,
        0,
        0,
        0,
        0,
        0,
        0,
        0,
        0,
        0,
        0,
        0,
        0,
        0,
        0,
        0,
        0,
        0,
        0,
        0,
        0,
        0,
        0,
        0,
        0,
        0,
        0,
        0,
        0,
        24,
        0,
        0,
        0,
        0,
        0,
        0,
        0,
        0,
        0,
        0,
        0,
        0,
        8,
        0,
        0,
        0,
        0,
        7,
        7,
        0,
        0,
        0,
        0,
        0,
        0,
        0,
        0,
        0,
        0,
        0,
        0,
        0,
        0,
        8,
        7,
        0,
        0,
        0,
        0,
        0,
        0,
        0,
        0,
        0,
        0,
        0,
        0,
        0,
        0,
        0,
        0,
        0,
        7,
        0,
        0,
        0,
        0,
        0,
        0,
        0,
        0,
        0,
        0,
        0,
        0,
        7,
        0,
        0,
        0,
        0,
        0,
        0,
        0,
        0,
        0,
        0,
        0,
        0,
        0,
        0,
        0,
        0,
        0,
        0,
        0,
        0,
        0,
        0,
        0,
        0,
        0,
        0,
        0,
        0,
        0,
        0,
        0,
        0,
        0,
        0,
        0,
        0,
        0,
        0,
        0,
        0,
        0,
        0,
        0,
        0,
        0,
        0,
        0,
        0,
        0,
        0,
        0,
        0,
        0,
        0,
        0,
        0,
        0,
        0,
        0,
        24,
        0,
        0,
        0,
        0,
        8,
        0,
        0,
        0,
        0,
        0,
        0,
        0,
        0,
        0,
        0,
        0,
        0,
        7,
        8,
        0,
        0,
        0,
        0,
        0,
        0,
        0,
        0,
        0,
        0,
        0,
        0,
        0,
        0,
        7,
        7,
        0,
        0,
        0,
        0,
        0,
        0,
        0,
        0,
        0,
        0,
        0,
        0,
        0,
        0,
        0,
        0,
        7,
        0,
        0,
        0,
        0,
        0,
        0,
        0,
        0,
        0,
        0,
        0,
        7,
        0,
        0,
        0,
        0,
        0,
        0,
        0,
        0,
        0,
        0,
        0,
        0,
        0,
        0,
        0,
        0,
        0,
        0,
        0,
        0,
        0,
        0,
        0,
        0,
        0,
        0,
        0,
        0,
        0,
        0,
        0,
        0,
        0,
        0,
        0,
        0,
        0,
        0,
        0,
        0,
        0,
        0,
        0,
        0,
        0,
        0,
        0,
        0,
        0,
        0,
        0,
        0,
        0,
        0,
        0,
        0,
        0,
        0,
        0,
        0,
        0,
        24,
        0,
        0,
        0,
        0,
        0,
        0,
        0,
        0,
        0,
        0,
        0,
        0,
        0,
        0,
        0,
        0,
        0,
        8,
        7,
        0,
        0,
        0,
        0,
        0,
        0,
        0,
        0,
        0,
        0,
        0,
        0,
        0,
        0,
        7,
        8,
        0,
        0,
        0,
        0,
        0,
        0,
        0,
        0,
        0,
        0,
        0,
        0,
        0,
        0,
        0,
        0,
        0,
        0,
        0,
        0,
        0,
        0,
        0,
        0,
        0,
        0,
        0,
        0,
        0,
        0,
        0,
        0,
        0,
        0,
        0,
        0,
        0,
        0,
        0,
        0,
        0,
        0,
        0,
        0,
        0,
        0,
        0,
        0,
        0,
        0,
        0,
        0,
        0,
        0,
        0,
        0,
        0,
        0,
        0,
        0,
        0,
        0,
        0,
        0,
        0,
        0,
        0,
        0,
        0,
        0,
        0,
        0,
        0,
        0,
        0,
        0,
        0,
        0,
        0,
        0,
        0,
        0,
        0,
        0,
        0,
        0,
        0,
        0,
        0,
        0,
        0,
        0,
        0,
        8,
        0,
        0,
        0,
        0,
        0,
        0,
        0,
        0,
        8,
        0,
        0,
        0,
        0,
        0,
        7,
        7,
        0,
        0,
        0,
        0,
        0,
        0,
        0,
        0,
        0,
        0,
        0,
        0,
        0,
        0,
        0,
        7,
        7,
        0,
        7,
        0,
        0,
        0,
        0,
        0,
        0,
        0,
        0,
        0,
        0,
        0,
        0,
        0,
        0,
        0,
        0,
        0,
        0,
        0,
        0,
        0,
        0,
        0,
        0,
        0,
        0,
        0,
        0,
        0,
        0,
        0,
        0,
        0,
        0,
        0,
        0,
        0,
        0,
        0,
        0,
        0,
        0,
        0,
        0,
        0,
        0,
        0,
        0,
        0,
        0,
        0,
        0,
        0,
        0,
        0,
        0,
        0,
        0,
        0,
        0,
        0,
        0,
        0,
        0,
        0,
        0,
        0,
        0,
        0,
        0,
        0,
        0,
        0,
        0,
        0,
        0,
        0,
        0,
        0,
        0,
        0,
        0,
        0,
        0,
        0,
        0,
        0,
        24,
        0,
        0,
        0,
        0,
        0,
        0,
        0,
        0,
        8,
        0,
        0,
        0,
        0,
        0,
        0,
        0,
        0,
        7,
        8,
        0,
        0,
        0,
        0,
        0,
        0,
        0,
        0,
        0,
        0,
        0,
        0,
        0,
        0,
        0,
        7,
        8,
        0,
        0,
        0,
        0,
        0,
        0,
        0,
        0,
        0,
        0,
        0,
        0,
        0,
        0,
        0,
        0,
        7,
        0,
        0,
        0,
        0,
        0,
        0,
        0,
        7,
        0,
        0,
        0,
        0,
        7,
        0,
        0,
        0,
        0,
        0,
        0,
        0,
        0,
        0,
        0,
        0,
        0,
        0,
        0,
        0,
        0,
        0,
        0,
        0,
        0,
        0,
        0,
        0,
        0,
        0,
        0,
        0,
        0,
        0,
        0,
        0,
        0,
        0,
        0,
        0,
        0,
        0,
        0,
        0,
        0,
        0,
        0,
        0,
        0,
        0,
        0,
        0,
        0,
        0,
        0,
        0,
        0,
        0,
        0,
        0,
        0,
        0,
        0,
        0,
        24,
        0,
        0,
        0,
        0,
        0,
        0,
        0,
        0,
        8,
        0,
        0,
        0,
        0,
        0,
        0,
        0,
        8,
        8,
        7,
        0,
        0,
        0,
        0,
        0,
        0,
        0,
        0,
        0,
        0,
        0,
        0,
        0,
        0,
        0,
        0,
        7,
        7,
        0,
        0,
        0,
        0,
        0,
        0,
        7,
        0,
        0,
        0,
        0,
        0,
        0,
        0,
        0,
        0,
        0,
        7,
        0,
        0,
        0,
        0,
        0,
        0,
        0,
        0,
        7,
        0,
        0,
        7,
        0,
        0,
        0,
        0,
        0,
        0,
        0,
        0,
        0,
        0,
        0,
        0,
        0,
        0,
        0,
        0,
        0,
        0,
        0,
        0,
        0,
        0,
        0,
        0,
        0,
        0,
        0,
        0,
        0,
        0,
        0,
        0,
        0,
        0,
        0,
        0,
        0,
        0,
        0,
        0,
        0,
        0,
        0,
        0,
        0,
        0,
        0,
        0,
        0,
        0,
        0,
        0,
        0,
        0,
        0,
        0,
        0,
        0,
        24,
        0,
        0,
        0,
        0,
        0,
        0,
        0,
        0,
        0,
        0,
        0,
        0,
        0,
        0,
        0,
        0,
        0,
        7,
        7,
        0,
        0,
        0,
        0,
        0,
        0,
        0,
        0,
        0,
        0,
        0,
        0,
        0,
        0,
        0,
        0,
        7,
        8,
        0,
        0,
        0,
        0,
        0,
        0,
        0,
        0,
        0,
        0,
        0,
        0,
        0,
        0,
        0,
        0,
        0,
        0,
        0,
        0,
        0,
        0,
        0,
        0,
        0,
        0,
        0,
        0,
        0,
        0,
        0,
        0,
        0,
        0,
        0,
        0,
        0,
        0,
        0,
        0,
        0,
        0,
        0,
        0,
        0,
        0,
        0,
        0,
        0,
        0,
        0,
        0,
        0,
        0,
        0,
        0,
        0,
        0,
        0,
        0,
        0,
        0,
        0,
        0,
        0,
        0,
        0,
        0,
        0,
        0,
        0,
        0,
        0,
        0,
        0,
        0,
        0,
        0,
        0,
        0,
        0,
        0,
        0,
        0,
        0,
        0,
        0,
        0,
        24,
        0,
        0,
        0,
        0,
        0,
        0,
        0,
        0,
        0,
        0,
        0,
        0,
        0,
        0,
        0,
        0,
        7,
        7,
        0,
        0,
        0,
        0,
        0,
        0,
        0,
        0,
        0,
        0,
        0,
        0,
        0,
        0,
        0,
        0,
        0,
        8,
        7,
        0,
        0,
        0,
        0,
        0,
        0,
        0,
        0,
        0,
        0,
        0,
        0,
        0,
        0,
        0,
        0,
        0,
        0,
        0,
        0,
        0,
        0,
        0,
        0,
        0,
        0,
        0,
        0,
        0,
        0,
        0,
        0,
        0,
        7,
        0,
        0,
        0,
        0,
        0,
        7,
        0,
        0,
        0,
        0,
        0,
        0,
        0,
        0,
        0,
        0,
        0,
        0,
        0,
        0,
        0,
        0,
        0,
        0,
        0,
        0,
        0,
        0,
        0,
        0,
        0,
        0,
        0,
        0,
        0,
        0,
        0,
        0,
        0,
        0,
        0,
        0,
        0,
        0,
        0,
        0,
        0,
        0,
        0,
        0,
        0,
        0,
        0,
        0,
        24,
        0,
        0,
        0,
        0,
        0,
        0,
        0,
        0,
        0,
        0,
        0,
        0,
        0,
        0,
        0,
        0,
        7,
        8,
        0,
        0,
        0,
        0,
        0,
        0,
        0,
        0,
        0,
        0,
        0,
        0,
        0,
        0,
        0,
        0,
        0,
        0,
        7,
        8,
        0,
        0,
        0,
        0,
        0,
        0,
        0,
        0,
        0,
        0,
        0,
        0,
        0,
        0,
        0,
        0,
        0,
        0,
        0,
        0,
        0,
        0,
        0,
        0,
        0,
        0,
        0,
        0,
        0,
        0,
        0,
        0,
        0,
        0,
        0,
        0,
        0,
        0,
        0,
        0,
        0,
        0,
        0,
        0,
        0,
        0,
        0,
        0,
        0,
        0,
        0,
        0,
        0,
        0,
        0,
        0,
        0,
        0,
        0,
        0,
        0,
        0,
        0,
        0,
        0,
        0,
        0,
        0,
        0,
        0,
        0,
        0,
        0,
        0,
        0,
        0,
        0,
        0,
        0,
        0,
        0,
        0,
        0,
        0,
        0,
        7,
        0,
        24,
        0,
        0,
        0,
        0,
        0,
        0,
        0,
        8,
        8,
        0,
        0,
        0,
        0,
        0,
        0,
        8,
        8,
        7,
        0,
        0,
        0,
        0,
        0,
        0,
        0,
        0,
        0,
        0,
        0,
        0,
        0,
        0,
        0,
        0,
        0,
        0,
        8,
        7,
        0,
        0,
        0,
        0,
        0,
        0,
        0,
        0,
        0,
        0,
        0,
        0,
        0,
        0,
        0,
        0,
        0,
        0,
        0,
        0,
        0,
        0,
        0,
        0,
        0,
        7,
        0,
        0,
        0,
        0,
        0,
        0,
        0,
        0,
        0,
        0,
        0,
        0,
        0,
        0,
        0,
        0,
        0,
        0,
        0,
        0,
        0,
        0,
        0,
        0,
        0,
        0,
        0,
        0,
        0,
        0,
        0,
        0,
        0,
        0,
        0,
        0,
        7,
        0,
        0,
        0,
        0,
        0,
        0,
        7,
        0,
        0,
        0,
        0,
        0,
        0,
        0,
        0,
        0,
        0,
        0,
        0,
        0,
        0,
        0,
        0,
        7,
        24,
        0,
        0,
        0,
        8,
        0,
        0,
        0,
        0,
        0,
        8,
        0,
        0,
        0,
        0,
        0,
        0,
        7,
        7,
        0,
        0,
        0,
        0,
        0,
        0,
        0,
        0,
        0,
        0,
        0,
        0,
        0,
        0,
        0,
        0,
        0,
        0,
        0,
        7,
        8,
        0,
        7,
        0,
        0,
        0,
        0,
        0,
        0,
        0,
        0,
        0,
        0,
        0,
        7,
        0,
        0,
        0,
        0,
        0,
        0,
        0,
        0,
        0,
        0,
        0,
        0,
        0,
        0,
        0,
        0,
        0,
        0,
        0,
        0,
        0,
        0,
        0,
        0,
        0,
        0,
        0,
        0,
        0,
        0,
        0,
        0,
        0,
        0,
        0,
        0,
        0,
        0,
        0,
        0,
        0,
        0,
        0,
        0,
        0,
        0,
        0,
        0,
        0,
        0,
        0,
        0,
        0,
        0,
        0,
        0,
        0,
        0,
        0,
        0,
        0,
        0,
        0,
        0,
        0,
        0,
        0,
        0,
        0,
        0,
        0,
        0,
        24,
        0,
        0,
        0,
        0,
        0,
        0,
        0,
        8,
        0,
        0,
        0,
        0,
        0,
        0,
        0,
        0,
        7,
        8,
        0,
        0,
        0,
        0,
        0,
        0,
        0,
        0,
        0,
        0,
        0,
        0,
        0,
        0,
        0,
        0,
        0,
        0,
        0,
        8,
        7,
        0,
        0,
        0,
        0,
        0,
        0,
        0,
        0,
        0,
        0,
        0,
        0,
        7,
        0,
        0,
        0,
        0,
        0,
        0,
        0,
        0,
        0,
        0,
        0,
        0,
        0,
        0,
        0,
        0,
        0,
        0,
        0,
        0,
        0,
        0,
        0,
        7,
        0,
        7,
        0,
        0,
        0,
        7,
        0,
        0,
        0,
        0,
        0,
        0,
        0,
        0,
        0,
        0,
        0,
        0,
        0,
        0,
        7,
        0,
        0,
        0,
        7,
        0,
        0,
        0,
        0,
        0,
        0,
        0,
        0,
        0,
        0,
        0,
        0,
        0,
        0,
        0,
        0,
        0,
        0,
        0,
        0,
        0,
        0,
        0,
        0,
        24,
        8,
        0,
        0,
        0,
        0,
        0,
        0,
        0,
        0,
        0,
        0,
        0,
        0,
        0,
        0,
        0,
        8,
        7,
        0,
        0,
        0,
        0,
        0,
        0,
        0,
        0,
        0,
        0,
        0,
        0,
        0,
        0,
        0,
        0,
        0,
        0,
        0,
        7,
        7,
        0,
        0,
        0,
        0,
        0,
        0,
        0,
        0,
        0,
        0,
        0,
        0,
        0,
        0,
        0,
        7,
        7,
        0,
        0,
        7,
        0,
        0,
        0,
        0,
        0,
        0,
        0,
        0,
        0,
        0,
        0,
        0,
        0,
        0,
        0,
        0,
        0,
        0,
        0,
        0,
        0,
        0,
        0,
        0,
        0,
        0,
        0,
        0,
        0,
        0,
        0,
        0,
        0,
        0,
        0,
        0,
        0,
        0,
        0,
        7,
        7,
        0,
        0,
        7,
        0,
        0,
        0,
        7,
        0,
        0,
        0,
        0,
        0,
        0,
        0,
        0,
        0,
        0,
        0,
        0,
        0,
        0,
        0,
        0,
        0,
        0,
        24,
        0,
        0,
        0,
        8,
        0,
        0,
        0,
        0,
        0,
        0,
        0,
        0,
        8,
        0,
        0,
        0,
        7,
        7,
        0,
        0,
        0,
        0,
        0,
        0,
        0,
        0,
        0,
        0,
        0,
        0,
        0,
        0,
        0,
        0,
        0,
        0,
        0,
        7,
        8,
        0,
        0,
        0,
        7,
        0,
        0,
        0,
        0,
        7,
        0,
        0,
        0,
        0,
        0,
        0,
        0,
        0,
        0,
        0,
        0,
        0,
        0,
        0,
        0,
        0,
        0,
        7,
        0,
        0,
        0,
        7,
        0,
        0,
        0,
        0,
        0,
        0,
        0,
        0,
        0,
        0,
        0,
        0,
        0,
        0,
        0,
        0,
        0,
        0,
        0,
        0,
        0,
        0,
        0,
        0,
        0,
        0,
        0,
        0,
        7,
        0,
        0,
        0,
        0,
        0,
        0,
        0,
        0,
        0,
        0,
        0,
        0,
        0,
        0,
        0,
        0,
        0,
        7,
        0,
        0,
        7,
        0,
        0,
        0,
        0,
        0,
        24,
        0,
        0,
        0,
        0,
        0,
        0,
        0,
        8,
        0,
        0,
        0,
        0,
        0,
        0,
        0,
        0,
        7,
        8,
        0,
        0,
        0,
        0,
        0,
        0,
        0,
        0,
        0,
        0,
        0,
        0,
        0,
        0,
        0,
        0,
        0,
        0,
        0,
        8,
        7,
        0,
        7,
        0,
        0,
        0,
        0,
        0,
        0,
        0,
        0,
        0,
        0,
        0,
        0,
        0,
        0,
        0,
        0,
        0,
        0,
        0,
        0,
        0,
        0,
        7,
        0,
        0,
        0,
        0,
        0,
        0,
        0,
        0,
        0,
        0,
        0,
        0,
        0,
        0,
        0,
        0,
        0,
        0,
        0,
        0,
        0,
        0,
        0,
        0,
        0,
        0,
        0,
        0,
        0,
        0,
        0,
        0,
        0,
        0,
        0,
        0,
        0,
        0,
        0,
        0,
        0,
        0,
        0,
        0,
        0,
        0,
        0,
        0,
        0,
        0,
        0,
        0,
        0,
        0,
        0,
        0,
        0,
        0,
        0,
        0,
        7,
        24,
        0,
        0,
        0,
        0,
        0,
        0,
        0,
        0,
        0,
        0,
        0,
        0,
        0,
        0,
        0,
        0,
        8,
        7,
        0,
        0,
        0,
        0,
        0,
        0,
        0,
        0,
        0,
        0,
        0,
        0,
        0,
        0,
        0,
        0,
        0,
        0,
        0,
        7,
        7,
        0,
        0,
        0,
        0,
        0,
        0,
        0,
        7,
        0,
        0,
        0,
        0,
        0,
        0,
        0,
        0,
        0,
        0,
        0,
        7,
        0,
        0,
        0,
        0,
        0,
        0,
        0,
        0,
        0,
        0,
        0,
        0,
        0,
        0,
        7,
        0,
        0,
        0,
        0,
        0,
        0,
        0,
        0,
        0,
        0,
        0,
        0,
        0,
        0,
        0,
        0,
        0,
        0,
        0,
        0,
        0,
        0,
        0,
        0,
        0,
        0,
        0,
        0,
        0,
        0,
        0,
        0,
        0,
        0,
        0,
        0,
        0,
        0,
        0,
        0,
        0,
        0,
        7,
        0,
        0,
        0,
        0,
        0,
        0,
        0,
        0,
        24,
        0,
        0,
        0,
        0,
        0,
        0,
        0,
        0,
        0,
        0,
        0,
        0,
        0,
        0,
        0,
        0,
        7,
        7,
        0,
        0,
        0,
        0,
        0,
        0,
        0,
        0,
        0,
        0,
        0,
        0,
        0,
        0,
        0,
        0,
        0,
        0,
        0,
        7,
        8,
        0,
        0,
        0,
        0,
        0,
        0,
        0,
        0,
        0,
        0,
        0,
        0,
        0,
        7,
        0,
        0,
        0,
        0,
        0,
        0,
        0,
        0,
        0,
        0,
        0,
        0,
        0,
        0,
        0,
        0,
        0,
        0,
        0,
        0,
        0,
        7,
        0,
        0,
        0,
        0,
        0,
        0,
        0,
        0,
        0,
        0,
        0,
        0,
        0,
        0,
        0,
        0,
        0,
        0,
        0,
        0,
        0,
        0,
        0,
        0,
        0,
        0,
        0,
        0,
        0,
        0,
        0,
        0,
        0,
        0,
        0,
        0,
        0,
        0,
        0,
        0,
        7,
        0,
        0,
        0,
        0,
        0,
        0,
        0,
        0,
        0,
        0,
        0,
        0,
        0,
        0,
        0,
        0,
        0,
        0,
        0,
        0,
        0,
        0,
        0,
        0,
        0,
        0,
        7,
        8,
        0,
        0,
        0,
        0,
        0,
        0,
        0,
        0,
        0,
        0,
        0,
        0,
        0,
        0,
        0,
        0,
        0,
        0,
        0,
        8,
        7,
        0,
        0,
        0,
        0,
        0,
        0,
        0,
        0,
        0,
        0,
        0,
        0,
        0,
        0,
        0,
        0,
        0,
        0,
        0,
        0,
        0,
        0,
        0,
        0,
        0,
        0,
        0,
        0,
        0,
        0,
        0,
        0,
        0,
        0,
        0,
        0,
        0,
        0,
        0,
        0,
        0,
        0,
        0,
        0,
        0,
        0,
        0,
        0,
        0,
        7,
        0,
        0,
        0,
        0,
        0,
        0,
        0,
        0,
        0,
        0,
        0,
        0,
        0,
        0,
        0,
        0,
        0,
        0,
        0,
        0,
        0,
        0,
        0,
        0,
        0,
        0,
        0,
        0,
        0,
        0,
        0,
        0,
        0,
        0,
        0,
        0,
        0,
        0,
        0,
        0,
        0,
        0,
        0,
        8,
        8,
        8,
        0,
        0,
        0,
        0,
        0,
        0,
        0,
        8,
        7,
        0,
        0,
        0,
        0,
        0,
        0,
        0,
        0,
        0,
        0,
        0,
        0,
        0,
        0,
        0,
        0,
        0,
        0,
        0,
        7,
        7,
        0,
        0,
        0,
        0,
        0,
        0,
        0,
        0,
        0,
        7,
        0,
        0,
        0,
        0,
        0,
        0,
        0,
        0,
        0,
        0,
        0,
        0,
        0,
        0,
        0,
        0,
        0,
        0,
        0,
        7,
        0,
        0,
        0,
        0,
        0,
        0,
        0,
        0,
        0,
        0,
        0,
        0,
        0,
        0,
        0,
        0,
        0,
        0,
        0,
        0,
        0,
        0,
        0,
        0,
        7,
        0,
        0,
        0,
        0,
        0,
        0,
        0,
        0,
        0,
        0,
        0,
        0,
        0,
        0,
        0,
        0,
        0,
        0,
        0,
        0,
        0,
        7,
        0,
        0,
        0,
        7,
        0,
        0,
        0,
        0,
        0,
        0,
        0,
        0,
        0,
        0,
        8,
        0,
        0,
        0,
        0,
        0,
        8,
        0,
        0,
        0,
        0,
        0,
        7,
        7,
        0,
        0,
        0,
        0,
        0,
        0,
        0,
        0,
        0,
        0,
        0,
        0,
        0,
        0,
        0,
        0,
        0,
        0,
        7,
        7,
        0,
        0,
        0,
        0,
        0,
        0,
        0,
        0,
        7,
        0,
        0,
        0,
        0,
        0,
        0,
        0,
        0,
        0,
        7,
        0,
        0,
        0,
        0,
        0,
        0,
        0,
        0,
        0,
        0,
        0,
        7,
        0,
        0,
        0,
        0,
        0,
        0,
        7,
        0,
        0,
        0,
        0,
        0,
        0,
        0,
        7,
        0,
        0,
        0,
        0,
        0,
        0,
        0,
        0,
        0,
        0,
        0,
        0,
        0,
        0,
        0,
        0,
        0,
        0,
        0,
        7,
        0,
        0,
        0,
        0,
        0,
        0,
        0,
        0,
        0,
        0,
        0,
        0,
        0,
        0,
        0,
        0,
        0,
        0,
        0,
        0,
        0,
        0,
        0,
        0,
        0,
        0,
        0,
        0,
        0,
        0,
        0,
        8,
        0,
        0,
        0,
        8,
        0,
        0,
        7,
        8,
        0,
        0,
        0,
        0,
        0,
        0,
        0,
        0,
        0,
        0,
        0,
        0,
        0,
        0,
        0,
        0,
        0,
        0,
        7,
        8,
        0,
        0,
        0,
        0,
        0,
        0,
        0,
        0,
        0,
        0,
        0,
        0,
        0,
        0,
        0,
        0,
        0,
        0,
        0,
        0,
        0,
        0,
        0,
        0,
        0,
        0,
        0,
        0,
        0,
        0,
        0,
        0,
        0,
        0,
        0,
        0,
        0,
        0,
        0,
        0,
        0,
        0,
        0,
        0,
        0,
        7,
        0,
        0,
        0,
        0,
        0,
        0,
        0,
        0,
        0,
        0,
        0,
        0,
        0,
        0,
        0,
        0,
        0,
        0,
        0,
        0,
        0,
        0,
        0,
        0,
        0,
        0,
        0,
        0,
        0,
        0,
        0,
        0,
        0,
        0,
        0,
        0,
        0,
        0,
        0,
        0,
        0,
        0,
        0,
        0,
        0,
        0,
        0,
        0,
        0,
        0,
        0,
        0,
        0,
        0,
        0,
        0,
        0,
        0,
        8,
        7,
        0,
        0,
        0,
        0,
        0,
        0,
        0,
        0,
        0,
        0,
        0,
        0,
        0,
        0,
        0,
        0,
        0,
        7,
        8,
        0,
        0,
        0,
        0,
        0,
        0,
        7,
        0,
        0,
        0,
        0,
        0,
        0,
        0,
        0,
        0,
        0,
        0,
        0,
        0,
        0,
        0,
        0,
        0,
        0,
        0,
        0,
        0,
        0,
        0,
        0,
        0,
        0,
        0,
        0,
        0,
        0,
        0,
        0,
        0,
        0,
        0,
        0,
        0,
        0,
        0,
        0,
        7,
        0,
        0,
        0,
        0,
        0,
        0,
        0,
        0,
        0,
        0,
        0,
        0,
        0,
        0,
        0,
        0,
        0,
        0,
        0,
        0,
        0,
        0,
        0,
        0,
        0,
        0,
        0,
        0,
        0,
        0,
        7,
        0,
        7,
        0,
        0,
        0,
        0,
        0,
        0,
        0,
        0,
        0,
        0,
        0,
        0,
        0,
        0,
        0,
        0,
        0,
        0,
        0,
        0,
        0,
        8,
        0,
        0,
        7,
        7,
        0,
        0,
        0,
        0,
        0,
        0,
        0,
        0,
        0,
        0,
        0,
        0,
        0,
        0,
        0,
        0,
        0,
        8,
        7,
        0,
        0,
        0,
        0,
        0,
        0,
        0,
        0,
        0,
        0,
        0,
        0,
        0,
        0,
        7,
        0,
        0,
        0,
        0,
        0,
        0,
        0,
        0,
        0,
        0,
        0,
        0,
        0,
        0,
        0,
        0,
        7,
        0,
        0,
        0,
        0,
        0,
        0,
        0,
        0,
        0,
        0,
        0,
        0,
        0,
        0,
        0,
        0,
        0,
        0,
        0,
        0,
        0,
        0,
        0,
        0,
        0,
        0,
        0,
        0,
        0,
        0,
        0,
        0,
        0,
        0,
        0,
        7,
        0,
        0,
        0,
        0,
        0,
        0,
        0,
        0,
        0,
        0,
        0,
        0,
        0,
        0,
        0,
        0,
        0,
        7,
        0,
        0,
        0,
        0,
        0,
        0,
        8,
        0,
        0,
        0,
        0,
        0,
        0,
        0,
        0,
        0,
        0,
        0,
        0,
        0,
        8,
        7,
        0,
        0,
        0,
        0,
        0,
        0,
        0,
        0,
        0,
        0,
        0,
        0,
        0,
        0,
        0,
        0,
        7,
        7,
        0,
        0,
        0,
        0,
        7,
        0,
        0,
        0,
        0,
        0,
        7,
        0,
        0,
        0,
        0,
        0,
        0,
        0,
        0,
        0,
        0,
        0,
        0,
        0,
        0,
        0,
        0,
        0,
        0,
        0,
        0,
        7,
        0,
        0,
        0,
        0,
        0,
        0,
        0,
        0,
        0,
        0,
        0,
        0,
        0,
        0,
        0,
        0,
        0,
        0,
        0,
        0,
        0,
        0,
        0,
        0,
        0,
        0,
        0,
        0,
        0,
        0,
        0,
        0,
        0,
        0,
        0,
        0,
        0,
        0,
        0,
        0,
        0,
        0,
        0,
        0,
        0,
        0,
        0,
        0,
        0,
        0,
        0,
        0,
        0,
        0,
        0,
        0,
        0,
        0,
        0,
        8,
        0,
        0,
        0,
        0,
        0,
        0,
        0,
        0,
        0,
        0,
        0,
        0,
        0,
        0,
        7,
        7,
        0,
        0,
        0,
        0,
        0,
        0,
        0,
        0,
        0,
        0,
        0,
        0,
        0,
        0,
        0,
        0,
        7,
        8,
        0,
        0,
        7,
        0,
        0,
        0,
        0,
        0,
        0,
        0,
        7,
        0,
        0,
        0,
        0,
        0,
        0,
        0,
        0,
        0,
        0,
        0,
        0,
        0,
        0,
        0,
        0,
        0,
        0,
        0,
        0,
        0,
        0,
        0,
        0,
        0,
        0,
        0,
        0,
        0,
        0,
        0,
        0,
        0,
        0,
        0,
        0,
        0,
        0,
        0,
        0,
        0,
        0,
        0,
        0,
        0,
        0,
        0,
        0,
        0,
        0,
        0,
        0,
        0,
        0,
        0,
        0,
        0,
        0,
        0,
        0,
        0,
        0,
        0,
        0,
        0,
        7,
        0,
        0,
        0,
        0,
        0,
        7,
        0,
        0,
        0,
        0,
        0,
        0,
        0,
        0,
        0,
        0,
        0,
        8,
        0,
        0,
        0,
        0,
        0,
        0,
        0,
        0,
        0,
        0,
        0,
        7,
        8,
        0,
        0,
        0,
        0,
        0,
        0,
        0,
        0,
        0,
        0,
        0,
        0,
        0,
        0,
        0,
        7,
        8,
        0,
        0,
        0,
        0,
        0,
        0,
        0,
        0,
        0,
        0,
        0,
        0,
        0,
        0,
        0,
        0,
        0,
        0,
        0,
        0,
        0,
        7,
        0,
        0,
        0,
        7,
        0,
        0,
        0,
        0,
        0,
        0,
        0,
        0,
        0,
        0,
        0,
        0,
        0,
        0,
        0,
        0,
        0,
        0,
        0,
        0,
        0,
        0,
        0,
        0,
        0,
        0,
        0,
        0,
        0,
        0,
        0,
        0,
        0,
        0,
        0,
        0,
        0,
        0,
        0,
        0,
        0,
        0,
        0,
        0,
        0,
        0,
        0,
        0,
        0,
        0,
        0,
        0,
        0,
        0,
        7,
        0,
        0,
        0,
        0,
        0,
        0,
        0,
        0,
        0,
        0,
        0,
        0,
        0,
        0,
        8,
        0,
        0,
        0,
        0,
        0,
        0,
        0,
        0,
        8,
        0,
        0,
        8,
        7,
        0,
        0,
        0,
        0,
        0,
        0,
        0,
        0,
        0,
        0,
        0,
        0,
        0,
        0,
        0,
        8,
        7,
        0,
        7,
        0,
        0,
        0,
        0,
        0,
        0,
        0,
        0,
        0,
        0,
        0,
        0,
        0,
        0,
        0,
        0,
        0,
        0,
        0,
        0,
        0,
        0,
        0,
        0,
        0,
        0,
        0,
        0,
        0,
        0,
        0,
        0,
        0,
        0,
        0,
        0,
        0,
        0,
        0,
        0,
        0,
        0,
        0,
        0,
        0,
        0,
        0,
        0,
        0,
        0,
        0,
        0,
        0,
        0,
        0,
        0,
        0,
        0,
        0,
        0,
        0,
        0,
        0,
        0,
        0,
        0,
        0,
        0,
        0,
        0,
        0,
        0,
        0,
        7,
        0,
        0,
        0,
        0,
        0,
        0,
        0,
        0,
        0,
        0,
        0,
        0,
        0,
        0,
        0,
        8,
        0,
        0,
        0,
        0,
        0,
        0,
        0,
        0,
        0,
        0,
        0,
        0,
        0,
        0,
        0,
        7,
        7,
        0,
        0,
        0,
        0,
        0,
        0,
        0,
        0,
        0,
        0,
        0,
        0,
        0,
        0,
        8,
        7,
        0,
        0,
        0,
        0,
        0,
        0,
        0,
        0,
        0,
        0,
        0,
        0,
        0,
        0,
        0,
        0,
        7,
        0,
        0,
        0,
        0,
        0,
        0,
        0,
        0,
        0,
        0,
        0,
        0,
        0,
        0,
        0,
        0,
        0,
        0,
        0,
        0,
        0,
        0,
        0,
        0,
        0,
        0,
        0,
        0,
        0,
        0,
        0,
        0,
        0,
        0,
        0,
        0,
        0,
        0,
        0,
        0,
        0,
        0,
        0,
        0,
        0,
        0,
        0,
        0,
        0,
        0,
        0,
        0,
        0,
        0,
        0,
        0,
        0,
        0,
        0,
        0,
        0,
        0,
        0,
        0,
        0,
        0,
        0,
        0,
        0,
        0,
        0,
        0,
        0,
        0,
        0,
        0,
        0,
        0,
        0,
        0,
        0,
        0,
        0,
        0,
        0,
        0,
        0,
        0,
        0,
        0,
        0,
        7,
        8,
        0,
        0,
        0,
        0,
        0,
        0,
        0,
        0,
        0,
        0,
        0,
        0,
        0,
        0,
        7,
        7,
        0,
        0,
        0,
        0,
        0,
        0,
        0,
        0,
        0,
        0,
        0,
        0,
        0,
        0,
        0,
        0,
        0,
        0,
        0,
        0,
        0,
        0,
        0,
        0,
        0,
        0,
        0,
        0,
        0,
        0,
        7,
        0,
        0,
        0,
        0,
        0,
        7,
        0,
        0,
        0,
        0,
        0,
        7,
        0,
        0,
        0,
        0,
        0,
        0,
        0,
        0,
        0,
        0,
        0,
        0,
        0,
        0,
        0,
        0,
        0,
        0,
        0,
        0,
        0,
        0,
        0,
        0,
        0,
        0,
        0,
        0,
        0,
        0,
        0,
        0,
        0,
        0,
        0,
        0,
        0,
        7,
        0,
        0,
        0,
        0,
        0,
        0,
        0,
        0,
        0,
        0,
        0,
        0,
        0,
        0,
        0,
        0,
        0,
        0,
        0,
        0,
        0,
        0,
        0,
        0,
        0,
        0,
        0,
        8,
        7,
        0,
        0,
        0,
        0,
        0,
        0,
        0,
        0,
        0,
        0,
        0,
        0,
        0,
        0,
        7,
        8,
        0,
        0,
        7,
        0,
        0,
        0,
        7,
        0,
        0,
        0,
        0,
        0,
        0,
        0,
        0,
        0,
        0,
        0,
        0,
        0,
        0,
        0,
        0,
        0,
        0,
        0,
        0,
        0,
        0,
        0,
        7,
        0,
        0,
        7,
        0,
        0,
        0,
        0,
        0,
        0,
        0,
        0,
        7,
        0,
        0,
        0,
        0,
        0,
        0,
        0,
        0,
        0,
        0,
        0,
        0,
        0,
        0,
        0,
        0,
        0,
        0,
        0,
        0,
        0,
        0,
        7,
        0,
        0,
        0,
        0,
        0,
        0,
        0,
        0,
        0,
        0,
        0,
        0,
        0,
        0,
        0,
        0,
        0,
        0,
        0,
        0,
        0,
        0,
        0,
        0,
        0,
        0,
        0,
        0,
        0,
        0,
        0,
        0,
        0,
        8,
        0,
        0,
        0,
        0,
        0,
        0,
        7,
        8,
        0,
        0,
        0,
        0,
        0,
        0,
        0,
        0,
        0,
        0,
        0,
        0,
        0,
        0,
        0,
        0,
        8,
        7,
        0,
        0,
        0,
        0,
        0,
        0,
        0,
        0,
        0,
        0,
        0,
        0,
        0,
        0,
        0,
        0,
        0,
        0,
        0,
        0,
        0,
        0,
        0,
        0,
        0,
        0,
        0,
        0,
        0,
        0,
        0,
        0,
        0,
        0,
        0,
        0,
        0,
        0,
        0,
        0,
        0,
        0,
        7,
        0,
        0,
        0,
        0,
        0,
        0,
        0,
        0,
        0,
        0,
        0,
        0,
        0,
        0,
        0,
        0,
        0,
        0,
        0,
        7,
        0,
        0,
        0,
        0,
        0,
        0,
        0,
        0,
        0,
        0,
        0,
        0,
        0,
        0,
        0,
        0,
        0,
        0,
        0,
        0,
        0,
        0,
        0,
        0,
        0,
        0,
        0,
        0,
        0,
        0,
        0,
        8,
        0,
        0,
        0,
        8,
        0,
        0,
        0,
        0,
        0,
        0,
        0,
        0,
        7,
        7,
        0,
        0,
        0,
        0,
        0,
        0,
        0,
        0,
        0,
        0,
        0,
        0,
        0,
        0,
        0,
        7,
        7,
        0,
        0,
        0,
        0,
        0,
        0,
        0,
        0,
        0,
        0,
        0,
        0,
        0,
        0,
        0,
        0,
        0,
        0,
        0,
        0,
        0,
        0,
        0,
        0,
        0,
        7,
        0,
        0,
        0,
        0,
        0,
        0,
        0,
        0,
        0,
        0,
        0,
        0,
        0,
        0,
        0,
        0,
        0,
        0,
        0,
        0,
        0,
        0,
        0,
        0,
        7,
        0,
        0,
        0,
        0,
        0,
        0,
        0,
        0,
        0,
        0,
        0,
        0,
        0,
        0,
        0,
        0,
        0,
        0,
        0,
        0,
        0,
        0,
        0,
        0,
        0,
        7,
        7,
        7,
        0,
        0,
        0,
        0,
        0,
        0,
        0,
        0,
        0,
        0,
        0,
        0,
        0,
        8,
        0,
        0,
        0,
        0,
        0,
        0,
        0,
        0,
        0,
        0,
        0,
        0,
        0,
        0,
        7,
        8,
        0,
        0,
        0,
        0,
        0,
        0,
        0,
        0,
        0,
        0,
        0,
        0,
        0,
        0,
        0,
        7,
        8,
        0,
        0,
        0,
        0,
        0,
        0,
        0,
        0,
        0,
        0,
        0,
        0,
        0,
        0,
        0,
        0,
        0,
        0,
        0,
        0,
        0,
        0,
        0,
        0,
        0,
        0,
        0,
        0,
        0,
        0,
        0,
        0,
        0,
        0,
        0,
        0,
        0,
        0,
        0,
        0,
        0,
        0,
        0,
        0,
        0,
        0,
        0,
        0,
        0,
        0,
        0,
        0,
        7,
        0,
        7,
        0,
        0,
        0,
        0,
        0,
        0,
        0,
        0,
        0,
        0,
        0,
        0,
        0,
        0,
        0,
        0,
        0,
        0,
        0,
        0,
        0,
        0,
        0,
        0,
        0,
        0,
        0,
        0,
        0,
        0,
        0,
        0,
        0,
        0,
        0,
        0,
        0,
        0,
        8,
        0,
        0,
        0,
        0,
        0,
        0,
        0,
        0,
        0,
        0,
        0,
        0,
        0,
        8,
        7,
        0,
        0,
        0,
        0,
        0,
        0,
        0,
        0,
        0,
        0,
        0,
        0,
        0,
        0,
        0,
        8,
        7,
        0,
        0,
        0,
        0,
        0,
        0,
        0,
        7,
        0,
        7,
        8,
        7,
        7,
        8,
        7,
        7,
        8,
        7,
        7,
        8,
        7,
        7,
        8,
        7,
        0,
        0,
        0,
        0,
        0,
        0,
        0,
        0,
        7,
        0,
        0,
        0,
        0,
        0,
        0,
        0,
        0,
        0,
        0,
        0,
        0,
        0,
        0,
        0,
        0,
        0,
        7,
        0,
        0,
        0,
        7,
        0,
        0,
        0,
        0,
        0,
        0,
        0,
        7,
        0,
        0,
        0,
        7,
        8,
        7,
        7,
        8,
        7,
        7,
        8,
        7,
        7,
        8,
        7,
        7,
        8,
        7,
        7,
        0,
        0,
        0,
        0,
        0,
        0,
        0,
        0,
        0,
        0,
        0,
        0,
        0,
        0,
        0,
        0,
        0,
        0,
        0,
        0,
        0,
        0,
        0,
        8,
        0,
        7,
        7,
        0,
        0,
        0,
        0,
        0,
        0,
        0,
        0,
        0,
        0,
        0,
        0,
        0,
        0,
        0,
        7,
        7,
        0,
        0,
        0,
        0,
        0,
        7,
        8,
        7,
        7,
        8,
        7,
        7,
        8,
        7,
        7,
        8,
        7,
        7,
        8,
        7,
        7,
        8,
        7,
        7,
        8,
        7,
        7,
        0,
        0,
        0,
        0,
        0,
        0,
        0,
        0,
        0,
        0,
        0,
        0,
        0,
        0,
        0,
        0,
        0,
        0,
        0,
        0,
        0,
        0,
        0,
        0,
        0,
        0,
        0,
        0,
        0,
        0,
        0,
        0,
        0,
        0,
        0,
        7,
        8,
        7,
        7,
        8,
        7,
        7,
        8,
        7,
        7,
        8,
        7,
        7,
        8,
        7,
        7,
        8,
        7,
        7,
        8,
        7,
        7,
        8,
        0,
        0,
        0,
        0,
        0,
        0,
        0,
        0,
        0,
        0,
        0,
        0,
        0,
        0,
        0,
        0,
        0,
        0,
        8,
        0,
        0,
        0,
        7,
        8,
        0,
        0,
        0,
        0,
        0,
        0,
        0,
        0,
        0,
        0,
        0,
        0,
        0,
        0,
        0,
        7,
        8,
        7,
        7,
        8,
        7,
        7,
        8,
        7,
        7,
        8,
        0,
        0,
        0,
        0,
        0,
        0,
        0,
        0,
        0,
        0,
        0,
        0,
        0,
        0,
        0,
        7,
        7,
        8,
        7,
        7,
        8,
        7,
        7,
        8,
        7,
        0,
        0,
        0,
        0,
        0,
        0,
        0,
        0,
        0,
        0,
        0,
        0,
        0,
        0,
        0,
        0,
        0,
        0,
        0,
        0,
        0,
        7,
        8,
        7,
        7,
        8,
        7,
        7,
        8,
        7,
        7,
        8,
        0,
        0,
        0,
        0,
        0,
        0,
        0,
        0,
        0,
        0,
        0,
        0,
        0,
        0,
        0,
        7,
        7,
        8,
        7,
        7,
        8,
        7,
        7,
        8,
        7,
        0,
        0,
        0,
        0,
        0,
        0,
        0,
        0,
        0,
        0,
        0,
        0,
        0,
        0,
        8,
        0,
        8,
        7,
        0,
        0,
        0,
        0,
        0,
        0,
        0,
        0,
        0,
        0,
        0,
        0,
        0,
        0,
        0,
        0,
        7,
        7,
        8,
        7,
        7,
        8,
        0,
        0,
        0,
        0,
        0,
        0,
        0,
        0,
        0,
        0,
        0,
        0,
        0,
        0,
        0,
        0,
        0,
        0,
        0,
        0,
        0,
        0,
        7,
        8,
        7,
        7,
        8,
        7,
        7,
        8,
        7,
        7,
        0,
        0,
        0,
        0,
        0,
        0,
        0,
        0,
        0,
        0,
        0,
        0,
        0,
        0,
        0,
        8,
        7,
        7,
        8,
        7,
        7,
        8,
        7,
        7,
        8,
        0,
        0,
        0,
        0,
        0,
        0,
        0,
        0,
        0,
        0,
        0,
        0,
        0,
        0,
        0,
        0,
        0,
        0,
        0,
        0,
        0,
        0,
        0,
        8,
        7,
        7,
        8,
        7,
        7,
        8,
        7,
        7,
        0,
        0,
        0,
        0,
        0,
        0,
        0,
        0,
        0,
        0,
        0,
        0,
        0,
        7,
        7,
        0,
        0,
        0,
        0,
        0,
        0,
        0,
        0,
        0,
        0,
        0,
        0,
        0,
        0,
        0,
        0,
        0,
        0,
        0,
        0,
        0,
        0,
        0,
        0,
        0,
        0,
        0,
        0,
        0,
        0,
        0,
        0,
        0,
        0,
        0,
        0,
        0,
        0,
        0,
        0,
        0,
        0,
        0,
        0,
        0,
        0,
        0,
        0,
        0,
        0,
        0,
        7,
        7,
        8,
        7,
        7,
        8,
        7,
        7,
        8,
        7,
        7,
        8,
        7,
        7,
        8,
        7,
        7,
        8,
        7,
        7,
        8,
        7,
        0,
        0,
        0,
        0,
        0,
        0,
        0,
        0,
        0,
        0,
        0,
        0,
        0,
        0,
        0,
        0,
        0,
        0,
        0,
        0,
        0,
        0,
        0,
        0,
        0,
        0,
        0,
        0,
        0,
        0,
        0,
        0,
        0,
        0,
        0,
        7,
        7,
        8,
        7,
        7,
        8,
        7,
        7,
        8,
        7,
        7,
        8,
        7,
        7,
        8,
        7,
        7,
        8,
        0,
        0,
        0,
        0,
        0,
        0,
        0,
        0,
        0,
        0,
        0,
        0,
        0,
        0,
        0,
        0,
        0,
        0,
        0,
        0,
        0,
        0,
        0,
        0,
        0,
        0,
        0,
        0,
        0,
        0,
        0,
        0,
        0,
        0,
        0,
        0,
        0,
        0,
        0,
        0,
        0,
        0,
        0,
        0,
        0,
        0,
        0,
        0,
        0,
        0,
        0,
        0,
        0,
        0,
        7,
        8,
        7,
        7,
        8,
        7,
        7,
        8,
        7,
        7,
        8,
        7,
        7,
        8,
        7,
        0,
        0,
        0,
        0,
        0,
        0,
        0,
        0,
        0,
        0,
        0,
        0,
        0,
        0,
        0,
        0,
        0,
        0,
        0,
        0,
        0,
        0,
        0,
        0,
        0,
        0,
        0,
        0,
        0,
        0,
        0,
        0,
        0,
        0,
        0,
        0,
        0,
        0,
        0,
        0,
        0,
        0,
        7,
        8,
        7,
        7,
        8,
        7,
        7,
        8,
        7,
        7,
        8,
        7,
        7,
        8,
        7,
        0,
        0,
        0,
        0,
        0,
        0,
        0,
        0,
        0,
        0,
        0,
        0,
        0,
        0,
        0,
        0,
        0,
        0,
        0,
        0,
        0,
        0,
        0,
        0,
        0,
        0,
        0,
        0,
        0,
        0,
        0,
        0,
        0,
        0,
        0,
        0,
        0,
        0,
        0,
        0,
        0,
        0,
        0,
        0,
        0,
        0,
        0,
        0,
        0,
        0,
        0,
        0,
        0,
        0,
        0,
        0,
        0,
        0,
        0,
        0,
        0,
        0,
        0,
        0,
        0,
        0,
        0,
        0,
        0,
        0,
        0,
        0,
        0,
        0,
        0,
        0,
        0,
        0,
        0,
        0,
        0,
        0,
        0,
        0,
        0,
        0,
        0,
        0,
        0,
        0,
        0,
        0,
        0,
        0,
        0,
        0,
        0,
        0,
        0,
        0,
        0,
        0,
        0,
        0,
        0,
        0,
        0,
        0,
        0,
        0,
        0,
        0,
        0,
        0,
        0,
        0,
        0,
        0,
        0,
        0,
        0,
        0,
        0,
        0,
        0,
        0,
        0,
        0,
        0,
        0,
        0,
        0,
        0,
        0,
        0,
        0,
        0,
        0,
        0,
        0,
        0,
        0,
        0,
        0,
        0,
        0,
        0,
        0,
        0,
        0,
        0,
        0,
        0,
        0,
        0,
        0,
        0,
        0,
        0,
        0,
        0,
        0,
        0,
        0,
        0,
        0,
        0,
        0,
        0,
        0,
        0,
        0,
        0,
        0,
        0,
        0,
        0,
        0,
        0,
        0,
        0,
        0,
        0,
        0,
        0,
        0,
        0,
        0,
        0,
        0,
        0,
        0,
        0,
        0,
        0,
        0,
        0,
        0,
        0,
        0,
        0,
        0,
        0,
        0,
        0,
        0,
        0,
        0,
        0,
        0,
        0,
        0,
        0,
        0,
        0,
        0,
        0,
        0,
        0,
        0,
        0,
        0,
        0,
        0,
        0,
        0,
        0,
        0,
        0,
        0,
        0,
        0,
        0,
        0,
        0,
        0,
        0,
        0,
        0,
        0,
        0,
        0,
        0,
        0,
        0,
        0,
        0,
        0,
        0,
        0,
        0,
        0,
        0,
        0,
        0,
        0,
        0,
        0,
        0,
        0,
        0,
        0,
        0,
        0,
        0,
        0,
        0,
        0,
        0,
        0,
        0,
        0,
        0,
        0,
        0,
        0,
        0,
        0,
        0,
        0,
        0,
        0,
        0,
        0,
        0,
        0,
        0,
        0,
        0,
        0,
        0,
        0,
        0,
        0,
        0,
        0,
        0,
        0,
        0,
        0,
        0,
        0,
        0,
        0,
        0,
        0,
        0,
        0,
        0,
        0,
        0,
        0,
        0,
        0,
        0,
        0,
        0,
        0,
        0,
        0,
        0,
        0,
        0,
        0,
        0,
        0,
        0,
        0,
        0,
        0,
        0,
        0,
        0,
        0,
        0,
        0,
        0,
        0,
        0,
        0,
        0,
        0,
        0,
        0,
        0,
        0,
        0,
        0,
        0,
        0,
        0,
        0,
        0,
        0,
        0,
        0,
        0,
        0,
        0,
        0,
        0,
        0,
        0,
        0,
        0,
        0,
        0,
        0,
        0,
        0,
        0,
        0,
        0,
        0,
        0,
        0,
        0,
        0,
        0,
        0,
        0,
        0,
        0,
        0,
        0,
        0,
        0,
        0,
        0,
        0,
        0,
        0,
        0,
        0,
        0,
        0,
        0,
        0,
        0,
        0,
        0,
        0,
        0,
        0,
        0,
        0,
        0,
        0,
        0,
        0,
        0,
        0,
        0,
        0,
        0,
        0,
        0,
        0,
        0,
        0,
        0,
        0,
        0,
        0,
        0,
        0,
        0,
        0,
        0,
        0,
        0,
        0,
        0,
        0,
        0,
        0,
        0,
        0,
        0,
        0,
        0,
        0,
        0,
        0,
        0,
        0,
        0,
        0,
        0,
        0,
        0,
        0,
        0,
        0,
        0,
        0,
        0,
        0,
        0,
        0,
        0,
        0,
        0,
        0,
        0,
        0,
        0,
        0,
        0,
        0,
        0,
        0,
        0,
        0,
        0,
        0,
        0,
        0,
        0,
        0,
        0,
        0,
        0,
        0,
        0,
        0,
        0,
        0,
        0,
        0,
        0,
        0,
        0,
        0,
        0,
        0,
        0,
        0,
        0,
        0,
        0,
        0,
        0,
        0,
        0,
        0,
        0,
        0,
        0,
        0,
        0,
        0,
        0,
        0,
        0,
        0,
        0,
        0,
        0,
        0,
        0,
        0,
        0,
        0,
        0,
        0,
        0,
        0,
        0,
        0,
        0,
        0,
        0,
        0,
        0,
        0,
        0,
        0,
        0,
        0,
        0,
        0,
        0,
        0,
        0,
        0,
        0,
        0,
        0,
        0,
        0,
        0,
        0,
        0,
        0,
        0,
        0,
        0,
        0,
        0,
        0,
        0,
        0,
        0,
        0,
        0,
        0,
        0,
        0,
        0,
        0,
        0,
        0,
        0,
        0,
        0,
        0,
        0,
        0,
        0,
        0,
        0,
        0,
        0,
        0,
        0,
        0,
        0,
        0,
        0,
        0,
        0,
        0,
        0,
        0,
        0,
        0,
        0,
        0,
        0,
        0,
        0,
        0,
        0,
        0,
        0,
        0,
        0,
        0,
        0,
        0,
        0,
        0,
        0,
        0,
        0,
        0,
        0,
        0,
        0,
        0,
        0,
        0,
        0,
        0,
        0,
        0,
        0,
        0,
        0,
        0,
        0,
        0,
        0,
        0,
        0,
        0,
        0,
        0
      ],
      "height": 104,
      "id": 2,
      "name": "Props",
      "opacity": 1,
      "type": "tilelayer",
      "visible": true,
      "width": 126,
      "x": 0,
      "y": 0
    },
    {
      "data": [
        0,
        0,
        0,
        0,
        0,
        0,
        0,
        0,
        0,
        0,
        0,
        0,
        0,
        0,
        0,
        0,
        0,
        0,
        0,
        0,
        0,
        0,
        0,
        0,
        0,
        0,
        0,
        0,
        0,
        0,
        0,
        0,
        0,
        0,
        0,
        0,
        0,
        0,
        0,
        0,
        0,
        0,
        0,
        0,
        0,
        0,
        0,
        0,
        0,
        0,
        0,
        0,
        0,
        0,
        0,
        0,
        0,
        0,
        0,
        0,
        0,
        0,
        0,
        0,
        0,
        0,
        0,
        0,
        0,
        0,
        0,
        0,
        0,
        0,
        0,
        0,
        0,
        0,
        0,
        0,
        0,
        0,
        0,
        0,
        0,
        0,
        0,
        0,
        0,
        0,
        0,
        0,
        0,
        0,
        0,
        0,
        0,
        0,
        0,
        0,
        0,
        0,
        0,
        0,
        0,
        0,
        0,
        0,
        0,
        0,
        0,
        0,
        0,
        0,
        0,
        0,
        0,
        0,
        0,
        0,
        0,
        0,
        0,
        0,
        0,
        0,
        0,
        0,
        0,
        0,
        0,
        0,
        0,
        0,
        0,
        0,
        0,
        0,
        0,
        0,
        0,
        0,
        0,
        0,
        0,
        0,
        0,
        0,
        0,
        0,
        0,
        0,
        0,
        0,
        0,
        0,
        0,
        0,
        0,
        0,
        0,
        0,
        0,
        0,
        0,
        0,
        0,
        0,
        0,
        0,
        0,
        0,
        0,
        0,
        0,
        0,
        0,
        0,
        0,
        0,
        0,
        0,
        0,
        0,
        0,
        0,
        0,
        0,
        0,
        0,
        0,
        0,
        0,
        0,
        0,
        0,
        0,
        0,
        0,
        0,
        0,
        0,
        0,
        0,
        0,
        0,
        0,
        0,
        0,
        0,
        0,
        0,
        0,
        0,
        0,
        0,
        0,
        0,
        0,
        0,
        0,
        0,
        0,
        0,
        0,
        0,
        0,
        0,
        0,
        0,
        0,
        0,
        0,
        0,
        0,
        0,
        0,
        0,
        0,
        0,
        0,
        0,
        0,
        0,
        0,
        0,
        0,
        0,
        0,
        0,
        0,
        0,
        0,
        0,
        0,
        0,
        0,
        0,
        0,
        0,
        0,
        0,
        0,
        0,
        0,
        0,
        0,
        0,
        0,
        0,
        0,
        0,
        0,
        0,
        0,
        0,
        0,
        0,
        0,
        0,
        0,
        0,
        0,
        0,
        0,
        0,
        0,
        0,
        0,
        0,
        0,
        0,
        0,
        0,
        0,
        0,
        0,
        0,
        0,
        0,
        0,
        0,
        0,
        0,
        0,
        0,
        0,
        0,
        0,
        0,
        0,
        0,
        0,
        0,
        0,
        0,
        0,
        0,
        0,
        0,
        0,
        0,
        0,
        0,
        0,
        0,
        0,
        0,
        0,
        0,
        0,
        0,
        0,
        0,
        0,
        0,
        0,
        0,
        0,
        0,
        0,
        0,
        0,
        0,
        0,
        0,
        0,
        0,
        0,
        0,
        0,
        0,
        0,
        0,
        0,
        0,
        0,
        0,
        0,
        0,
        0,
        0,
        0,
        0,
        0,
        0,
        0,
        0,
        0,
        0,
        0,
        0,
        0,
        0,
        0,
        0,
        0,
        0,
        0,
        0,
        0,
        0,
        0,
        0,
        0,
        0,
        0,
        0,
        0,
        0,
        0,
        0,
        0,
        0,
        0,
        0,
        0,
        0,
        0,
        0,
        0,
        0,
        0,
        0,
        0,
        0,
        0,
        0,
        0,
        0,
        0,
        0,
        0,
        0,
        0,
        0,
        0,
        0,
        0,
        0,
        0,
        0,
        0,
        0,
        0,
        0,
        0,
        0,
        0,
        0,
        0,
        0,
        0,
        0,
        0,
        0,
        0,
        0,
        0,
        0,
        0,
        0,
        0,
        0,
        0,
        0,
        0,
        0,
        0,
        0,
        0,
        0,
        0,
        0,
        0,
        0,
        0,
        0,
        0,
        0,
        0,
        0,
        0,
        0,
        0,
        0,
        0,
        0,
        0,
        0,
        0,
        0,
        0,
        0,
        0,
        0,
        0,
        0,
        0,
        0,
        0,
        0,
        0,
        0,
        0,
        0,
        0,
        0,
        0,
        0,
        0,
        0,
        0,
        0,
        0,
        0,
        0,
        0,
        0,
        0,
        0,
        0,
        0,
        0,
        0,
        0,
        0,
        0,
        0,
        0,
        0,
        0,
        0,
        0,
        0,
        0,
        0,
        0,
        0,
        0,
        0,
        0,
        0,
        0,
        0,
        0,
        0,
        0,
        0,
        0,
        0,
        0,
        0,
        0,
        0,
        0,
        0,
        0,
        0,
        0,
        0,
        0,
        0,
        0,
        0,
        0,
        0,
        0,
        0,
        0,
        0,
        0,
        0,
        0,
        0,
        0,
        0,
        0,
        0,
        0,
        0,
        0,
        0,
        0,
        0,
        0,
        0,
        0,
        0,
        0,
        0,
        0,
        0,
        0,
        0,
        0,
        0,
        0,
        0,
        0,
        0,
        0,
        0,
        0,
        0,
        0,
        0,
        0,
        0,
        0,
        0,
        0,
        0,
        0,
        0,
        0,
        0,
        0,
        0,
        0,
        0,
        0,
        0,
        0,
        0,
        0,
        0,
        0,
        0,
        0,
        0,
        0,
        0,
        0,
        0,
        0,
        0,
        0,
        0,
        0,
        0,
        0,
        0,
        0,
        0,
        0,
        0,
        0,
        0,
        0,
        0,
        0,
        0,
        0,
        0,
        0,
        0,
        0,
        0,
        0,
        0,
        0,
        0,
        0,
        0,
        0,
        0,
        0,
        0,
        0,
        0,
        0,
        0,
        0,
        0,
        0,
        0,
        0,
        0,
        0,
        0,
        0,
        0,
        0,
        0,
        0,
        0,
        0,
        0,
        0,
        0,
        0,
        0,
        0,
        0,
        0,
        0,
        0,
        0,
        0,
        0,
        0,
        0,
        0,
        0,
        0,
        0,
        0,
        0,
        0,
        0,
        0,
        0,
        0,
        0,
        0,
        0,
        0,
        0,
        0,
        0,
        0,
        0,
        0,
        0,
        0,
        0,
        0,
        0,
        0,
        0,
        0,
        0,
        0,
        0,
        0,
        0,
        0,
        0,
        0,
        0,
        0,
        0,
        0,
        0,
        0,
        0,
        0,
        0,
        0,
        0,
        0,
        0,
        0,
        0,
        0,
        0,
        0,
        0,
        0,
        0,
        0,
        0,
        0,
        0,
        0,
        0,
        0,
        0,
        0,
        0,
        0,
        0,
        0,
        0,
        0,
        0,
        0,
        0,
        0,
        0,
        0,
        0,
        0,
        0,
        0,
        0,
        0,
        0,
        0,
        0,
        0,
        0,
        0,
        0,
        0,
        0,
        0,
        0,
        0,
        0,
        0,
        0,
        0,
        0,
        0,
        0,
        0,
        0,
        0,
        0,
        0,
        0,
        0,
        0,
        0,
        0,
        0,
        0,
        0,
        0,
        0,
        0,
        0,
        0,
        0,
        0,
        0,
        0,
        0,
        0,
        0,
        0,
        0,
        0,
        0,
        0,
        0,
        0,
        0,
        0,
        0,
        0,
        0,
        0,
        0,
        0,
        0,
        0,
        0,
        0,
        0,
        0,
        0,
        0,
        0,
        0,
        0,
        0,
        0,
        0,
        0,
        0,
        0,
        0,
        0,
        0,
        0,
        0,
        0,
        0,
        0,
        0,
        0,
        0,
        0,
        0,
        0,
        0,
        0,
        0,
        0,
        0,
        0,
        0,
        0,
        0,
        0,
        0,
        0,
        0,
        0,
        0,
        0,
        0,
        0,
        0,
        0,
        0,
        0,
        0,
        0,
        0,
        0,
        0,
        0,
        0,
        0,
        0,
        0,
        0,
        0,
        0,
        0,
        0,
        0,
        0,
        0,
        0,
        0,
        0,
        105,
        105,
        105,
        105,
        105,
        105,
        105,
        105,
        105,
        105,
        105,
        105,
        105,
        0,
        0,
        0,
        0,
        0,
        0,
        0,
        0,
        0,
        0,
        0,
        0,
        0,
        0,
        0,
        0,
        0,
        0,
        0,
        0,
        0,
        0,
        0,
        0,
        0,
        0,
        105,
        105,
        105,
        105,
        105,
        105,
        105,
        105,
        105,
        105,
        105,
        105,
        105,
        0,
        0,
        0,
        0,
        0,
        0,
        0,
        0,
        0,
        0,
        0,
        0,
        0,
        0,
        0,
        0,
        0,
        0,
        0,
        0,
        0,
        0,
        0,
        0,
        0,
        0,
        0,
        105,
        105,
        105,
        105,
        105,
        105,
        105,
        105,
        105,
        105,
        105,
        105,
        105,
        0,
        0,
        0,
        0,
        0,
        0,
        0,
        0,
        0,
        0,
        0,
        0,
        0,
        0,
        0,
        0,
        0,
        0,
        0,
        0,
        0,
        0,
        0,
        0,
        0,
        0,
        0,
        105,
        105,
        105,
        105,
        105,
        105,
        105,
        105,
        105,
        105,
        105,
        105,
        105,
        105,
        105,
        105,
        105,
        105,
        105,
        105,
        105,
        105,
        105,
        105,
        105,
        105,
        105,
        0,
        0,
        0,
        0,
        0,
        0,
        0,
        0,
        0,
        0,
        0,
        0,
        0,
        105,
        105,
        105,
        105,
        105,
        105,
        105,
        105,
        105,
        105,
        105,
        105,
        105,
        105,
        105,
        105,
        105,
        105,
        105,
        105,
        105,
        105,
        105,
        105,
        105,
        105,
        0,
        0,
        0,
        0,
        0,
        0,
        0,
        0,
        0,
        0,
        0,
        0,
        0,
        105,
        105,
        105,
        105,
        105,
        105,
        105,
        105,
        105,
        105,
        105,
        105,
        105,
        105,
        105,
        105,
        105,
        105,
        105,
        105,
        105,
        105,
        105,
        105,
        105,
        105,
        0,
        0,
        0,
        0,
        0,
        0,
        0,
        0,
        0,
        0,
        0,
        0,
        0,
        0,
        0,
        0,
        0,
        0,
        0,
        0,
        0,
        105,
        105,
        105,
        105,
        105,
        105,
        105,
        105,
        105,
        105,
        105,
        105,
        105,
        105,
        105,
        105,
        105,
        105,
        105,
        105,
        105,
        105,
        105,
        105,
        105,
        105,
        105,
        105,
        105,
        105,
        105,
        105,
        105,
        105,
        105,
        105,
        105,
        105,
        105,
        105,
        105,
        105,
        105,
        105,
        105,
        105,
        105,
        105,
        105,
        105,
        105,
        105,
        105,
        105,
        105,
        105,
        105,
        105,
        105,
        105,
        105,
        105,
        105,
        105,
        105,
        105,
        105,
        105,
        105,
        105,
        105,
        105,
        105,
        105,
        105,
        105,
        105,
        105,
        105,
        105,
        105,
        105,
        105,
        105,
        105,
        105,
        105,
        105,
        105,
        105,
        105,
        105,
        105,
        105,
        105,
        105,
        105,
        105,
        105,
        105,
        105,
        105,
        105,
        105,
        105,
        105,
        105,
        0,
        0,
        0,
        0,
        0,
        0,
        0,
        0,
        0,
        0,
        0,
        0,
        0,
        0,
        0,
        0,
        0,
        0,
        0,
        105,
        105,
        105,
        105,
        105,
        105,
        105,
        105,
        105,
        105,
        105,
        105,
        105,
        105,
        105,
        105,
        105,
        105,
        105,
        105,
        105,
        105,
        105,
        105,
        105,
        105,
        105,
        105,
        105,
        105,
        105,
        105,
        105,
        105,
        105,
        105,
        105,
        105,
        105,
        105,
        105,
        105,
        105,
        105,
        105,
        105,
        105,
        105,
        105,
        105,
        105,
        105,
        105,
        105,
        105,
        105,
        105,
        105,
        105,
        105,
        105,
        105,
        105,
        105,
        105,
        105,
        105,
        105,
        105,
        105,
        105,
        105,
        105,
        105,
        105,
        105,
        105,
        105,
        105,
        105,
        105,
        105,
        105,
        105,
        105,
        105,
        105,
        105,
        105,
        105,
        105,
        105,
        105,
        105,
        105,
        105,
        105,
        105,
        105,
        105,
        105,
        105,
        105,
        105,
        105,
        105,
        0,
        0,
        0,
        0,
        0,
        0,
        0,
        0,
        0,
        0,
        0,
        0,
        0,
        0,
        0,
        0,
        0,
        0,
        0,
        0,
        105,
        105,
        105,
        105,
        105,
        105,
        105,
        105,
        105,
        105,
        105,
        105,
        105,
        105,
        105,
        105,
        105,
        105,
        105,
        105,
        105,
        105,
        105,
        105,
        105,
        105,
        105,
        105,
        105,
        105,
        105,
        105,
        105,
        105,
        105,
        105,
        105,
        105,
        105,
        105,
        105,
        105,
        105,
        105,
        105,
        105,
        105,
        105,
        105,
        105,
        105,
        105,
        105,
        105,
        105,
        105,
        105,
        105,
        105,
        105,
        105,
        105,
        105,
        105,
        105,
        105,
        105,
        105,
        105,
        105,
        105,
        105,
        105,
        105,
        105,
        105,
        105,
        105,
        105,
        105,
        105,
        105,
        105,
        105,
        105,
        105,
        105,
        105,
        105,
        105,
        105,
        105,
        105,
        105,
        105,
        105,
        105,
        105,
        105,
        105,
        105,
        105,
        105,
        105,
        105,
        105,
        0,
        0,
        0,
        0,
        0,
        0,
        0,
        0,
        0,
        0,
        0,
        0,
        0,
        0,
        0,
        0,
        0,
        0,
        0,
        0,
        105,
        105,
        105,
        105,
        105,
        105,
        105,
        105,
        105,
        105,
        105,
        105,
        105,
        105,
        105,
        105,
        105,
        105,
        105,
        105,
        105,
        105,
        105,
        105,
        105,
        105,
        105,
        105,
        105,
        105,
        105,
        105,
        105,
        105,
        105,
        105,
        105,
        105,
        105,
        105,
        105,
        105,
        105,
        105,
        105,
        105,
        105,
        105,
        105,
        105,
        105,
        105,
        105,
        105,
        105,
        105,
        105,
        105,
        105,
        105,
        105,
        105,
        105,
        105,
        105,
        105,
        105,
        105,
        105,
        105,
        105,
        105,
        105,
        105,
        105,
        105,
        105,
        105,
        105,
        105,
        105,
        105,
        105,
        105,
        105,
        105,
        105,
        105,
        105,
        105,
        105,
        105,
        105,
        105,
        105,
        105,
        105,
        105,
        105,
        105,
        105,
        105,
        105,
        105,
        105,
        105,
        0,
        0,
        0,
        0,
        0,
        0,
        0,
        0,
        0,
        0,
        0,
        0,
        0,
        0,
        0,
        0,
        0,
        0,
        0,
        105,
        105,
        105,
        105,
        105,
        105,
        105,
        105,
        105,
        105,
        105,
        105,
        105,
        105,
        105,
        105,
        105,
        105,
        105,
        105,
        105,
        105,
        105,
        105,
        105,
        105,
        105,
        105,
        105,
        105,
        105,
        105,
        105,
        105,
        105,
        105,
        105,
        105,
        105,
        105,
        105,
        105,
        105,
        105,
        105,
        105,
        105,
        105,
        105,
        105,
        105,
        105,
        105,
        105,
        105,
        105,
        105,
        105,
        105,
        105,
        105,
        105,
        105,
        105,
        105,
        105,
        105,
        105,
        105,
        105,
        105,
        105,
        105,
        105,
        105,
        105,
        105,
        105,
        105,
        105,
        105,
        105,
        105,
        105,
        105,
        105,
        105,
        105,
        105,
        105,
        105,
        105,
        105,
        105,
        105,
        105,
        105,
        105,
        105,
        105,
        105,
        105,
        105,
        105,
        105,
        105,
        105,
        0,
        0,
        0,
        0,
        0,
        0,
        0,
        0,
        0,
        0,
        0,
        0,
        0,
        0,
        0,
        0,
        0,
        0,
        0,
        105,
        105,
        105,
        105,
        105,
        105,
        105,
        105,
        105,
        105,
        105,
        105,
        105,
        105,
        105,
        105,
        105,
        105,
        105,
        105,
        105,
        105,
        105,
        105,
        105,
        105,
        105,
        105,
        105,
        105,
        105,
        105,
        105,
        105,
        105,
        105,
        105,
        105,
        105,
        105,
        105,
        105,
        105,
        105,
        105,
        105,
        105,
        105,
        105,
        105,
        105,
        105,
        105,
        105,
        105,
        105,
        105,
        105,
        105,
        105,
        105,
        105,
        105,
        105,
        105,
        105,
        105,
        105,
        105,
        105,
        105,
        105,
        105,
        105,
        105,
        105,
        105,
        105,
        105,
        105,
        105,
        105,
        105,
        105,
        105,
        105,
        105,
        105,
        105,
        105,
        105,
        105,
        105,
        105,
        105,
        105,
        105,
        105,
        105,
        105,
        105,
        105,
        105,
        105,
        105,
        105,
        105,
        0,
        0,
        0,
        0,
        0,
        0,
        0,
        0,
        0,
        0,
        0,
        0,
        0,
        0,
        0,
        0,
        0,
        0,
        105,
        105,
        105,
        105,
        105,
        105,
        105,
        105,
        105,
        105,
        105,
        105,
        105,
        105,
        105,
        105,
        105,
        105,
        105,
        105,
        105,
        105,
        105,
        105,
        105,
        105,
        105,
        105,
        105,
        105,
        105,
        105,
        105,
        105,
        105,
        105,
        105,
        105,
        105,
        105,
        105,
        105,
        105,
        105,
        105,
        105,
        105,
        105,
        105,
        105,
        105,
        105,
        105,
        105,
        105,
        105,
        105,
        105,
        105,
        105,
        105,
        105,
        105,
        105,
        105,
        105,
        105,
        105,
        105,
        105,
        105,
        105,
        105,
        105,
        105,
        105,
        105,
        105,
        105,
        105,
        105,
        105,
        105,
        105,
        105,
        105,
        105,
        105,
        105,
        105,
        105,
        105,
        105,
        105,
        105,
        105,
        105,
        105,
        105,
        105,
        105,
        105,
        105,
        105,
        105,
        105,
        105,
        105,
        0,
        0,
        0,
        0,
        0,
        0,
        0,
        0,
        0,
        0,
        0,
        0,
        0,
        0,
        0,
        0,
        0,
        0,
        105,
        105,
        105,
        105,
        105,
        105,
        105,
        105,
        105,
        105,
        105,
        105,
        105,
        105,
        105,
        105,
        105,
        105,
        105,
        105,
        105,
        105,
        105,
        105,
        105,
        105,
        105,
        105,
        105,
        105,
        105,
        105,
        105,
        105,
        105,
        105,
        105,
        105,
        105,
        105,
        105,
        105,
        105,
        105,
        105,
        105,
        105,
        105,
        105,
        105,
        105,
        105,
        105,
        105,
        105,
        105,
        105,
        105,
        105,
        105,
        105,
        105,
        105,
        105,
        105,
        105,
        105,
        105,
        105,
        105,
        105,
        105,
        105,
        105,
        105,
        105,
        105,
        105,
        105,
        105,
        105,
        105,
        105,
        105,
        105,
        105,
        105,
        105,
        105,
        105,
        105,
        105,
        105,
        105,
        105,
        105,
        105,
        105,
        105,
        105,
        105,
        105,
        105,
        105,
        105,
        105,
        105,
        105,
        0,
        0,
        0,
        0,
        0,
        0,
        0,
        0,
        0,
        0,
        0,
        0,
        0,
        0,
        0,
        0,
        0,
        0,
        105,
        105,
        105,
        105,
        105,
        105,
        105,
        105,
        105,
        105,
        105,
        105,
        105,
        105,
        105,
        105,
        105,
        105,
        105,
        105,
        105,
        105,
        105,
        105,
        105,
        105,
        105,
        105,
        105,
        105,
        105,
        105,
        105,
        105,
        105,
        105,
        105,
        105,
        105,
        105,
        105,
        105,
        105,
        105,
        105,
        105,
        105,
        105,
        105,
        105,
        105,
        105,
        105,
        105,
        105,
        105,
        105,
        105,
        105,
        105,
        105,
        105,
        105,
        105,
        105,
        105,
        105,
        105,
        105,
        105,
        105,
        105,
        105,
        105,
        105,
        105,
        105,
        105,
        105,
        105,
        105,
        105,
        105,
        105,
        105,
        105,
        105,
        105,
        105,
        105,
        105,
        105,
        105,
        105,
        105,
        105,
        105,
        105,
        105,
        105,
        105,
        105,
        105,
        105,
        105,
        105,
        105,
        105,
        0,
        0,
        0,
        0,
        0,
        0,
        0,
        0,
        0,
        0,
        0,
        0,
        0,
        0,
        0,
        0,
        105,
        105,
        105,
        105,
        105,
        105,
        105,
        105,
        105,
        105,
        105,
        105,
        105,
        105,
        105,
        105,
        105,
        105,
        105,
        105,
        105,
        105,
        105,
        105,
        105,
        105,
        105,
        105,
        105,
        105,
        105,
        105,
        105,
        105,
        105,
        105,
        105,
        105,
        105,
        105,
        105,
        105,
        105,
        105,
        105,
        105,
        105,
        105,
        105,
        105,
        105,
        105,
        105,
        105,
        105,
        105,
        105,
        105,
        105,
        105,
        105,
        105,
        105,
        105,
        105,
        105,
        105,
        105,
        105,
        105,
        105,
        105,
        105,
        105,
        105,
        105,
        105,
        105,
        105,
        105,
        105,
        105,
        105,
        105,
        105,
        105,
        105,
        105,
        105,
        105,
        105,
        105,
        105,
        105,
        105,
        105,
        105,
        105,
        105,
        105,
        105,
        105,
        105,
        105,
        105,
        105,
        105,
        105,
        105,
        0,
        0,
        0,
        0,
        0,
        0,
        0,
        0,
        0,
        0,
        0,
        0,
        0,
        0,
        0,
        0,
        105,
        105,
        105,
        105,
        105,
        105,
        105,
        105,
        105,
        105,
        105,
        105,
        105,
        105,
        105,
        105,
        105,
        105,
        105,
        105,
        105,
        105,
        105,
        105,
        105,
        105,
        105,
        105,
        105,
        105,
        105,
        105,
        105,
        105,
        105,
        105,
        105,
        105,
        105,
        105,
        105,
        105,
        105,
        105,
        105,
        105,
        105,
        105,
        105,
        105,
        105,
        105,
        105,
        105,
        105,
        105,
        105,
        105,
        105,
        105,
        105,
        105,
        105,
        105,
        105,
        105,
        105,
        105,
        105,
        105,
        105,
        105,
        105,
        105,
        105,
        105,
        105,
        105,
        105,
        105,
        105,
        105,
        105,
        105,
        105,
        105,
        105,
        105,
        105,
        105,
        105,
        105,
        105,
        105,
        105,
        105,
        105,
        105,
        105,
        105,
        105,
        105,
        105,
        105,
        105,
        105,
        105,
        105,
        105,
        105,
        0,
        0,
        0,
        0,
        0,
        0,
        0,
        0,
        0,
        0,
        0,
        0,
        0,
        0,
        0,
        0,
        105,
        105,
        105,
        105,
        105,
        105,
        105,
        105,
        105,
        105,
        105,
        105,
        105,
        105,
        105,
        105,
        105,
        105,
        105,
        105,
        105,
        105,
        105,
        105,
        105,
        105,
        105,
        105,
        105,
        105,
        105,
        105,
        105,
        105,
        105,
        105,
        105,
        105,
        105,
        105,
        105,
        105,
        105,
        105,
        105,
        105,
        105,
        105,
        105,
        105,
        105,
        105,
        105,
        105,
        105,
        105,
        105,
        105,
        105,
        105,
        105,
        105,
        105,
        105,
        105,
        105,
        105,
        105,
        105,
        105,
        105,
        105,
        105,
        105,
        105,
        105,
        105,
        105,
        105,
        105,
        105,
        105,
        105,
        105,
        105,
        105,
        105,
        105,
        105,
        105,
        105,
        105,
        105,
        105,
        105,
        105,
        105,
        105,
        105,
        105,
        105,
        105,
        105,
        105,
        105,
        105,
        105,
        105,
        105,
        105,
        0,
        0,
        0,
        0,
        0,
        0,
        0,
        0,
        0,
        0,
        0,
        0,
        0,
        0,
        0,
        105,
        105,
        105,
        105,
        105,
        105,
        105,
        105,
        105,
        105,
        105,
        105,
        105,
        105,
        105,
        105,
        105,
        105,
        105,
        105,
        105,
        105,
        105,
        105,
        105,
        105,
        105,
        105,
        105,
        105,
        105,
        105,
        105,
        105,
        105,
        105,
        105,
        105,
        105,
        105,
        105,
        105,
        105,
        105,
        105,
        105,
        105,
        105,
        105,
        105,
        105,
        105,
        105,
        105,
        105,
        105,
        105,
        105,
        105,
        105,
        105,
        105,
        105,
        105,
        105,
        105,
        105,
        105,
        105,
        105,
        105,
        105,
        105,
        105,
        105,
        105,
        105,
        105,
        105,
        105,
        105,
        105,
        105,
        105,
        105,
        105,
        105,
        105,
        105,
        105,
        105,
        105,
        105,
        105,
        105,
        105,
        105,
        105,
        105,
        105,
        105,
        105,
        105,
        105,
        105,
        105,
        105,
        105,
        105,
        105,
        105,
        0,
        0,
        0,
        0,
        0,
        0,
        0,
        0,
        0,
        0,
        0,
        0,
        0,
        0,
        0,
        105,
        105,
        105,
        105,
        105,
        105,
        105,
        105,
        105,
        105,
        105,
        105,
        105,
        105,
        105,
        105,
        105,
        105,
        105,
        105,
        105,
        105,
        105,
        105,
        105,
        105,
        105,
        105,
        105,
        105,
        105,
        105,
        105,
        105,
        105,
        105,
        105,
        105,
        105,
        105,
        105,
        105,
        105,
        105,
        105,
        105,
        105,
        105,
        105,
        105,
        105,
        105,
        105,
        105,
        105,
        105,
        105,
        105,
        105,
        105,
        105,
        105,
        105,
        105,
        105,
        105,
        105,
        105,
        105,
        105,
        105,
        105,
        105,
        105,
        105,
        105,
        105,
        105,
        105,
        105,
        105,
        105,
        105,
        105,
        105,
        105,
        105,
        105,
        105,
        105,
        105,
        105,
        105,
        105,
        105,
        105,
        105,
        105,
        105,
        105,
        105,
        105,
        105,
        105,
        105,
        105,
        105,
        105,
        105,
        105,
        105,
        0,
        0,
        0,
        0,
        0,
        0,
        0,
        0,
        0,
        0,
        0,
        0,
        0,
        0,
        0,
        105,
        105,
        105,
        105,
        105,
        105,
        105,
        105,
        105,
        105,
        105,
        105,
        105,
        105,
        105,
        105,
        105,
        105,
        105,
        105,
        105,
        105,
        105,
        105,
        105,
        105,
        105,
        105,
        105,
        105,
        105,
        105,
        105,
        105,
        105,
        105,
        105,
        105,
        105,
        105,
        105,
        105,
        105,
        105,
        105,
        105,
        105,
        105,
        105,
        105,
        105,
        105,
        105,
        105,
        105,
        105,
        105,
        105,
        105,
        105,
        105,
        105,
        105,
        105,
        105,
        105,
        105,
        105,
        105,
        105,
        105,
        105,
        105,
        105,
        105,
        105,
        105,
        105,
        105,
        105,
        105,
        105,
        105,
        105,
        105,
        105,
        105,
        105,
        105,
        105,
        105,
        105,
        105,
        105,
        105,
        105,
        105,
        105,
        105,
        105,
        105,
        105,
        105,
        105,
        105,
        105,
        105,
        105,
        105,
        105,
        105,
        0,
        0,
        0,
        0,
        0,
        0,
        0,
        0,
        0,
        0,
        0,
        0,
        0,
        0,
        0,
        105,
        105,
        105,
        105,
        105,
        105,
        105,
        105,
        105,
        105,
        105,
        105,
        105,
        105,
        105,
        105,
        105,
        105,
        105,
        105,
        105,
        105,
        105,
        105,
        105,
        105,
        105,
        105,
        105,
        105,
        105,
        105,
        105,
        105,
        105,
        105,
        105,
        105,
        105,
        105,
        105,
        105,
        105,
        105,
        105,
        105,
        105,
        105,
        105,
        105,
        105,
        105,
        105,
        105,
        105,
        105,
        105,
        105,
        105,
        105,
        105,
        105,
        105,
        105,
        105,
        105,
        105,
        105,
        105,
        105,
        105,
        105,
        105,
        105,
        105,
        105,
        105,
        105,
        105,
        105,
        105,
        105,
        105,
        105,
        105,
        105,
        105,
        105,
        105,
        105,
        105,
        105,
        105,
        105,
        105,
        105,
        105,
        105,
        105,
        105,
        105,
        105,
        105,
        105,
        105,
        105,
        105,
        105,
        105,
        105,
        105,
        0,
        0,
        0,
        0,
        0,
        0,
        0,
        0,
        0,
        0,
        0,
        0,
        0,
        0,
        0,
        105,
        105,
        105,
        105,
        105,
        105,
        105,
        105,
        105,
        105,
        105,
        105,
        105,
        105,
        105,
        105,
        105,
        105,
        105,
        105,
        105,
        105,
        105,
        105,
        105,
        105,
        105,
        105,
        105,
        105,
        105,
        105,
        105,
        105,
        105,
        105,
        105,
        105,
        105,
        105,
        105,
        105,
        105,
        105,
        105,
        105,
        105,
        105,
        105,
        105,
        105,
        105,
        105,
        105,
        105,
        105,
        105,
        105,
        105,
        105,
        105,
        105,
        105,
        105,
        105,
        105,
        105,
        105,
        105,
        105,
        105,
        105,
        105,
        105,
        105,
        105,
        105,
        105,
        105,
        105,
        105,
        105,
        105,
        105,
        105,
        105,
        105,
        105,
        105,
        105,
        105,
        105,
        105,
        105,
        105,
        105,
        105,
        105,
        105,
        105,
        105,
        105,
        105,
        105,
        105,
        105,
        105,
        105,
        105,
        105,
        105,
        0,
        0,
        0,
        0,
        0,
        0,
        0,
        0,
        0,
        0,
        0,
        0,
        0,
        0,
        0,
        105,
        105,
        105,
        105,
        105,
        105,
        105,
        105,
        105,
        105,
        105,
        105,
        105,
        105,
        105,
        105,
        105,
        105,
        105,
        105,
        105,
        105,
        105,
        105,
        105,
        105,
        105,
        105,
        105,
        105,
        105,
        105,
        105,
        105,
        105,
        105,
        105,
        105,
        105,
        105,
        105,
        105,
        105,
        105,
        105,
        105,
        105,
        105,
        105,
        105,
        105,
        105,
        105,
        105,
        105,
        105,
        105,
        105,
        105,
        105,
        105,
        105,
        105,
        105,
        105,
        105,
        105,
        105,
        105,
        105,
        105,
        105,
        105,
        105,
        105,
        105,
        105,
        105,
        105,
        105,
        105,
        105,
        105,
        105,
        105,
        105,
        105,
        105,
        105,
        105,
        105,
        105,
        105,
        105,
        105,
        105,
        105,
        105,
        105,
        105,
        105,
        105,
        105,
        105,
        105,
        105,
        105,
        105,
        105,
        105,
        105,
        0,
        0,
        0,
        0,
        0,
        0,
        0,
        0,
        0,
        0,
        0,
        0,
        0,
        0,
        0,
        105,
        105,
        105,
        105,
        105,
        105,
        105,
        105,
        105,
        105,
        105,
        105,
        105,
        105,
        105,
        105,
        105,
        105,
        105,
        105,
        105,
        105,
        105,
        105,
        105,
        105,
        105,
        105,
        105,
        105,
        105,
        105,
        105,
        105,
        105,
        105,
        105,
        105,
        105,
        105,
        105,
        105,
        105,
        105,
        105,
        105,
        105,
        105,
        105,
        105,
        105,
        105,
        105,
        105,
        105,
        105,
        105,
        105,
        105,
        105,
        105,
        105,
        105,
        105,
        105,
        105,
        105,
        105,
        105,
        105,
        105,
        105,
        105,
        105,
        105,
        105,
        105,
        105,
        105,
        105,
        105,
        105,
        105,
        105,
        105,
        105,
        105,
        105,
        105,
        105,
        105,
        105,
        105,
        105,
        105,
        105,
        105,
        105,
        105,
        105,
        105,
        105,
        105,
        105,
        105,
        105,
        105,
        105,
        105,
        105,
        105,
        0,
        0,
        0,
        0,
        0,
        0,
        0,
        0,
        0,
        0,
        0,
        0,
        0,
        0,
        0,
        105,
        105,
        105,
        105,
        105,
        105,
        105,
        105,
        105,
        105,
        105,
        105,
        105,
        105,
        105,
        105,
        105,
        105,
        105,
        105,
        105,
        105,
        105,
        105,
        105,
        105,
        105,
        105,
        105,
        105,
        105,
        105,
        105,
        105,
        105,
        105,
        105,
        105,
        105,
        105,
        105,
        105,
        105,
        105,
        105,
        105,
        105,
        105,
        105,
        105,
        105,
        105,
        105,
        105,
        105,
        105,
        105,
        105,
        105,
        105,
        105,
        105,
        105,
        105,
        105,
        105,
        105,
        105,
        105,
        105,
        105,
        105,
        105,
        105,
        105,
        105,
        105,
        105,
        105,
        105,
        105,
        105,
        105,
        105,
        105,
        105,
        105,
        105,
        105,
        105,
        105,
        105,
        105,
        105,
        105,
        105,
        105,
        105,
        105,
        105,
        105,
        105,
        105,
        105,
        105,
        105,
        105,
        105,
        105,
        105,
        105,
        0,
        0,
        0,
        0,
        0,
        0,
        0,
        0,
        0,
        0,
        0,
        0,
        0,
        0,
        0,
        105,
        105,
        105,
        105,
        105,
        105,
        105,
        105,
        105,
        105,
        105,
        105,
        105,
        105,
        105,
        105,
        105,
        105,
        105,
        105,
        105,
        105,
        105,
        105,
        105,
        105,
        105,
        105,
        105,
        105,
        105,
        105,
        105,
        105,
        105,
        105,
        105,
        105,
        105,
        105,
        105,
        105,
        105,
        105,
        105,
        105,
        105,
        105,
        105,
        105,
        105,
        105,
        105,
        105,
        105,
        105,
        105,
        105,
        105,
        105,
        105,
        105,
        105,
        105,
        105,
        105,
        105,
        105,
        105,
        105,
        105,
        105,
        105,
        105,
        105,
        105,
        105,
        105,
        105,
        105,
        105,
        105,
        105,
        105,
        105,
        105,
        105,
        105,
        105,
        105,
        105,
        105,
        105,
        105,
        105,
        105,
        105,
        105,
        105,
        105,
        105,
        105,
        105,
        105,
        105,
        105,
        105,
        105,
        105,
        105,
        105,
        0,
        0,
        0,
        0,
        0,
        0,
        0,
        0,
        0,
        0,
        0,
        0,
        0,
        0,
        0,
        0,
        105,
        105,
        105,
        105,
        105,
        105,
        105,
        105,
        105,
        105,
        105,
        105,
        105,
        105,
        105,
        105,
        105,
        105,
        105,
        105,
        105,
        105,
        105,
        105,
        105,
        105,
        105,
        105,
        105,
        105,
        105,
        105,
        105,
        105,
        105,
        105,
        105,
        105,
        105,
        105,
        105,
        105,
        105,
        105,
        105,
        105,
        105,
        105,
        105,
        105,
        105,
        105,
        105,
        105,
        105,
        105,
        105,
        105,
        105,
        105,
        105,
        105,
        105,
        105,
        105,
        105,
        105,
        105,
        105,
        105,
        105,
        105,
        105,
        105,
        105,
        105,
        105,
        105,
        105,
        105,
        105,
        105,
        105,
        105,
        105,
        105,
        105,
        105,
        105,
        105,
        105,
        105,
        105,
        105,
        105,
        105,
        105,
        105,
        105,
        105,
        105,
        105,
        105,
        105,
        105,
        105,
        105,
        105,
        105,
        105,
        0,
        0,
        0,
        0,
        0,
        0,
        0,
        0,
        0,
        0,
        0,
        0,
        0,
        0,
        0,
        0,
        105,
        105,
        105,
        105,
        105,
        105,
        105,
        105,
        105,
        105,
        105,
        105,
        105,
        105,
        105,
        105,
        105,
        105,
        105,
        105,
        105,
        105,
        105,
        105,
        105,
        105,
        105,
        105,
        105,
        105,
        105,
        105,
        105,
        105,
        105,
        105,
        105,
        105,
        105,
        105,
        105,
        105,
        105,
        105,
        105,
        105,
        105,
        105,
        105,
        105,
        105,
        105,
        105,
        105,
        105,
        105,
        105,
        105,
        105,
        105,
        105,
        105,
        105,
        105,
        105,
        105,
        105,
        105,
        105,
        105,
        105,
        105,
        105,
        105,
        105,
        105,
        105,
        105,
        105,
        105,
        105,
        105,
        105,
        105,
        105,
        105,
        105,
        105,
        105,
        105,
        105,
        105,
        105,
        105,
        105,
        105,
        105,
        105,
        105,
        105,
        105,
        105,
        105,
        105,
        105,
        105,
        105,
        105,
        105,
        105,
        0,
        0,
        0,
        0,
        0,
        0,
        0,
        0,
        0,
        0,
        0,
        0,
        0,
        0,
        0,
        0,
        0,
        105,
        105,
        105,
        105,
        105,
        105,
        105,
        105,
        105,
        105,
        105,
        105,
        105,
        105,
        105,
        105,
        105,
        105,
        105,
        105,
        105,
        105,
        105,
        105,
        105,
        105,
        105,
        105,
        105,
        105,
        105,
        105,
        105,
        105,
        105,
        105,
        105,
        105,
        105,
        105,
        105,
        105,
        105,
        105,
        105,
        105,
        105,
        105,
        105,
        105,
        105,
        105,
        105,
        105,
        105,
        105,
        105,
        105,
        105,
        105,
        105,
        105,
        105,
        105,
        105,
        105,
        105,
        105,
        105,
        105,
        105,
        105,
        105,
        105,
        105,
        105,
        105,
        105,
        105,
        105,
        105,
        105,
        105,
        105,
        105,
        105,
        105,
        105,
        105,
        105,
        105,
        105,
        105,
        105,
        105,
        105,
        105,
        105,
        105,
        105,
        105,
        105,
        105,
        105,
        105,
        105,
        105,
        105,
        105,
        0,
        0,
        0,
        0,
        0,
        0,
        0,
        0,
        0,
        0,
        0,
        0,
        0,
        0,
        0,
        0,
        0,
        105,
        105,
        105,
        105,
        105,
        105,
        105,
        105,
        105,
        105,
        105,
        105,
        105,
        105,
        105,
        105,
        105,
        105,
        105,
        105,
        105,
        105,
        105,
        105,
        105,
        105,
        105,
        105,
        105,
        105,
        105,
        105,
        105,
        105,
        105,
        105,
        105,
        105,
        105,
        105,
        105,
        105,
        105,
        105,
        105,
        105,
        105,
        105,
        105,
        105,
        105,
        105,
        105,
        105,
        105,
        105,
        105,
        105,
        105,
        105,
        105,
        105,
        105,
        105,
        105,
        105,
        105,
        105,
        105,
        105,
        105,
        105,
        105,
        105,
        105,
        105,
        105,
        105,
        105,
        105,
        105,
        105,
        105,
        105,
        105,
        105,
        105,
        105,
        105,
        105,
        105,
        105,
        105,
        105,
        105,
        105,
        105,
        105,
        105,
        105,
        105,
        105,
        105,
        105,
        105,
        105,
        105,
        105,
        105,
        0,
        0,
        0,
        0,
        0,
        0,
        0,
        0,
        0,
        0,
        0,
        0,
        0,
        0,
        0,
        0,
        0,
        105,
        105,
        105,
        105,
        105,
        105,
        105,
        105,
        105,
        105,
        105,
        105,
        105,
        105,
        105,
        105,
        105,
        105,
        105,
        105,
        105,
        105,
        105,
        105,
        105,
        105,
        105,
        105,
        105,
        105,
        105,
        105,
        105,
        105,
        105,
        105,
        105,
        105,
        105,
        105,
        105,
        105,
        105,
        105,
        105,
        105,
        105,
        105,
        105,
        105,
        105,
        105,
        105,
        105,
        105,
        105,
        105,
        105,
        105,
        105,
        105,
        105,
        105,
        105,
        105,
        105,
        105,
        105,
        105,
        105,
        105,
        105,
        105,
        105,
        105,
        105,
        105,
        105,
        105,
        105,
        105,
        105,
        105,
        105,
        105,
        105,
        105,
        105,
        105,
        105,
        105,
        105,
        105,
        105,
        105,
        105,
        105,
        105,
        105,
        105,
        105,
        105,
        105,
        105,
        105,
        105,
        105,
        105,
        105,
        105,
        0,
        0,
        0,
        0,
        0,
        0,
        0,
        0,
        0,
        0,
        0,
        0,
        0,
        0,
        0,
        0,
        0,
        105,
        105,
        105,
        105,
        105,
        105,
        105,
        105,
        105,
        105,
        105,
        105,
        105,
        105,
        105,
        105,
        105,
        105,
        105,
        105,
        105,
        105,
        105,
        105,
        105,
        105,
        105,
        105,
        105,
        105,
        105,
        105,
        105,
        105,
        105,
        105,
        105,
        105,
        105,
        105,
        105,
        105,
        105,
        105,
        105,
        105,
        105,
        105,
        105,
        105,
        105,
        105,
        105,
        105,
        105,
        105,
        105,
        105,
        105,
        105,
        105,
        105,
        105,
        105,
        105,
        105,
        105,
        105,
        105,
        105,
        105,
        105,
        105,
        105,
        105,
        105,
        105,
        105,
        105,
        105,
        105,
        105,
        105,
        105,
        105,
        105,
        105,
        105,
        105,
        105,
        105,
        105,
        105,
        105,
        105,
        105,
        105,
        105,
        105,
        105,
        105,
        105,
        105,
        105,
        105,
        105,
        105,
        105,
        105,
        0,
        0,
        0,
        0,
        0,
        0,
        0,
        0,
        0,
        0,
        0,
        0,
        0,
        0,
        0,
        0,
        0,
        102,
        102,
        102,
        102,
        102,
        102,
        102,
        102,
        102,
        102,
        102,
        102,
        102,
        102,
        102,
        102,
        102,
        102,
        102,
        102,
        102,
        102,
        102,
        102,
        102,
        102,
        102,
        102,
        102,
        102,
        102,
        102,
        102,
        102,
        102,
        102,
        102,
        102,
        102,
        102,
        102,
        102,
        102,
        102,
        102,
        102,
        102,
        102,
        102,
        102,
        102,
        102,
        102,
        102,
        102,
        102,
        102,
        102,
        102,
        102,
        102,
        102,
        102,
        102,
        102,
        102,
        102,
        102,
        102,
        102,
        102,
        102,
        102,
        102,
        102,
        102,
        102,
        103,
        103,
        103,
        103,
        103,
        103,
        103,
        103,
        103,
        103,
        103,
        103,
        103,
        104,
        104,
        104,
        104,
        104,
        104,
        104,
        104,
        104,
        104,
        104,
        104,
        104,
        104,
        104,
        104,
        104,
        104,
        104,
        0,
        0,
        0,
        0,
        0,
        0,
        0,
        0,
        0,
        0,
        0,
        0,
        0,
        0,
        0,
        0,
        0,
        0,
        102,
        102,
        102,
        102,
        102,
        102,
        102,
        102,
        102,
        102,
        102,
        102,
        102,
        102,
        102,
        102,
        102,
        102,
        102,
        102,
        102,
        102,
        102,
        102,
        102,
        102,
        102,
        102,
        102,
        102,
        102,
        102,
        102,
        102,
        102,
        102,
        102,
        102,
        102,
        102,
        102,
        102,
        102,
        102,
        102,
        102,
        102,
        102,
        102,
        102,
        102,
        102,
        102,
        102,
        102,
        102,
        102,
        102,
        102,
        102,
        102,
        102,
        102,
        102,
        102,
        102,
        102,
        102,
        102,
        102,
        102,
        102,
        102,
        102,
        102,
        102,
        103,
        103,
        103,
        103,
        103,
        103,
        103,
        103,
        103,
        103,
        103,
        103,
        103,
        104,
        104,
        104,
        104,
        104,
        104,
        104,
        104,
        104,
        104,
        104,
        104,
        104,
        104,
        104,
        104,
        104,
        104,
        104,
        0,
        0,
        0,
        0,
        0,
        0,
        0,
        0,
        0,
        0,
        0,
        0,
        0,
        0,
        0,
        0,
        0,
        0,
        102,
        102,
        102,
        102,
        102,
        102,
        102,
        102,
        102,
        102,
        102,
        102,
        102,
        102,
        102,
        102,
        102,
        102,
        102,
        102,
        102,
        102,
        102,
        102,
        102,
        102,
        102,
        102,
        102,
        102,
        102,
        102,
        102,
        102,
        102,
        102,
        102,
        102,
        102,
        102,
        102,
        102,
        102,
        102,
        102,
        102,
        102,
        102,
        102,
        102,
        102,
        102,
        102,
        102,
        102,
        102,
        102,
        102,
        102,
        102,
        102,
        102,
        102,
        102,
        102,
        102,
        102,
        102,
        102,
        102,
        102,
        102,
        102,
        102,
        102,
        102,
        103,
        103,
        103,
        103,
        103,
        103,
        103,
        103,
        103,
        103,
        103,
        103,
        103,
        104,
        104,
        104,
        104,
        104,
        104,
        104,
        104,
        104,
        104,
        104,
        104,
        104,
        104,
        104,
        104,
        104,
        104,
        104,
        0,
        0,
        0,
        0,
        0,
        0,
        0,
        0,
        0,
        0,
        0,
        0,
        0,
        0,
        0,
        0,
        0,
        0,
        102,
        102,
        102,
        102,
        102,
        102,
        102,
        102,
        102,
        102,
        102,
        102,
        102,
        102,
        102,
        102,
        102,
        102,
        102,
        102,
        102,
        102,
        102,
        102,
        102,
        102,
        102,
        102,
        102,
        102,
        102,
        102,
        102,
        102,
        102,
        102,
        102,
        102,
        102,
        102,
        102,
        102,
        102,
        102,
        102,
        102,
        102,
        102,
        102,
        102,
        102,
        102,
        102,
        102,
        102,
        102,
        102,
        102,
        102,
        102,
        102,
        102,
        102,
        102,
        102,
        102,
        102,
        102,
        102,
        102,
        102,
        102,
        102,
        102,
        102,
        102,
        103,
        103,
        103,
        103,
        103,
        103,
        103,
        103,
        103,
        103,
        103,
        103,
        103,
        104,
        104,
        104,
        104,
        104,
        104,
        104,
        104,
        104,
        104,
        104,
        104,
        104,
        104,
        104,
        104,
        104,
        104,
        104,
        0,
        0,
        0,
        0,
        0,
        0,
        0,
        0,
        0,
        0,
        0,
        0,
        0,
        0,
        0,
        0,
        0,
        0,
        102,
        102,
        102,
        102,
        102,
        102,
        102,
        102,
        102,
        102,
        102,
        102,
        102,
        102,
        102,
        102,
        102,
        102,
        102,
        102,
        102,
        102,
        102,
        102,
        102,
        102,
        102,
        102,
        102,
        102,
        102,
        102,
        102,
        102,
        102,
        102,
        102,
        102,
        102,
        102,
        102,
        102,
        102,
        102,
        102,
        102,
        102,
        102,
        102,
        102,
        102,
        102,
        102,
        102,
        102,
        102,
        102,
        102,
        102,
        102,
        102,
        102,
        102,
        102,
        102,
        102,
        102,
        102,
        102,
        102,
        102,
        102,
        102,
        102,
        102,
        102,
        103,
        103,
        103,
        103,
        103,
        103,
        103,
        103,
        103,
        103,
        103,
        103,
        103,
        104,
        104,
        104,
        104,
        104,
        104,
        104,
        104,
        104,
        104,
        104,
        104,
        104,
        104,
        104,
        104,
        104,
        104,
        104,
        0,
        0,
        0,
        0,
        0,
        0,
        0,
        0,
        0,
        0,
        0,
        0,
        0,
        0,
        0,
        0,
        0,
        0,
        102,
        102,
        102,
        102,
        102,
        102,
        102,
        102,
        102,
        102,
        102,
        102,
        102,
        102,
        102,
        102,
        102,
        102,
        102,
        102,
        102,
        102,
        102,
        102,
        102,
        102,
        102,
        102,
        102,
        102,
        102,
        102,
        102,
        102,
        102,
        102,
        102,
        102,
        102,
        102,
        102,
        102,
        102,
        102,
        102,
        102,
        102,
        102,
        102,
        102,
        102,
        102,
        102,
        102,
        102,
        102,
        102,
        102,
        102,
        102,
        102,
        102,
        102,
        102,
        102,
        102,
        102,
        102,
        102,
        102,
        102,
        102,
        102,
        102,
        102,
        102,
        103,
        103,
        103,
        103,
        103,
        103,
        103,
        103,
        103,
        103,
        103,
        103,
        103,
        104,
        104,
        104,
        104,
        104,
        104,
        104,
        104,
        104,
        104,
        104,
        104,
        104,
        104,
        104,
        104,
        104,
        104,
        104,
        0,
        0,
        0,
        0,
        0,
        0,
        0,
        0,
        0,
        0,
        0,
        0,
        0,
        0,
        0,
        0,
        0,
        0,
        102,
        102,
        102,
        102,
        102,
        102,
        102,
        102,
        102,
        102,
        102,
        102,
        102,
        102,
        102,
        102,
        102,
        102,
        102,
        102,
        102,
        102,
        102,
        102,
        102,
        102,
        102,
        102,
        102,
        102,
        102,
        102,
        102,
        102,
        102,
        102,
        102,
        102,
        102,
        102,
        102,
        102,
        102,
        102,
        102,
        102,
        102,
        102,
        102,
        102,
        102,
        102,
        102,
        102,
        102,
        102,
        102,
        102,
        102,
        102,
        102,
        102,
        102,
        102,
        102,
        102,
        102,
        102,
        102,
        102,
        102,
        102,
        102,
        102,
        102,
        102,
        102,
        102,
        102,
        102,
        102,
        102,
        102,
        102,
        102,
        102,
        102,
        102,
        103,
        104,
        104,
        104,
        104,
        104,
        104,
        104,
        104,
        104,
        104,
        104,
        104,
        104,
        104,
        104,
        104,
        104,
        104,
        104,
        104,
        0,
        0,
        0,
        0,
        0,
        0,
        0,
        0,
        0,
        0,
        0,
        0,
        0,
        0,
        0,
        0,
        0,
        102,
        102,
        102,
        102,
        102,
        102,
        102,
        102,
        102,
        102,
        102,
        102,
        102,
        102,
        102,
        102,
        102,
        102,
        102,
        102,
        102,
        102,
        102,
        102,
        102,
        102,
        102,
        102,
        102,
        102,
        102,
        102,
        102,
        102,
        102,
        102,
        102,
        102,
        102,
        102,
        102,
        102,
        102,
        102,
        102,
        102,
        102,
        102,
        102,
        102,
        102,
        102,
        102,
        102,
        102,
        102,
        102,
        102,
        102,
        102,
        102,
        102,
        102,
        102,
        102,
        102,
        102,
        102,
        102,
        102,
        102,
        102,
        102,
        102,
        102,
        102,
        102,
        102,
        102,
        102,
        102,
        102,
        102,
        102,
        102,
        102,
        102,
        102,
        103,
        104,
        104,
        104,
        104,
        104,
        104,
        104,
        104,
        104,
        104,
        104,
        104,
        104,
        104,
        104,
        104,
        104,
        104,
        104,
        104,
        0,
        0,
        0,
        0,
        0,
        0,
        0,
        0,
        0,
        0,
        0,
        0,
        0,
        0,
        0,
        0,
        0,
        102,
        102,
        102,
        102,
        102,
        102,
        102,
        102,
        102,
        102,
        102,
        102,
        102,
        102,
        102,
        102,
        102,
        102,
        102,
        102,
        102,
        102,
        102,
        102,
        102,
        102,
        102,
        102,
        102,
        102,
        102,
        102,
        102,
        102,
        102,
        102,
        102,
        102,
        102,
        102,
        102,
        102,
        102,
        102,
        102,
        102,
        102,
        102,
        102,
        102,
        102,
        102,
        102,
        102,
        102,
        102,
        102,
        102,
        102,
        102,
        102,
        102,
        102,
        102,
        102,
        102,
        102,
        102,
        102,
        102,
        102,
        102,
        102,
        102,
        102,
        102,
        102,
        102,
        102,
        102,
        102,
        102,
        102,
        102,
        102,
        102,
        102,
        102,
        103,
        104,
        104,
        104,
        104,
        104,
        104,
        104,
        104,
        104,
        104,
        104,
        104,
        104,
        104,
        104,
        104,
        104,
        104,
        104,
        104,
        0,
        0,
        0,
        0,
        0,
        0,
        0,
        0,
        0,
        0,
        0,
        0,
        0,
        0,
        0,
        0,
        0,
        102,
        102,
        102,
        102,
        102,
        102,
        102,
        102,
        102,
        102,
        102,
        102,
        102,
        102,
        102,
        102,
        102,
        102,
        102,
        102,
        102,
        102,
        102,
        102,
        102,
        102,
        102,
        102,
        102,
        102,
        102,
        102,
        102,
        102,
        102,
        102,
        102,
        102,
        102,
        102,
        102,
        102,
        102,
        102,
        102,
        102,
        102,
        102,
        102,
        102,
        102,
        102,
        102,
        102,
        102,
        102,
        102,
        102,
        102,
        102,
        102,
        102,
        102,
        102,
        102,
        102,
        102,
        102,
        102,
        102,
        102,
        102,
        102,
        102,
        102,
        102,
        102,
        102,
        102,
        102,
        102,
        102,
        102,
        102,
        102,
        102,
        102,
        102,
        103,
        104,
        104,
        104,
        104,
        104,
        104,
        104,
        104,
        104,
        104,
        104,
        104,
        104,
        104,
        104,
        104,
        104,
        104,
        104,
        104,
        0,
        0,
        0,
        0,
        0,
        0,
        0,
        0,
        0,
        0,
        0,
        0,
        0,
        0,
        0,
        0,
        102,
        102,
        102,
        102,
        102,
        102,
        102,
        102,
        102,
        102,
        102,
        102,
        102,
        102,
        102,
        102,
        102,
        102,
        102,
        102,
        102,
        102,
        102,
        102,
        102,
        102,
        102,
        102,
        102,
        102,
        102,
        102,
        102,
        102,
        102,
        102,
        102,
        102,
        102,
        102,
        102,
        102,
        102,
        102,
        102,
        102,
        102,
        102,
        102,
        102,
        102,
        102,
        102,
        102,
        102,
        102,
        102,
        102,
        102,
        102,
        102,
        102,
        102,
        102,
        102,
        102,
        102,
        102,
        102,
        102,
        102,
        102,
        102,
        102,
        102,
        102,
        102,
        102,
        102,
        102,
        102,
        102,
        102,
        102,
        102,
        102,
        102,
        102,
        102,
        103,
        104,
        104,
        104,
        104,
        104,
        104,
        104,
        104,
        104,
        104,
        104,
        104,
        104,
        104,
        104,
        104,
        104,
        104,
        104,
        104,
        0,
        0,
        0,
        0,
        0,
        0,
        0,
        0,
        0,
        0,
        0,
        0,
        0,
        0,
        0,
        0,
        102,
        102,
        102,
        102,
        102,
        102,
        102,
        102,
        102,
        102,
        102,
        102,
        102,
        102,
        102,
        102,
        102,
        102,
        102,
        102,
        102,
        102,
        102,
        102,
        102,
        102,
        102,
        102,
        102,
        102,
        102,
        102,
        102,
        102,
        102,
        102,
        102,
        102,
        102,
        102,
        102,
        102,
        102,
        102,
        102,
        102,
        102,
        102,
        102,
        102,
        102,
        102,
        102,
        102,
        102,
        102,
        102,
        102,
        102,
        102,
        102,
        102,
        102,
        102,
        102,
        102,
        102,
        102,
        102,
        102,
        102,
        102,
        102,
        102,
        102,
        102,
        102,
        102,
        102,
        102,
        102,
        102,
        102,
        102,
        102,
        102,
        102,
        102,
        102,
        103,
        104,
        104,
        104,
        104,
        104,
        104,
        104,
        104,
        104,
        104,
        104,
        104,
        104,
        104,
        104,
        104,
        104,
        104,
        104,
        104,
        0,
        0,
        0,
        0,
        0,
        0,
        0,
        0,
        0,
        0,
        0,
        0,
        0,
        0,
        0,
        102,
        102,
        102,
        102,
        102,
        102,
        102,
        102,
        102,
        102,
        102,
        102,
        102,
        102,
        102,
        102,
        102,
        102,
        102,
        102,
        102,
        102,
        102,
        102,
        102,
        102,
        102,
        102,
        102,
        102,
        102,
        102,
        102,
        102,
        102,
        102,
        102,
        102,
        102,
        102,
        102,
        102,
        102,
        102,
        102,
        102,
        102,
        102,
        102,
        102,
        102,
        102,
        102,
        102,
        102,
        102,
        102,
        102,
        102,
        102,
        102,
        102,
        102,
        102,
        102,
        102,
        102,
        102,
        102,
        102,
        102,
        102,
        102,
        102,
        102,
        102,
        102,
        102,
        102,
        102,
        102,
        102,
        102,
        102,
        102,
        102,
        102,
        102,
        102,
        102,
        103,
        104,
        104,
        104,
        104,
        104,
        104,
        104,
        104,
        104,
        104,
        104,
        104,
        104,
        104,
        104,
        104,
        104,
        104,
        104,
        104,
        0,
        0,
        0,
        0,
        0,
        0,
        0,
        0,
        0,
        0,
        0,
        0,
        0,
        0,
        0,
        102,
        102,
        102,
        102,
        102,
        102,
        102,
        102,
        102,
        102,
        102,
        102,
        102,
        102,
        102,
        102,
        102,
        102,
        102,
        102,
        102,
        102,
        102,
        102,
        102,
        102,
        102,
        102,
        102,
        102,
        102,
        102,
        102,
        102,
        102,
        102,
        102,
        102,
        102,
        102,
        102,
        102,
        102,
        102,
        102,
        102,
        102,
        102,
        102,
        102,
        102,
        102,
        102,
        102,
        102,
        102,
        102,
        102,
        102,
        102,
        102,
        102,
        102,
        102,
        102,
        102,
        102,
        102,
        102,
        102,
        102,
        102,
        102,
        102,
        102,
        102,
        102,
        102,
        102,
        102,
        102,
        102,
        102,
        102,
        102,
        102,
        102,
        102,
        102,
        102,
        103,
        104,
        104,
        104,
        104,
        104,
        104,
        104,
        104,
        104,
        104,
        104,
        104,
        104,
        104,
        104,
        104,
        104,
        104,
        104,
        104,
        0,
        0,
        0,
        0,
        0,
        0,
        0,
        0,
        0,
        0,
        0,
        0,
        0,
        0,
        0,
        102,
        102,
        102,
        102,
        102,
        102,
        102,
        102,
        102,
        102,
        102,
        102,
        102,
        102,
        102,
        102,
        102,
        102,
        102,
        102,
        102,
        102,
        102,
        102,
        102,
        102,
        102,
        102,
        102,
        102,
        102,
        102,
        102,
        102,
        102,
        102,
        102,
        102,
        102,
        102,
        102,
        102,
        102,
        102,
        102,
        102,
        102,
        102,
        102,
        102,
        102,
        102,
        102,
        102,
        102,
        102,
        102,
        102,
        102,
        102,
        102,
        102,
        102,
        102,
        102,
        102,
        102,
        102,
        102,
        102,
        102,
        102,
        102,
        102,
        102,
        102,
        102,
        102,
        102,
        102,
        102,
        102,
        102,
        102,
        102,
        102,
        102,
        102,
        102,
        102,
        103,
        104,
        104,
        104,
        104,
        104,
        104,
        104,
        104,
        104,
        104,
        104,
        104,
        104,
        104,
        104,
        104,
        104,
        104,
        104,
        104,
        0,
        0,
        0,
        0,
        0,
        0,
        0,
        0,
        0,
        0,
        0,
        0,
        0,
        0,
        0,
        102,
        102,
        102,
        102,
        102,
        102,
        102,
        102,
        102,
        102,
        102,
        102,
        102,
        102,
        102,
        102,
        102,
        102,
        102,
        102,
        102,
        102,
        102,
        102,
        102,
        102,
        102,
        102,
        102,
        102,
        102,
        102,
        102,
        102,
        102,
        102,
        102,
        102,
        102,
        102,
        102,
        102,
        102,
        102,
        102,
        102,
        102,
        102,
        102,
        102,
        102,
        102,
        102,
        102,
        102,
        102,
        102,
        102,
        102,
        102,
        102,
        102,
        102,
        102,
        102,
        102,
        102,
        102,
        102,
        102,
        102,
        102,
        102,
        102,
        102,
        102,
        102,
        102,
        102,
        102,
        102,
        102,
        102,
        102,
        102,
        102,
        102,
        102,
        102,
        102,
        103,
        104,
        104,
        104,
        104,
        104,
        104,
        104,
        104,
        104,
        104,
        104,
        104,
        104,
        104,
        104,
        104,
        104,
        104,
        104,
        104,
        0,
        0,
        0,
        0,
        0,
        0,
        0,
        0,
        0,
        0,
        0,
        0,
        0,
        0,
        102,
        102,
        102,
        102,
        102,
        102,
        102,
        102,
        102,
        102,
        102,
        102,
        102,
        102,
        102,
        102,
        102,
        102,
        102,
        102,
        102,
        102,
        102,
        102,
        102,
        102,
        102,
        102,
        102,
        102,
        102,
        102,
        102,
        102,
        102,
        102,
        102,
        102,
        102,
        102,
        102,
        102,
        102,
        102,
        102,
        102,
        102,
        102,
        102,
        102,
        102,
        102,
        102,
        102,
        102,
        102,
        102,
        102,
        102,
        102,
        102,
        102,
        102,
        102,
        102,
        102,
        102,
        102,
        102,
        102,
        102,
        102,
        102,
        102,
        102,
        102,
        102,
        102,
        102,
        102,
        102,
        102,
        102,
        102,
        102,
        102,
        102,
        102,
        102,
        102,
        102,
        103,
        104,
        104,
        104,
        104,
        104,
        104,
        104,
        104,
        104,
        104,
        104,
        104,
        104,
        104,
        104,
        104,
        104,
        104,
        104,
        104,
        0,
        0,
        0,
        0,
        0,
        0,
        0,
        0,
        0,
        0,
        0,
        0,
        0,
        0,
        102,
        102,
        102,
        102,
        102,
        102,
        102,
        102,
        102,
        102,
        102,
        102,
        102,
        102,
        102,
        102,
        102,
        102,
        102,
        102,
        102,
        102,
        102,
        102,
        102,
        102,
        102,
        102,
        102,
        102,
        102,
        102,
        102,
        102,
        102,
        102,
        102,
        102,
        102,
        102,
        102,
        102,
        102,
        102,
        102,
        102,
        102,
        102,
        102,
        102,
        102,
        102,
        102,
        102,
        102,
        102,
        102,
        102,
        102,
        102,
        102,
        102,
        102,
        102,
        102,
        102,
        102,
        102,
        102,
        102,
        102,
        102,
        102,
        102,
        102,
        102,
        102,
        102,
        102,
        102,
        102,
        102,
        102,
        102,
        102,
        102,
        102,
        102,
        102,
        102,
        102,
        103,
        104,
        104,
        104,
        104,
        104,
        104,
        104,
        104,
        104,
        104,
        104,
        104,
        104,
        104,
        104,
        104,
        104,
        104,
        104,
        104,
        0,
        0,
        0,
        0,
        0,
        0,
        0,
        0,
        0,
        0,
        0,
        0,
        0,
        102,
        102,
        102,
        102,
        102,
        102,
        102,
        102,
        102,
        102,
        102,
        102,
        102,
        102,
        102,
        102,
        102,
        102,
        102,
        102,
        102,
        102,
        102,
        102,
        102,
        102,
        102,
        102,
        102,
        102,
        102,
        102,
        102,
        102,
        102,
        102,
        102,
        102,
        102,
        102,
        102,
        102,
        102,
        102,
        102,
        102,
        102,
        102,
        102,
        102,
        102,
        102,
        102,
        102,
        102,
        102,
        102,
        102,
        102,
        102,
        102,
        102,
        102,
        102,
        102,
        102,
        102,
        102,
        102,
        102,
        102,
        102,
        102,
        102,
        102,
        102,
        102,
        102,
        102,
        102,
        102,
        102,
        102,
        102,
        102,
        102,
        102,
        102,
        102,
        102,
        102,
        102,
        103,
        104,
        104,
        104,
        104,
        104,
        104,
        104,
        104,
        104,
        104,
        104,
        104,
        104,
        104,
        104,
        104,
        104,
        104,
        104,
        104,
        0,
        0,
        0,
        0,
        0,
        0,
        0,
        0,
        0,
        0,
        0,
        0,
        0,
        102,
        102,
        102,
        102,
        102,
        102,
        102,
        102,
        102,
        102,
        102,
        102,
        102,
        102,
        102,
        102,
        102,
        102,
        102,
        102,
        102,
        102,
        102,
        102,
        102,
        102,
        102,
        102,
        102,
        102,
        102,
        102,
        102,
        102,
        102,
        102,
        102,
        102,
        102,
        102,
        102,
        102,
        102,
        102,
        102,
        102,
        102,
        102,
        102,
        102,
        102,
        102,
        102,
        102,
        102,
        102,
        102,
        102,
        102,
        102,
        102,
        102,
        102,
        102,
        102,
        102,
        102,
        102,
        102,
        102,
        102,
        102,
        102,
        102,
        102,
        102,
        102,
        102,
        102,
        102,
        102,
        102,
        102,
        102,
        102,
        102,
        102,
        102,
        102,
        102,
        102,
        102,
        103,
        104,
        104,
        104,
        104,
        104,
        104,
        104,
        104,
        104,
        104,
        104,
        104,
        104,
        104,
        104,
        104,
        104,
        104,
        104,
        104,
        0,
        0,
        0,
        0,
        0,
        0,
        0,
        0,
        0,
        0,
        0,
        0,
        0,
        102,
        102,
        102,
        102,
        102,
        102,
        102,
        102,
        102,
        102,
        102,
        102,
        102,
        102,
        102,
        102,
        102,
        102,
        102,
        102,
        102,
        102,
        102,
        102,
        102,
        102,
        102,
        102,
        102,
        102,
        102,
        102,
        102,
        102,
        102,
        102,
        102,
        102,
        102,
        102,
        102,
        102,
        102,
        102,
        102,
        102,
        102,
        102,
        102,
        102,
        102,
        102,
        102,
        102,
        102,
        102,
        102,
        102,
        102,
        102,
        102,
        102,
        102,
        102,
        102,
        102,
        102,
        102,
        102,
        102,
        102,
        102,
        102,
        102,
        102,
        102,
        102,
        102,
        102,
        102,
        102,
        102,
        102,
        102,
        102,
        102,
        102,
        102,
        102,
        102,
        102,
        102,
        103,
        104,
        104,
        104,
        104,
        104,
        104,
        104,
        104,
        104,
        104,
        104,
        104,
        104,
        104,
        104,
        104,
        104,
        104,
        104,
        104,
        0,
        0,
        0,
        0,
        0,
        0,
        0,
        0,
        0,
        0,
        0,
        0,
        0,
        102,
        102,
        102,
        102,
        102,
        102,
        102,
        102,
        102,
        102,
        102,
        102,
        102,
        102,
        102,
        102,
        102,
        102,
        102,
        102,
        102,
        102,
        102,
        102,
        102,
        102,
        102,
        102,
        102,
        102,
        102,
        102,
        102,
        102,
        102,
        102,
        102,
        102,
        102,
        102,
        102,
        102,
        102,
        102,
        102,
        102,
        102,
        102,
        102,
        102,
        102,
        102,
        102,
        102,
        102,
        102,
        102,
        102,
        102,
        102,
        102,
        102,
        102,
        102,
        102,
        102,
        102,
        102,
        102,
        102,
        102,
        102,
        102,
        102,
        102,
        102,
        102,
        102,
        102,
        102,
        102,
        102,
        102,
        102,
        102,
        102,
        102,
        102,
        102,
        102,
        102,
        102,
        103,
        104,
        104,
        104,
        104,
        104,
        104,
        104,
        104,
        104,
        104,
        104,
        104,
        104,
        104,
        104,
        104,
        104,
        104,
        104,
        104,
        0,
        0,
        0,
        0,
        0,
        0,
        0,
        0,
        0,
        0,
        0,
        0,
        0,
        102,
        102,
        102,
        102,
        102,
        102,
        102,
        102,
        102,
        102,
        102,
        102,
        102,
        102,
        102,
        102,
        102,
        102,
        102,
        102,
        102,
        102,
        102,
        102,
        102,
        102,
        102,
        102,
        102,
        102,
        102,
        102,
        102,
        102,
        102,
        102,
        102,
        102,
        102,
        102,
        102,
        102,
        102,
        102,
        102,
        102,
        102,
        102,
        102,
        102,
        102,
        102,
        102,
        102,
        102,
        102,
        102,
        102,
        102,
        102,
        102,
        102,
        102,
        102,
        102,
        102,
        102,
        102,
        102,
        102,
        102,
        102,
        102,
        102,
        102,
        102,
        102,
        102,
        102,
        102,
        102,
        102,
        102,
        102,
        102,
        102,
        102,
        102,
        102,
        102,
        102,
        102,
        103,
        104,
        104,
        104,
        104,
        104,
        104,
        104,
        104,
        104,
        104,
        104,
        104,
        104,
        104,
        104,
        104,
        104,
        104,
        104,
        0,
        0,
        0,
        0,
        0,
        0,
        0,
        0,
        0,
        0,
        0,
        0,
        0,
        0,
        102,
        102,
        102,
        102,
        102,
        102,
        102,
        102,
        102,
        102,
        102,
        102,
        102,
        102,
        102,
        102,
        102,
        102,
        102,
        102,
        102,
        102,
        102,
        102,
        102,
        102,
        102,
        102,
        102,
        102,
        102,
        102,
        102,
        102,
        102,
        102,
        102,
        102,
        102,
        102,
        102,
        102,
        102,
        102,
        102,
        102,
        102,
        102,
        102,
        102,
        102,
        102,
        102,
        102,
        102,
        102,
        102,
        102,
        102,
        102,
        102,
        102,
        102,
        102,
        102,
        102,
        102,
        102,
        102,
        102,
        102,
        102,
        102,
        102,
        102,
        102,
        102,
        102,
        102,
        102,
        102,
        102,
        102,
        102,
        102,
        102,
        102,
        102,
        102,
        102,
        102,
        102,
        103,
        104,
        104,
        104,
        104,
        104,
        104,
        104,
        104,
        104,
        104,
        104,
        104,
        104,
        104,
        104,
        104,
        104,
        104,
        104,
        0,
        0,
        0,
        0,
        0,
        0,
        0,
        0,
        0,
        0,
        0,
        0,
        0,
        0,
        102,
        102,
        102,
        102,
        102,
        102,
        102,
        102,
        102,
        102,
        102,
        102,
        102,
        102,
        102,
        102,
        102,
        102,
        102,
        102,
        102,
        102,
        102,
        102,
        102,
        102,
        102,
        102,
        102,
        102,
        102,
        102,
        102,
        102,
        102,
        102,
        102,
        102,
        102,
        102,
        102,
        102,
        102,
        102,
        102,
        102,
        102,
        102,
        102,
        102,
        102,
        102,
        102,
        102,
        102,
        102,
        102,
        102,
        102,
        102,
        102,
        102,
        102,
        102,
        102,
        102,
        102,
        102,
        102,
        102,
        102,
        102,
        102,
        102,
        102,
        102,
        102,
        102,
        102,
        102,
        102,
        102,
        102,
        102,
        102,
        102,
        102,
        102,
        102,
        102,
        102,
        102,
        103,
        104,
        104,
        104,
        104,
        104,
        104,
        104,
        104,
        104,
        104,
        104,
        104,
        104,
        104,
        104,
        104,
        104,
        104,
        104,
        0,
        0,
        0,
        0,
        0,
        0,
        0,
        0,
        0,
        0,
        0,
        0,
        0,
        0,
        102,
        102,
        102,
        102,
        102,
        102,
        102,
        102,
        102,
        102,
        102,
        102,
        102,
        102,
        102,
        102,
        102,
        102,
        102,
        102,
        102,
        102,
        102,
        102,
        102,
        102,
        102,
        102,
        102,
        102,
        102,
        102,
        102,
        102,
        102,
        102,
        102,
        102,
        102,
        102,
        102,
        102,
        102,
        102,
        102,
        102,
        102,
        102,
        102,
        102,
        102,
        102,
        102,
        102,
        102,
        102,
        102,
        102,
        102,
        102,
        102,
        102,
        102,
        102,
        102,
        102,
        102,
        102,
        102,
        102,
        102,
        102,
        102,
        102,
        102,
        102,
        102,
        102,
        102,
        102,
        102,
        102,
        102,
        102,
        102,
        102,
        102,
        102,
        102,
        102,
        102,
        102,
        103,
        104,
        104,
        104,
        104,
        104,
        104,
        104,
        104,
        104,
        104,
        104,
        104,
        104,
        104,
        104,
        104,
        104,
        104,
        104,
        0,
        0,
        0,
        0,
        0,
        0,
        0,
        0,
        0,
        0,
        0,
        0,
        0,
        0,
        102,
        102,
        102,
        102,
        102,
        102,
        102,
        102,
        102,
        102,
        102,
        102,
        102,
        102,
        102,
        102,
        102,
        102,
        102,
        102,
        102,
        102,
        102,
        102,
        102,
        102,
        102,
        102,
        102,
        102,
        102,
        102,
        102,
        102,
        102,
        102,
        102,
        102,
        102,
        102,
        102,
        102,
        102,
        102,
        102,
        102,
        102,
        102,
        102,
        102,
        102,
        102,
        102,
        102,
        102,
        102,
        102,
        102,
        102,
        102,
        102,
        102,
        102,
        102,
        102,
        102,
        102,
        102,
        102,
        102,
        102,
        102,
        102,
        102,
        102,
        102,
        102,
        102,
        102,
        102,
        102,
        102,
        102,
        102,
        102,
        102,
        102,
        102,
        102,
        102,
        102,
        102,
        103,
        104,
        104,
        104,
        104,
        104,
        104,
        104,
        104,
        104,
        104,
        104,
        104,
        104,
        104,
        104,
        104,
        104,
        104,
        104,
        0,
        0,
        0,
        0,
        0,
        0,
        0,
        0,
        0,
        0,
        0,
        0,
        0,
        0,
        0,
        102,
        102,
        102,
        102,
        102,
        102,
        102,
        102,
        102,
        102,
        102,
        102,
        102,
        102,
        102,
        102,
        102,
        102,
        102,
        102,
        102,
        102,
        102,
        102,
        102,
        102,
        102,
        102,
        102,
        102,
        102,
        102,
        102,
        102,
        102,
        102,
        102,
        102,
        102,
        102,
        102,
        102,
        102,
        102,
        102,
        102,
        102,
        102,
        102,
        102,
        102,
        102,
        102,
        102,
        102,
        102,
        102,
        102,
        102,
        102,
        102,
        102,
        102,
        102,
        102,
        102,
        102,
        102,
        102,
        102,
        102,
        102,
        102,
        102,
        102,
        102,
        102,
        102,
        102,
        102,
        102,
        102,
        102,
        102,
        102,
        102,
        102,
        102,
        102,
        102,
        102,
        103,
        104,
        104,
        104,
        104,
        104,
        104,
        104,
        104,
        104,
        104,
        104,
        104,
        104,
        104,
        104,
        104,
        104,
        104,
        104,
        0,
        0,
        0,
        0,
        0,
        0,
        0,
        0,
        0,
        0,
        0,
        0,
        0,
        0,
        0,
        102,
        102,
        102,
        102,
        102,
        102,
        102,
        102,
        102,
        102,
        102,
        102,
        102,
        102,
        102,
        102,
        102,
        102,
        102,
        102,
        102,
        102,
        102,
        102,
        102,
        102,
        102,
        102,
        102,
        102,
        102,
        102,
        102,
        102,
        102,
        102,
        102,
        102,
        102,
        102,
        102,
        102,
        102,
        102,
        102,
        102,
        102,
        102,
        102,
        102,
        102,
        102,
        102,
        102,
        102,
        102,
        102,
        102,
        102,
        102,
        102,
        102,
        102,
        102,
        102,
        102,
        102,
        102,
        102,
        102,
        102,
        102,
        102,
        102,
        102,
        102,
        102,
        102,
        102,
        102,
        102,
        102,
        102,
        102,
        102,
        102,
        102,
        102,
        102,
        102,
        102,
        103,
        104,
        104,
        104,
        104,
        104,
        104,
        104,
        104,
        104,
        104,
        104,
        104,
        104,
        104,
        104,
        104,
        104,
        104,
        104,
        0,
        0,
        0,
        0,
        0,
        0,
        0,
        0,
        0,
        0,
        0,
        0,
        0,
        0,
        0,
        0,
        102,
        102,
        102,
        102,
        102,
        102,
        102,
        102,
        102,
        102,
        102,
        102,
        102,
        102,
        102,
        102,
        102,
        102,
        102,
        102,
        102,
        102,
        102,
        102,
        102,
        102,
        102,
        102,
        102,
        102,
        102,
        102,
        102,
        102,
        102,
        102,
        102,
        102,
        102,
        102,
        102,
        102,
        102,
        102,
        102,
        102,
        102,
        102,
        102,
        102,
        102,
        102,
        102,
        102,
        102,
        102,
        102,
        102,
        102,
        102,
        102,
        102,
        102,
        102,
        102,
        102,
        102,
        102,
        102,
        102,
        102,
        102,
        102,
        102,
        102,
        102,
        102,
        102,
        103,
        103,
        103,
        103,
        103,
        103,
        103,
        103,
        103,
        103,
        103,
        103,
        103,
        104,
        104,
        104,
        104,
        104,
        104,
        104,
        104,
        104,
        104,
        104,
        104,
        104,
        104,
        104,
        104,
        104,
        104,
        104,
        0,
        0,
        0,
        0,
        0,
        0,
        0,
        0,
        0,
        0,
        0,
        0,
        0,
        0,
        0,
        0,
        102,
        102,
        102,
        102,
        102,
        102,
        102,
        102,
        102,
        102,
        102,
        102,
        102,
        102,
        102,
        102,
        102,
        102,
        102,
        102,
        102,
        102,
        102,
        102,
        102,
        102,
        102,
        102,
        102,
        102,
        102,
        102,
        102,
        102,
        102,
        102,
        102,
        102,
        102,
        102,
        102,
        102,
        102,
        102,
        102,
        102,
        102,
        102,
        102,
        102,
        102,
        102,
        102,
        102,
        102,
        102,
        102,
        102,
        102,
        102,
        102,
        102,
        102,
        102,
        102,
        102,
        102,
        102,
        102,
        102,
        102,
        102,
        102,
        102,
        102,
        102,
        102,
        102,
        103,
        103,
        103,
        103,
        103,
        103,
        103,
        103,
        103,
        103,
        103,
        103,
        103,
        104,
        104,
        104,
        104,
        104,
        104,
        104,
        104,
        104,
        104,
        104,
        104,
        104,
        104,
        104,
        104,
        104,
        104,
        0,
        0,
        0,
        0,
        0,
        0,
        0,
        0,
        0,
        0,
        0,
        0,
        0,
        0,
        0,
        0,
        0,
        102,
        102,
        102,
        102,
        102,
        102,
        102,
        102,
        102,
        102,
        102,
        102,
        102,
        102,
        102,
        102,
        102,
        102,
        102,
        102,
        102,
        102,
        102,
        102,
        102,
        102,
        102,
        102,
        102,
        102,
        102,
        102,
        102,
        102,
        102,
        102,
        102,
        102,
        102,
        102,
        102,
        102,
        102,
        102,
        102,
        102,
        102,
        102,
        102,
        102,
        102,
        102,
        102,
        102,
        102,
        102,
        102,
        102,
        102,
        102,
        102,
        102,
        102,
        102,
        102,
        102,
        102,
        102,
        102,
        102,
        102,
        102,
        102,
        102,
        102,
        102,
        102,
        102,
        103,
        103,
        103,
        103,
        103,
        103,
        103,
        103,
        103,
        103,
        103,
        103,
        103,
        104,
        104,
        104,
        104,
        104,
        104,
        104,
        104,
        104,
        104,
        104,
        104,
        104,
        104,
        104,
        104,
        104,
        104,
        0,
        0,
        0,
        0,
        0,
        0,
        0,
        0,
        0,
        0,
        0,
        0,
        0,
        0,
        0,
        0,
        0,
        0,
        102,
        102,
        102,
        102,
        102,
        102,
        102,
        102,
        102,
        102,
        102,
        102,
        102,
        102,
        102,
        102,
        102,
        102,
        102,
        102,
        102,
        102,
        102,
        102,
        102,
        102,
        102,
        102,
        102,
        102,
        102,
        102,
        102,
        102,
        102,
        102,
        102,
        102,
        102,
        102,
        102,
        102,
        102,
        102,
        102,
        102,
        102,
        102,
        102,
        102,
        102,
        102,
        102,
        102,
        102,
        102,
        102,
        102,
        102,
        102,
        102,
        102,
        102,
        102,
        102,
        102,
        102,
        102,
        102,
        102,
        102,
        102,
        102,
        102,
        102,
        102,
        102,
        103,
        103,
        103,
        103,
        103,
        103,
        103,
        103,
        103,
        103,
        103,
        103,
        103,
        104,
        104,
        104,
        104,
        104,
        104,
        104,
        104,
        104,
        104,
        104,
        104,
        104,
        104,
        104,
        104,
        104,
        104,
        0,
        0,
        0,
        0,
        0,
        0,
        0,
        0,
        0,
        0,
        0,
        0,
        0,
        0,
        0,
        0,
        0,
        0,
        102,
        102,
        102,
        102,
        102,
        102,
        102,
        102,
        102,
        102,
        102,
        102,
        102,
        102,
        102,
        102,
        102,
        102,
        102,
        102,
        102,
        102,
        102,
        102,
        102,
        102,
        102,
        102,
        102,
        102,
        102,
        102,
        102,
        102,
        102,
        102,
        102,
        102,
        102,
        102,
        102,
        102,
        102,
        102,
        102,
        102,
        102,
        102,
        102,
        102,
        102,
        102,
        102,
        102,
        102,
        102,
        102,
        102,
        102,
        102,
        102,
        102,
        102,
        102,
        102,
        102,
        102,
        102,
        102,
        102,
        102,
        102,
        102,
        102,
        102,
        102,
        102,
        103,
        103,
        103,
        103,
        103,
        103,
        103,
        103,
        103,
        103,
        103,
        103,
        103,
        104,
        104,
        104,
        104,
        104,
        104,
        104,
        104,
        104,
        104,
        104,
        104,
        104,
        104,
        104,
        104,
        104,
        104,
        0,
        0,
        0,
        0,
        0,
        0,
        0,
        0,
        0,
        0,
        0,
        0,
        0,
        0,
        0,
        0,
        0,
        0,
        0,
        102,
        102,
        102,
        102,
        102,
        102,
        102,
        102,
        102,
        102,
        102,
        102,
        102,
        102,
        102,
        102,
        102,
        102,
        102,
        102,
        102,
        102,
        102,
        102,
        102,
        102,
        102,
        102,
        102,
        102,
        102,
        102,
        102,
        102,
        102,
        102,
        102,
        102,
        102,
        102,
        102,
        102,
        102,
        102,
        102,
        102,
        102,
        102,
        102,
        102,
        102,
        102,
        102,
        102,
        102,
        102,
        102,
        102,
        102,
        102,
        102,
        102,
        102,
        102,
        102,
        102,
        102,
        102,
        102,
        102,
        102,
        102,
        102,
        102,
        102,
        102,
        103,
        103,
        103,
        103,
        103,
        103,
        103,
        103,
        103,
        103,
        103,
        103,
        103,
        104,
        104,
        104,
        104,
        104,
        104,
        104,
        104,
        104,
        104,
        104,
        104,
        104,
        104,
        104,
        104,
        104,
        104,
        0,
        0,
        0,
        0,
        0,
        0,
        0,
        0,
        0,
        0,
        0,
        0,
        0,
        0,
        0,
        0,
        0,
        0,
        0,
        102,
        102,
        102,
        102,
        102,
        102,
        102,
        102,
        102,
        102,
        102,
        102,
        102,
        102,
        102,
        102,
        102,
        102,
        102,
        102,
        102,
        102,
        102,
        102,
        102,
        102,
        102,
        102,
        102,
        102,
        102,
        102,
        102,
        102,
        102,
        102,
        102,
        102,
        102,
        102,
        102,
        102,
        102,
        102,
        102,
        102,
        102,
        102,
        102,
        102,
        102,
        102,
        102,
        102,
        102,
        102,
        102,
        102,
        102,
        102,
        102,
        102,
        102,
        102,
        102,
        102,
        102,
        102,
        102,
        102,
        102,
        102,
        102,
        102,
        102,
        102,
        103,
        103,
        103,
        103,
        103,
        103,
        103,
        103,
        103,
        103,
        103,
        103,
        103,
        104,
        104,
        104,
        104,
        104,
        104,
        104,
        104,
        104,
        104,
        104,
        104,
        104,
        104,
        104,
        104,
        104,
        104,
        0,
        0,
        0,
        0,
        0,
        0,
        0,
        0,
        0,
        0,
        0,
        0,
        0,
        0,
        0,
        0,
        0,
        0,
        0,
        102,
        102,
        102,
        102,
        102,
        102,
        102,
        102,
        102,
        102,
        102,
        102,
        102,
        102,
        102,
        102,
        102,
        102,
        102,
        102,
        102,
        102,
        102,
        102,
        102,
        102,
        102,
        102,
        102,
        102,
        102,
        102,
        102,
        102,
        102,
        102,
        102,
        102,
        102,
        102,
        102,
        102,
        102,
        102,
        102,
        102,
        102,
        102,
        102,
        102,
        102,
        102,
        102,
        102,
        102,
        102,
        102,
        102,
        102,
        102,
        102,
        102,
        102,
        102,
        102,
        102,
        102,
        102,
        102,
        102,
        102,
        102,
        102,
        102,
        102,
        102,
        103,
        103,
        103,
        103,
        103,
        103,
        103,
        103,
        103,
        103,
        103,
        103,
        103,
        104,
        104,
        104,
        104,
        104,
        104,
        104,
        104,
        104,
        104,
        104,
        104,
        104,
        104,
        104,
        104,
        104,
        104,
        0,
        0,
        0,
        0,
        0,
        0,
        0,
        0,
        0,
        0,
        0,
        0,
        0,
        0,
        0,
        0,
        0,
        0,
        0,
        102,
        102,
        102,
        102,
        102,
        102,
        102,
        102,
        102,
        102,
        102,
        102,
        102,
        102,
        102,
        102,
        102,
        102,
        102,
        102,
        102,
        102,
        102,
        102,
        102,
        102,
        102,
        102,
        102,
        102,
        102,
        102,
        102,
        102,
        102,
        102,
        102,
        102,
        102,
        102,
        102,
        102,
        102,
        102,
        102,
        102,
        102,
        102,
        102,
        102,
        102,
        102,
        102,
        102,
        102,
        102,
        102,
        102,
        102,
        102,
        102,
        102,
        102,
        102,
        102,
        102,
        102,
        102,
        102,
        102,
        102,
        102,
        102,
        102,
        102,
        102,
        103,
        103,
        103,
        103,
        103,
        103,
        103,
        103,
        103,
        103,
        103,
        103,
        103,
        104,
        104,
        104,
        104,
        104,
        104,
        104,
        104,
        104,
        104,
        104,
        104,
        104,
        104,
        104,
        104,
        104,
        104,
        0,
        0,
        0,
        0,
        0,
        0,
        0,
        0,
        0,
        0,
        0,
        0,
        0,
        0,
        0,
        0,
        0,
        0,
        0,
        102,
        102,
        102,
        102,
        102,
        102,
        102,
        102,
        102,
        102,
        102,
        102,
        102,
        102,
        102,
        102,
        102,
        102,
        102,
        102,
        102,
        102,
        102,
        102,
        102,
        102,
        102,
        102,
        102,
        102,
        102,
        102,
        102,
        102,
        102,
        102,
        102,
        102,
        102,
        102,
        102,
        102,
        102,
        102,
        102,
        102,
        102,
        102,
        102,
        102,
        102,
        102,
        102,
        102,
        102,
        102,
        102,
        102,
        102,
        102,
        102,
        102,
        102,
        102,
        102,
        102,
        102,
        102,
        102,
        102,
        102,
        102,
        102,
        102,
        102,
        102,
        103,
        103,
        103,
        103,
        103,
        103,
        103,
        103,
        103,
        103,
        103,
        103,
        103,
        104,
        104,
        104,
        104,
        104,
        104,
        104,
        104,
        104,
        104,
        104,
        104,
        104,
        104,
        104,
        104,
        104,
        104,
        0,
        0,
        0,
        0,
        0,
        0,
        0,
        0,
        0,
        0,
        0,
        0,
        0,
        0,
        0,
        0,
        0,
        0,
        0,
        102,
        102,
        102,
        102,
        102,
        102,
        102,
        102,
        102,
        102,
        102,
        102,
        102,
        102,
        102,
        102,
        102,
        102,
        102,
        102,
        102,
        102,
        102,
        102,
        102,
        102,
        102,
        102,
        102,
        102,
        102,
        102,
        102,
        102,
        102,
        102,
        102,
        102,
        102,
        102,
        102,
        102,
        102,
        102,
        102,
        102,
        102,
        102,
        102,
        102,
        102,
        102,
        102,
        102,
        102,
        102,
        102,
        102,
        102,
        102,
        102,
        102,
        102,
        102,
        102,
        102,
        102,
        102,
        102,
        102,
        102,
        102,
        102,
        102,
        102,
        102,
        103,
        103,
        103,
        103,
        103,
        103,
        103,
        103,
        103,
        103,
        103,
        103,
        103,
        104,
        104,
        104,
        104,
        104,
        104,
        104,
        104,
        104,
        104,
        104,
        104,
        104,
        104,
        104,
        104,
        104,
        104,
        0,
        0,
        0,
        0,
        0,
        0,
        0,
        0,
        0,
        0,
        0,
        0,
        0,
        0,
        0,
        0,
        0,
        0,
        0,
        102,
        102,
        102,
        102,
        102,
        102,
        102,
        102,
        102,
        102,
        102,
        102,
        102,
        102,
        102,
        102,
        102,
        102,
        102,
        102,
        102,
        102,
        102,
        102,
        102,
        102,
        102,
        102,
        102,
        102,
        102,
        102,
        102,
        102,
        102,
        102,
        102,
        102,
        102,
        102,
        102,
        102,
        102,
        102,
        102,
        102,
        102,
        102,
        102,
        102,
        102,
        102,
        102,
        102,
        102,
        102,
        102,
        102,
        102,
        102,
        102,
        102,
        102,
        102,
        102,
        102,
        102,
        102,
        102,
        102,
        102,
        102,
        102,
        102,
        102,
        102,
        103,
        103,
        103,
        103,
        103,
        103,
        103,
        103,
        103,
        103,
        103,
        103,
        103,
        104,
        104,
        104,
        104,
        104,
        104,
        104,
        104,
        104,
        104,
        104,
        104,
        104,
        104,
        104,
        104,
        104,
        104,
        0,
        0,
        0,
        0,
        0,
        0,
        0,
        0,
        0,
        0,
        0,
        0,
        0,
        0,
        0,
        0,
        0,
        0,
        0,
        102,
        102,
        102,
        102,
        102,
        102,
        102,
        102,
        102,
        102,
        102,
        102,
        102,
        102,
        102,
        102,
        102,
        102,
        102,
        102,
        102,
        102,
        102,
        102,
        102,
        102,
        102,
        102,
        102,
        102,
        102,
        102,
        102,
        102,
        102,
        102,
        102,
        102,
        102,
        102,
        102,
        102,
        102,
        102,
        102,
        102,
        102,
        102,
        102,
        102,
        102,
        102,
        102,
        102,
        102,
        102,
        102,
        102,
        102,
        102,
        102,
        102,
        102,
        102,
        102,
        102,
        102,
        102,
        102,
        102,
        102,
        102,
        102,
        102,
        102,
        102,
        103,
        103,
        103,
        103,
        103,
        103,
        103,
        103,
        103,
        103,
        103,
        103,
        103,
        104,
        104,
        104,
        104,
        104,
        104,
        104,
        104,
        104,
        104,
        104,
        104,
        104,
        104,
        104,
        104,
        104,
        104,
        0,
        0,
        0,
        0,
        0,
        0,
        0,
        0,
        0,
        0,
        0,
        0,
        0,
        0,
        0,
        0,
        0,
        0,
        0,
        102,
        102,
        102,
        102,
        102,
        102,
        102,
        102,
        102,
        102,
        102,
        102,
        102,
        102,
        102,
        102,
        102,
        102,
        102,
        102,
        102,
        102,
        102,
        102,
        102,
        102,
        102,
        102,
        102,
        102,
        102,
        102,
        102,
        102,
        102,
        102,
        102,
        102,
        102,
        102,
        102,
        102,
        102,
        102,
        102,
        102,
        102,
        102,
        102,
        102,
        102,
        102,
        102,
        102,
        102,
        102,
        102,
        102,
        102,
        102,
        102,
        102,
        102,
        102,
        102,
        102,
        102,
        102,
        102,
        102,
        102,
        102,
        102,
        102,
        102,
        102,
        103,
        103,
        103,
        103,
        103,
        103,
        103,
        103,
        103,
        103,
        103,
        103,
        103,
        104,
        104,
        104,
        104,
        104,
        104,
        104,
        104,
        104,
        104,
        104,
        104,
        104,
        104,
        104,
        104,
        104,
        104,
        0,
        0,
        0,
        0,
        0,
        0,
        0,
        0,
        0,
        0,
        0,
        0,
        0,
        0,
        0,
        0,
        0,
        0,
        102,
        102,
        102,
        102,
        102,
        102,
        102,
        102,
        102,
        102,
        102,
        102,
        102,
        102,
        102,
        102,
        102,
        102,
        102,
        102,
        102,
        102,
        102,
        102,
        102,
        102,
        102,
        102,
        102,
        102,
        102,
        102,
        102,
        102,
        102,
        102,
        102,
        102,
        102,
        102,
        102,
        102,
        102,
        102,
        102,
        102,
        102,
        102,
        102,
        102,
        102,
        102,
        102,
        102,
        102,
        102,
        102,
        102,
        102,
        102,
        102,
        102,
        102,
        102,
        102,
        102,
        102,
        102,
        102,
        102,
        102,
        102,
        102,
        102,
        102,
        102,
        102,
        103,
        103,
        103,
        103,
        103,
        103,
        103,
        103,
        103,
        103,
        103,
        103,
        103,
        104,
        104,
        104,
        104,
        104,
        104,
        104,
        104,
        104,
        104,
        104,
        104,
        104,
        104,
        104,
        104,
        104,
        104,
        0,
        0,
        0,
        0,
        0,
        0,
        0,
        0,
        0,
        0,
        0,
        0,
        0,
        0,
        0,
        0,
        0,
        0,
        102,
        102,
        102,
        102,
        102,
        102,
        102,
        102,
        102,
        102,
        102,
        102,
        102,
        102,
        102,
        102,
        102,
        102,
        102,
        102,
        102,
        102,
        102,
        102,
        102,
        102,
        102,
        102,
        102,
        102,
        102,
        102,
        102,
        102,
        102,
        102,
        102,
        102,
        102,
        102,
        102,
        102,
        102,
        102,
        102,
        102,
        102,
        102,
        102,
        102,
        102,
        102,
        102,
        102,
        102,
        102,
        102,
        102,
        102,
        102,
        102,
        102,
        102,
        102,
        102,
        102,
        102,
        102,
        102,
        102,
        102,
        102,
        102,
        102,
        102,
        102,
        102,
        103,
        103,
        103,
        103,
        103,
        103,
        103,
        103,
        103,
        103,
        103,
        103,
        103,
        104,
        104,
        104,
        104,
        104,
        104,
        104,
        104,
        104,
        104,
        104,
        104,
        104,
        104,
        104,
        104,
        104,
        104,
        0,
        0,
        0,
        0,
        0,
        0,
        0,
        0,
        0,
        0,
        0,
        0,
        0,
        0,
        0,
        0,
        0,
        102,
        102,
        102,
        102,
        102,
        102,
        102,
        102,
        102,
        102,
        102,
        102,
        102,
        102,
        102,
        102,
        102,
        102,
        102,
        102,
        102,
        102,
        102,
        102,
        102,
        102,
        102,
        102,
        102,
        102,
        102,
        102,
        102,
        102,
        102,
        102,
        102,
        102,
        102,
        102,
        102,
        102,
        102,
        102,
        102,
        102,
        102,
        102,
        102,
        102,
        102,
        102,
        102,
        102,
        102,
        102,
        102,
        102,
        102,
        102,
        102,
        102,
        102,
        102,
        102,
        102,
        102,
        102,
        102,
        102,
        102,
        102,
        102,
        102,
        102,
        102,
        102,
        102,
        103,
        103,
        103,
        103,
        103,
        103,
        103,
        103,
        103,
        103,
        103,
        103,
        103,
        104,
        104,
        104,
        104,
        104,
        104,
        104,
        104,
        104,
        104,
        104,
        104,
        104,
        104,
        104,
        104,
        104,
        104,
        0,
        0,
        0,
        0,
        0,
        0,
        0,
        0,
        0,
        0,
        0,
        0,
        0,
        0,
        0,
        0,
        0,
        102,
        102,
        102,
        102,
        102,
        102,
        102,
        102,
        102,
        102,
        102,
        102,
        102,
        102,
        102,
        102,
        102,
        102,
        102,
        102,
        102,
        102,
        102,
        102,
        102,
        102,
        102,
        102,
        102,
        102,
        102,
        102,
        102,
        102,
        102,
        102,
        102,
        102,
        102,
        102,
        102,
        102,
        102,
        102,
        102,
        102,
        102,
        102,
        102,
        102,
        102,
        102,
        102,
        102,
        102,
        102,
        102,
        102,
        102,
        102,
        102,
        102,
        102,
        102,
        102,
        102,
        102,
        102,
        102,
        102,
        102,
        102,
        102,
        102,
        102,
        102,
        102,
        102,
        103,
        103,
        103,
        103,
        103,
        103,
        103,
        103,
        103,
        103,
        103,
        103,
        103,
        104,
        104,
        104,
        104,
        104,
        104,
        104,
        104,
        104,
        104,
        104,
        104,
        104,
        104,
        104,
        104,
        104,
        104,
        104,
        0,
        0,
        0,
        0,
        0,
        0,
        0,
        0,
        0,
        0,
        0,
        0,
        0,
        0,
        0,
        0,
        102,
        102,
        102,
        102,
        102,
        102,
        102,
        102,
        102,
        102,
        102,
        102,
        102,
        102,
        102,
        102,
        102,
        102,
        102,
        102,
        102,
        102,
        102,
        102,
        102,
        102,
        102,
        102,
        102,
        102,
        102,
        102,
        102,
        102,
        102,
        102,
        102,
        102,
        102,
        102,
        102,
        102,
        102,
        102,
        102,
        102,
        102,
        102,
        102,
        102,
        102,
        102,
        102,
        102,
        102,
        102,
        102,
        102,
        102,
        102,
        102,
        102,
        102,
        102,
        102,
        102,
        102,
        102,
        102,
        102,
        102,
        102,
        102,
        102,
        102,
        102,
        102,
        102,
        103,
        103,
        103,
        103,
        103,
        103,
        103,
        103,
        103,
        103,
        103,
        103,
        103,
        104,
        104,
        104,
        104,
        104,
        104,
        104,
        104,
        104,
        104,
        104,
        104,
        104,
        104,
        104,
        104,
        104,
        104,
        104,
        0,
        0,
        0,
        0,
        0,
        0,
        0,
        0,
        0,
        0,
        0,
        0,
        0,
        0,
        0,
        0,
        102,
        102,
        102,
        102,
        102,
        102,
        102,
        102,
        102,
        102,
        102,
        102,
        102,
        102,
        102,
        102,
        102,
        102,
        102,
        102,
        102,
        102,
        102,
        102,
        102,
        102,
        102,
        102,
        102,
        102,
        102,
        102,
        102,
        102,
        102,
        102,
        102,
        102,
        102,
        102,
        102,
        102,
        102,
        102,
        102,
        102,
        102,
        102,
        102,
        102,
        102,
        102,
        102,
        102,
        102,
        102,
        102,
        102,
        102,
        102,
        102,
        102,
        102,
        102,
        102,
        102,
        102,
        102,
        102,
        102,
        102,
        102,
        102,
        102,
        102,
        102,
        102,
        102,
        103,
        103,
        103,
        103,
        103,
        103,
        103,
        103,
        103,
        103,
        103,
        103,
        103,
        104,
        104,
        104,
        104,
        104,
        104,
        104,
        104,
        104,
        104,
        104,
        104,
        104,
        104,
        104,
        104,
        104,
        104,
        104,
        0,
        0,
        0,
        0,
        0,
        0,
        0,
        0,
        0,
        0,
        0,
        0,
        0,
        0,
        0,
        102,
        102,
        102,
        102,
        102,
        102,
        102,
        102,
        102,
        102,
        102,
        102,
        102,
        102,
        102,
        102,
        102,
        102,
        102,
        102,
        102,
        102,
        102,
        102,
        102,
        102,
        102,
        102,
        102,
        102,
        102,
        102,
        102,
        102,
        102,
        102,
        102,
        102,
        102,
        102,
        102,
        102,
        102,
        102,
        102,
        102,
        102,
        102,
        102,
        102,
        102,
        102,
        102,
        102,
        102,
        102,
        102,
        102,
        102,
        102,
        102,
        102,
        102,
        102,
        102,
        102,
        102,
        102,
        102,
        102,
        102,
        102,
        102,
        102,
        102,
        102,
        102,
        102,
        102,
        103,
        103,
        103,
        103,
        103,
        103,
        103,
        103,
        103,
        103,
        103,
        103,
        103,
        104,
        104,
        104,
        104,
        104,
        104,
        104,
        104,
        104,
        104,
        104,
        104,
        104,
        104,
        104,
        104,
        104,
        104,
        104,
        0,
        0,
        0,
        0,
        0,
        0,
        0,
        0,
        0,
        0,
        0,
        0,
        0,
        0,
        0,
        102,
        102,
        102,
        102,
        102,
        102,
        102,
        102,
        102,
        102,
        102,
        102,
        102,
        102,
        102,
        102,
        102,
        102,
        102,
        102,
        102,
        102,
        102,
        102,
        102,
        102,
        102,
        102,
        102,
        102,
        102,
        102,
        102,
        102,
        102,
        102,
        102,
        102,
        102,
        102,
        102,
        102,
        102,
        102,
        102,
        102,
        102,
        102,
        102,
        102,
        102,
        102,
        102,
        102,
        102,
        102,
        102,
        102,
        102,
        102,
        102,
        102,
        102,
        102,
        102,
        102,
        102,
        102,
        102,
        102,
        102,
        102,
        102,
        102,
        102,
        102,
        102,
        102,
        102,
        103,
        103,
        103,
        103,
        103,
        103,
        103,
        103,
        103,
        103,
        103,
        103,
        103,
        104,
        104,
        104,
        104,
        104,
        104,
        104,
        104,
        104,
        104,
        104,
        104,
        104,
        104,
        104,
        104,
        104,
        104,
        104,
        0,
        0,
        0,
        0,
        0,
        0,
        0,
        0,
        0,
        0,
        0,
        0,
        0,
        0,
        102,
        102,
        102,
        102,
        102,
        102,
        102,
        102,
        102,
        102,
        102,
        102,
        102,
        102,
        102,
        102,
        102,
        102,
        102,
        102,
        102,
        102,
        102,
        102,
        102,
        102,
        102,
        102,
        102,
        102,
        102,
        102,
        102,
        102,
        102,
        102,
        102,
        102,
        102,
        102,
        102,
        102,
        102,
        102,
        102,
        102,
        102,
        102,
        102,
        102,
        102,
        102,
        102,
        102,
        102,
        102,
        102,
        102,
        102,
        102,
        102,
        102,
        102,
        102,
        102,
        102,
        102,
        102,
        102,
        102,
        102,
        102,
        102,
        102,
        102,
        102,
        102,
        102,
        102,
        102,
        103,
        103,
        103,
        103,
        103,
        103,
        103,
        103,
        103,
        103,
        103,
        103,
        103,
        104,
        104,
        104,
        104,
        104,
        104,
        104,
        104,
        104,
        104,
        104,
        104,
        104,
        104,
        104,
        104,
        104,
        104,
        104,
        0,
        0,
        0,
        0,
        0,
        0,
        0,
        0,
        0,
        0,
        0,
        0,
        0,
        0,
        102,
        102,
        102,
        102,
        102,
        102,
        102,
        102,
        102,
        102,
        102,
        102,
        102,
        102,
        102,
        102,
        102,
        102,
        102,
        102,
        102,
        102,
        102,
        102,
        102,
        102,
        102,
        102,
        102,
        102,
        102,
        102,
        102,
        102,
        102,
        102,
        102,
        102,
        102,
        102,
        102,
        102,
        102,
        102,
        102,
        102,
        102,
        102,
        102,
        102,
        102,
        102,
        102,
        102,
        102,
        102,
        102,
        102,
        102,
        102,
        102,
        102,
        102,
        102,
        102,
        102,
        102,
        102,
        102,
        102,
        102,
        102,
        102,
        102,
        102,
        102,
        102,
        102,
        102,
        102,
        103,
        103,
        103,
        103,
        103,
        103,
        103,
        103,
        103,
        103,
        103,
        103,
        103,
        104,
        104,
        104,
        104,
        104,
        104,
        104,
        104,
        104,
        104,
        104,
        104,
        104,
        104,
        104,
        104,
        104,
        104,
        104,
        0,
        0,
        0,
        0,
        0,
        0,
        0,
        0,
        0,
        0,
        0,
        0,
        0,
        0,
        102,
        102,
        102,
        102,
        102,
        102,
        102,
        102,
        102,
        102,
        102,
        102,
        102,
        102,
        102,
        102,
        102,
        102,
        102,
        102,
        102,
        102,
        102,
        102,
        102,
        102,
        102,
        102,
        102,
        102,
        102,
        102,
        102,
        102,
        102,
        102,
        102,
        102,
        102,
        102,
        102,
        102,
        102,
        102,
        102,
        102,
        102,
        102,
        102,
        102,
        102,
        102,
        102,
        102,
        102,
        102,
        102,
        102,
        102,
        102,
        102,
        102,
        102,
        102,
        102,
        102,
        102,
        102,
        102,
        102,
        102,
        102,
        102,
        102,
        102,
        102,
        102,
        102,
        102,
        102,
        103,
        103,
        103,
        103,
        103,
        103,
        103,
        103,
        103,
        103,
        103,
        103,
        103,
        104,
        104,
        104,
        104,
        104,
        104,
        104,
        104,
        104,
        104,
        104,
        104,
        104,
        104,
        104,
        104,
        104,
        0,
        0,
        0,
        0,
        0,
        0,
        0,
        0,
        0,
        0,
        0,
        0,
        0,
        0,
        0,
        0,
        102,
        102,
        102,
        102,
        102,
        102,
        102,
        102,
        102,
        102,
        102,
        102,
        102,
        102,
        102,
        102,
        102,
        102,
        102,
        102,
        102,
        102,
        102,
        102,
        102,
        102,
        102,
        102,
        102,
        102,
        102,
        102,
        102,
        102,
        102,
        102,
        102,
        102,
        102,
        102,
        102,
        102,
        102,
        102,
        102,
        102,
        102,
        102,
        102,
        102,
        102,
        102,
        102,
        102,
        102,
        102,
        102,
        102,
        102,
        102,
        102,
        102,
        102,
        102,
        102,
        102,
        102,
        102,
        102,
        102,
        102,
        102,
        102,
        102,
        102,
        102,
        102,
        102,
        102,
        102,
        103,
        103,
        103,
        103,
        103,
        103,
        103,
        103,
        103,
        103,
        103,
        103,
        103,
        104,
        104,
        104,
        104,
        104,
        104,
        104,
        104,
        104,
        104,
        104,
        104,
        104,
        104,
        104,
        104,
        104,
        104,
        0,
        0,
        0,
        0,
        0,
        0,
        0,
        0,
        0,
        0,
        0,
        0,
        0,
        0,
        0,
        102,
        102,
        102,
        102,
        102,
        102,
        102,
        102,
        102,
        102,
        102,
        102,
        102,
        102,
        102,
        102,
        102,
        102,
        102,
        102,
        102,
        102,
        102,
        102,
        102,
        102,
        102,
        102,
        102,
        102,
        102,
        102,
        102,
        102,
        102,
        102,
        102,
        102,
        102,
        102,
        102,
        102,
        102,
        102,
        102,
        102,
        102,
        102,
        102,
        102,
        102,
        102,
        102,
        102,
        102,
        102,
        102,
        102,
        102,
        102,
        102,
        102,
        102,
        102,
        102,
        102,
        102,
        102,
        102,
        102,
        102,
        102,
        102,
        102,
        102,
        102,
        102,
        102,
        102,
        102,
        103,
        103,
        103,
        103,
        103,
        103,
        103,
        103,
        103,
        103,
        103,
        103,
        103,
        104,
        104,
        104,
        104,
        104,
        104,
        104,
        104,
        104,
        104,
        104,
        104,
        104,
        104,
        104,
        104,
        104,
        104,
        0,
        0,
        0,
        0,
        0,
        0,
        0,
        0,
        0,
        0,
        0,
        0,
        0,
        0,
        0,
        102,
        102,
        102,
        102,
        102,
        102,
        102,
        102,
        102,
        102,
        102,
        102,
        102,
        102,
        102,
        102,
        102,
        102,
        102,
        102,
        102,
        102,
        102,
        102,
        102,
        102,
        102,
        102,
        102,
        102,
        102,
        102,
        102,
        102,
        102,
        102,
        102,
        102,
        102,
        102,
        102,
        102,
        102,
        102,
        102,
        102,
        102,
        102,
        102,
        102,
        102,
        102,
        102,
        102,
        102,
        102,
        102,
        102,
        102,
        102,
        102,
        102,
        102,
        102,
        102,
        102,
        102,
        102,
        102,
        102,
        102,
        102,
        102,
        102,
        102,
        102,
        102,
        102,
        102,
        102,
        103,
        103,
        103,
        103,
        103,
        103,
        103,
        103,
        103,
        103,
        103,
        103,
        103,
        104,
        104,
        104,
        104,
        104,
        104,
        104,
        104,
        104,
        104,
        104,
        104,
        104,
        104,
        104,
        104,
        104,
        104,
        0,
        0,
        0,
        0,
        0,
        0,
        0,
        0,
        0,
        0,
        0,
        0,
        0,
        0,
        0,
        102,
        102,
        102,
        102,
        102,
        102,
        102,
        102,
        102,
        102,
        102,
        102,
        102,
        102,
        102,
        102,
        102,
        102,
        102,
        102,
        102,
        102,
        102,
        102,
        102,
        102,
        102,
        102,
        102,
        102,
        102,
        102,
        102,
        102,
        102,
        102,
        102,
        102,
        102,
        102,
        102,
        102,
        102,
        102,
        102,
        102,
        102,
        102,
        102,
        102,
        102,
        102,
        102,
        102,
        102,
        102,
        102,
        102,
        102,
        102,
        102,
        102,
        102,
        102,
        102,
        102,
        102,
        102,
        102,
        102,
        102,
        102,
        102,
        102,
        102,
        102,
        102,
        102,
        102,
        102,
        103,
        103,
        103,
        103,
        103,
        103,
        103,
        103,
        103,
        103,
        103,
        103,
        103,
        104,
        104,
        104,
        104,
        104,
        104,
        104,
        104,
        104,
        104,
        104,
        104,
        104,
        104,
        104,
        104,
        104,
        104,
        0,
        0,
        0,
        0,
        0,
        0,
        0,
        0,
        0,
        0,
        0,
        0,
        0,
        0,
        0,
        102,
        102,
        102,
        102,
        102,
        102,
        102,
        102,
        102,
        102,
        102,
        102,
        102,
        102,
        102,
        102,
        102,
        102,
        102,
        102,
        102,
        102,
        102,
        102,
        102,
        102,
        102,
        102,
        102,
        102,
        102,
        102,
        102,
        102,
        102,
        102,
        102,
        102,
        102,
        102,
        102,
        102,
        102,
        102,
        102,
        102,
        102,
        102,
        102,
        102,
        102,
        102,
        102,
        102,
        102,
        102,
        102,
        102,
        102,
        102,
        102,
        102,
        102,
        102,
        102,
        102,
        102,
        102,
        102,
        102,
        102,
        102,
        102,
        102,
        102,
        102,
        102,
        102,
        102,
        102,
        103,
        103,
        103,
        103,
        103,
        103,
        103,
        103,
        103,
        103,
        103,
        103,
        103,
        104,
        104,
        104,
        104,
        104,
        104,
        104,
        104,
        104,
        104,
        104,
        104,
        104,
        104,
        104,
        104,
        104,
        104,
        0,
        0,
        0,
        0,
        0,
        0,
        0,
        0,
        0,
        0,
        0,
        0,
        0,
        0,
        0,
        102,
        102,
        102,
        102,
        102,
        102,
        102,
        102,
        102,
        102,
        102,
        0,
        0,
        0,
        0,
        0,
        0,
        0,
        0,
        0,
        0,
        0,
        0,
        0,
        0,
        0,
        102,
        102,
        102,
        102,
        102,
        102,
        102,
        102,
        102,
        102,
        102,
        102,
        102,
        102,
        102,
        102,
        102,
        102,
        102,
        102,
        102,
        102,
        102,
        102,
        102,
        102,
        102,
        102,
        102,
        102,
        102,
        102,
        102,
        102,
        102,
        102,
        102,
        102,
        102,
        102,
        102,
        102,
        0,
        0,
        0,
        0,
        0,
        0,
        0,
        0,
        0,
        0,
        0,
        0,
        0,
        0,
        0,
        103,
        103,
        103,
        103,
        103,
        103,
        103,
        103,
        103,
        103,
        104,
        104,
        104,
        104,
        104,
        104,
        104,
        104,
        104,
        104,
        104,
        104,
        104,
        104,
        104,
        104,
        104,
        104,
        0,
        0,
        0,
        0,
        0,
        0,
        0,
        0,
        0,
        0,
        0,
        0,
        0,
        0,
        0,
        0,
        102,
        102,
        102,
        102,
        102,
        102,
        0,
        0,
        0,
        0,
        0,
        0,
        0,
        0,
        0,
        0,
        0,
        0,
        0,
        0,
        0,
        0,
        0,
        0,
        0,
        0,
        0,
        0,
        102,
        102,
        102,
        102,
        102,
        102,
        102,
        102,
        102,
        102,
        102,
        102,
        102,
        102,
        102,
        102,
        102,
        102,
        102,
        102,
        102,
        102,
        102,
        102,
        102,
        102,
        102,
        102,
        102,
        102,
        102,
        102,
        102,
        102,
        102,
        0,
        0,
        0,
        0,
        0,
        0,
        0,
        0,
        0,
        0,
        0,
        0,
        0,
        0,
        0,
        0,
        0,
        0,
        0,
        0,
        0,
        0,
        0,
        103,
        103,
        103,
        103,
        103,
        103,
        104,
        104,
        104,
        104,
        104,
        104,
        104,
        104,
        104,
        104,
        104,
        104,
        104,
        104,
        104,
        104,
        104,
        104,
        0,
        0,
        0,
        0,
        0,
        0,
        0,
        0,
        0,
        0,
        0,
        0,
        0,
        0,
        0,
        0,
        0,
        0,
        0,
        0,
        0,
        0,
        0,
        0,
        0,
        0,
        0,
        0,
        0,
        0,
        0,
        0,
        0,
        0,
        0,
        0,
        0,
        0,
        0,
        0,
        0,
        0,
        0,
        0,
        0,
        0,
        0,
        0,
        0,
        0,
        0,
        102,
        102,
        102,
        102,
        102,
        102,
        102,
        102,
        102,
        102,
        102,
        102,
        102,
        102,
        102,
        102,
        102,
        102,
        102,
        102,
        102,
        102,
        0,
        0,
        0,
        0,
        0,
        0,
        0,
        0,
        0,
        0,
        0,
        0,
        0,
        0,
        0,
        0,
        0,
        0,
        0,
        0,
        0,
        0,
        0,
        0,
        0,
        0,
        0,
        0,
        0,
        0,
        0,
        0,
        0,
        0,
        0,
        104,
        104,
        104,
        104,
        104,
        104,
        104,
        104,
        104,
        104,
        104,
        104,
        104,
        104,
        104,
        104,
        104,
        104,
        0,
        0,
        0,
        0,
        0,
        0,
        0,
        0,
        0,
        0,
        0,
        0,
        0,
        0,
        0,
        0,
        0,
        0,
        0,
        0,
        0,
        0,
        0,
        0,
        0,
        0,
        0,
        0,
        0,
        0,
        0,
        0,
        0,
        0,
        0,
        0,
        0,
        0,
        0,
        0,
        0,
        0,
        0,
        0,
        0,
        0,
        0,
        0,
        0,
        0,
        0,
        0,
        0,
        0,
        102,
        102,
        102,
        102,
        102,
        102,
        102,
        102,
        102,
        102,
        102,
        102,
        102,
        102,
        102,
        0,
        0,
        0,
        0,
        0,
        0,
        0,
        0,
        0,
        0,
        0,
        0,
        0,
        0,
        0,
        0,
        0,
        0,
        0,
        0,
        0,
        0,
        0,
        0,
        0,
        0,
        0,
        0,
        0,
        0,
        0,
        0,
        0,
        0,
        0,
        0,
        0,
        0,
        0,
        0,
        0,
        0,
        104,
        104,
        104,
        104,
        104,
        104,
        104,
        104,
        104,
        104,
        104,
        104,
        104,
        104,
        104,
        0,
        0,
        0,
        0,
        0,
        0,
        0,
        0,
        0,
        0,
        0,
        0,
        0,
        0,
        0,
        0,
        0,
        0,
        0,
        0,
        0,
        0,
        0,
        0,
        0,
        0,
        0,
        0,
        0,
        0,
        0,
        0,
        0,
        0,
        0,
        0,
        0,
        0,
        0,
        0,
        0,
        0,
        0,
        0,
        0,
        0,
        0,
        0,
        0,
        0,
        0,
        0,
        0,
        0,
        0,
        0,
        0,
        0,
        0,
        0,
        0,
        0,
        0,
        0,
        0,
        0,
        0,
        0,
        0,
        0,
        0,
        0,
        0,
        0,
        0,
        0,
        0,
        0,
        0,
        0,
        0,
        0,
        0,
        0,
        0,
        0,
        0,
        0,
        0,
        0,
        0,
        0,
        0,
        0,
        0,
        0,
        0,
        0,
        0,
        0,
        0,
        0,
        0,
        0,
        0,
        0,
        0,
        0,
        0,
        0,
        0,
        0,
        0,
        0,
        0,
        0,
        0,
        0,
        0,
        0,
        0,
        0,
        0,
        0,
        0,
        0,
        0,
        0,
        0,
        0,
        0,
        0,
        0,
        0,
        0,
        0,
        0,
        0,
        0,
        0,
        0,
        0,
        0,
        0,
        0,
        0,
        0,
        0,
        0,
        0,
        0,
        0,
        0,
        0,
        0,
        0,
        0,
        0,
        0,
        0,
        0,
        0,
        0,
        0,
        0,
        0,
        0,
        0,
        0,
        0,
        0,
        0,
        0,
        0,
        0,
        0,
        0,
        0,
        0,
        0,
        0,
        0,
        0,
        0,
        0,
        0,
        0,
        0,
        0,
        0,
        0,
        0,
        0,
        0,
        0,
        0,
        0,
        0,
        0,
        0,
        0,
        0,
        0,
        0,
        0,
        0,
        0,
        0,
        0,
        0,
        0,
        0,
        0,
        0,
        0,
        0,
        0,
        0,
        0,
        0,
        0,
        0,
        0,
        0,
        0,
        0,
        0,
        0,
        0,
        0,
        0,
        0,
        0,
        0,
        0,
        0,
        0,
        0,
        0,
        0,
        0,
        0,
        0,
        0,
        0,
        0,
        0,
        0,
        0,
        0,
        0,
        0,
        0,
        0,
        0,
        0,
        0,
        0,
        0,
        0,
        0,
        0,
        0,
        0,
        0,
        0,
        0,
        0,
        0,
        0,
        0,
        0,
        0,
        0,
        0,
        0,
        0,
        0,
        0,
        0,
        0,
        0,
        0,
        0,
        0,
        0,
        0,
        0,
        0,
        0,
        0,
        0,
        0,
        0,
        0,
        0,
        0,
        0,
        0,
        0,
        0,
        0,
        0,
        0,
        0,
        0,
        0,
        0,
        0,
        0,
        0,
        0,
        0,
        0,
        0,
        0,
        0,
        0,
        0,
        0,
        0,
        0,
        0,
        0,
        0,
        0,
        0,
        0,
        0,
        0,
        0,
        0,
        0,
        0,
        0,
        0,
        0,
        0,
        0,
        0,
        0,
        0,
        0,
        0,
        0,
        0,
        0,
        0,
        0,
        0,
        0,
        0,
        0,
        0,
        0,
        0,
        0,
        0,
        0,
        0,
        0,
        0,
        0,
        0,
        0,
        0,
        0,
        0,
        0,
        0,
        0,
        0,
        0,
        0,
        0,
        0,
        0,
        0,
        0,
        0,
        0,
        0,
        0,
        0,
        0,
        0,
        0,
        0,
        0,
        0,
        0,
        0,
        0,
        0,
        0,
        0,
        0,
        0,
        0,
        0,
        0,
        0,
        0,
        0,
        0,
        0,
        0,
        0,
        0,
        0,
        0,
        0,
        0,
        0,
        0,
        0,
        0,
        0,
        0,
        0,
        0,
        0,
        0,
        0,
        0,
        0,
        0,
        0,
        0,
        0,
        0,
        0,
        0,
        0,
        0,
        0,
        0,
        0,
        0,
        0,
        0,
        0,
        0,
        0,
        0,
        0,
        0,
        0,
        0,
        0,
        0,
        0,
        0,
        0,
        0,
        0,
        0,
        0,
        0,
        0,
        0,
        0,
        0,
        0,
        0,
        0,
        0,
        0,
        0,
        0,
        0,
        0,
        0,
        0,
        0,
        0,
        0,
        0,
        0,
        0,
        0,
        0,
        0,
        0,
        0,
        0,
        0,
        0,
        0,
        0,
        0,
        0,
        0,
        0,
        0,
        0,
        0,
        0,
        0,
        0,
        0,
        0,
        0,
        0,
        0,
        0,
        0,
        0,
        0,
        0,
        0,
        0,
        0,
        0,
        0,
        0,
        0,
        0,
        0,
        0,
        0,
        0,
        0,
        0,
        0,
        0,
        0,
        0,
        0,
        0,
        0,
        0,
        0,
        0,
        0,
        0,
        0,
        0,
        0,
        0,
        0,
        0,
        0,
        0,
        0,
        0,
        0,
        0,
        0,
        0,
        0,
        0,
        0,
        0,
        0,
        0,
        0,
        0,
        0,
        0,
        0,
        0,
        0,
        0,
        0,
        0,
        0,
        0,
        0,
        0,
        0,
        0,
        0,
        0,
        0,
        0,
        0,
        0,
        0,
        0,
        0,
        0,
        0,
        0,
        0,
        0,
        0,
        0,
        0,
        0,
        0,
        0,
        0,
        0,
        0,
        0,
        0,
        0,
        0,
        0,
        0,
        0,
        0,
        0,
        0,
        0,
        0,
        0,
        0,
        0,
        0,
        0,
        0,
        0,
        0,
        0,
        0,
        0,
        0,
        0,
        0,
        0,
        0,
        0,
        0,
        0,
        0,
        0,
        0,
        0,
        0,
        0,
        0,
        0,
        0,
        0,
        0,
        0,
        0
      ],
      "height": 104,
      "id": 3,
      "name": "Area",
      "opacity": 1,
      "type": "tilelayer",
      "visible": true,
      "width": 126,
      "x": 0,
      "y": 0
    },
    {
      "data": [
        0,
        0,
        0,
        0,
        0,
        0,
        0,
        0,
        0,
        0,
        0,
        0,
        0,
        0,
        0,
        0,
        0,
        0,
        0,
        0,
        0,
        0,
        0,
        0,
        0,
        0,
        0,
        0,
        0,
        0,
        0,
        0,
        0,
        0,
        0,
        0,
        0,
        0,
        0,
        0,
        0,
        0,
        0,
        0,
        0,
        0,
        0,
        0,
        0,
        0,
        0,
        0,
        0,
        0,
        0,
        0,
        0,
        0,
        0,
        0,
        0,
        0,
        0,
        0,
        0,
        0,
        0,
        0,
        0,
        0,
        0,
        0,
        0,
        0,
        0,
        0,
        0,
        0,
        0,
        0,
        0,
        0,
        0,
        0,
        0,
        0,
        0,
        0,
        0,
        0,
        0,
        0,
        0,
        0,
        0,
        0,
        0,
        0,
        0,
        0,
        0,
        0,
        0,
        0,
        0,
        0,
        0,
        0,
        0,
        0,
        0,
        0,
        0,
        0,
        0,
        0,
        0,
        0,
        0,
        0,
        0,
        0,
        0,
        0,
        0,
        0,
        0,
        0,
        0,
        0,
        0,
        0,
        0,
        0,
        0,
        0,
        0,
        0,
        0,
        0,
        0,
        0,
        0,
        0,
        0,
        0,
        0,
        0,
        0,
        0,
        0,
        0,
        0,
        0,
        0,
        0,
        0,
        0,
        0,
        0,
        0,
        0,
        0,
        0,
        0,
        0,
        0,
        0,
        0,
        0,
        0,
        0,
        0,
        0,
        0,
        0,
        0,
        0,
        0,
        0,
        0,
        0,
        0,
        0,
        0,
        0,
        0,
        0,
        0,
        0,
        0,
        0,
        0,
        0,
        0,
        0,
        0,
        0,
        0,
        0,
        0,
        0,
        0,
        0,
        0,
        0,
        0,
        0,
        0,
        0,
        0,
        0,
        0,
        0,
        0,
        0,
        0,
        0,
        0,
        0,
        0,
        0,
        0,
        0,
        0,
        0,
        0,
        0,
        0,
        0,
        0,
        0,
        0,
        0,
        0,
        0,
        0,
        0,
        0,
        0,
        0,
        0,
        0,
        0,
        0,
        0,
        0,
        0,
        0,
        0,
        0,
        0,
        0,
        0,
        0,
        0,
        0,
        0,
        0,
        0,
        0,
        0,
        0,
        0,
        0,
        0,
        0,
        0,
        0,
        0,
        0,
        0,
        0,
        0,
        0,
        0,
        0,
        0,
        0,
        0,
        0,
        0,
        0,
        0,
        0,
        0,
        0,
        0,
        0,
        0,
        0,
        0,
        0,
        0,
        0,
        0,
        0,
        0,
        0,
        0,
        0,
        0,
        0,
        0,
        0,
        0,
        0,
        0,
        0,
        0,
        0,
        0,
        0,
        0,
        0,
        0,
        0,
        0,
        0,
        0,
        0,
        0,
        0,
        0,
        0,
        0,
        0,
        0,
        0,
        0,
        0,
        0,
        0,
        0,
        0,
        0,
        0,
        0,
        0,
        0,
        0,
        0,
        0,
        0,
        0,
        0,
        0,
        0,
        0,
        0,
        0,
        0,
        0,
        0,
        0,
        0,
        0,
        0,
        0,
        0,
        0,
        0,
        0,
        0,
        0,
        0,
        0,
        0,
        0,
        0,
        0,
        0,
        0,
        0,
        0,
        0,
        0,
        0,
        0,
        0,
        0,
        0,
        0,
        0,
        0,
        0,
        0,
        0,
        0,
        0,
        0,
        0,
        0,
        0,
        0,
        0,
        0,
        0,
        0,
        0,
        0,
        0,
        0,
        0,
        0,
        0,
        0,
        0,
        0,
        0,
        0,
        0,
        0,
        0,
        0,
        0,
        0,
        0,
        0,
        0,
        0,
        0,
        0,
        0,
        0,
        0,
        0,
        0,
        0,
        0,
        0,
        0,
        0,
        0,
        0,
        0,
        0,
        0,
        0,
        0,
        0,
        0,
        0,
        0,
        0,
        0,
        0,
        0,
        0,
        0,
        0,
        0,
        0,
        0,
        0,
        0,
        0,
        0,
        0,
        0,
        0,
        0,
        0,
        0,
        0,
        0,
        0,
        0,
        0,
        0,
        0,
        0,
        0,
        0,
        0,
        0,
        0,
        0,
        0,
        0,
        0,
        0,
        0,
        0,
        0,
        0,
        0,
        0,
        0,
        0,
        0,
        0,
        0,
        0,
        0,
        0,
        0,
        0,
        0,
        0,
        0,
        0,
        0,
        0,
        0,
        0,
        0,
        0,
        0,
        0,
        0,
        0,
        0,
        0,
        0,
        0,
        0,
        0,
        0,
        0,
        0,
        0,
        0,
        0,
        0,
        0,
        0,
        0,
        0,
        0,
        0,
        0,
        0,
        0,
        0,
        0,
        0,
        0,
        0,
        0,
        0,
        0,
        0,
        0,
        0,
        0,
        0,
        0,
        0,
        0,
        0,
        0,
        0,
        0,
        0,
        0,
        0,
        0,
        0,
        0,
        0,
        0,
        0,
        0,
        0,
        0,
        0,
        0,
        0,
        0,
        0,
        0,
        0,
        0,
        0,
        0,
        0,
        0,
        0,
        0,
        0,
        0,
        0,
        0,
        0,
        0,
        0,
        0,
        0,
        0,
        0,
        0,
        0,
        0,
        0,
        0,
        0,
        0,
        0,
        0,
        0,
        0,
        0,
        0,
        0,
        0,
        0,
        0,
        0,
        0,
        0,
        0,
        0,
        0,
        0,
        0,
        0,
        0,
        0,
        0,
        0,
        0,
        0,
        0,
        0,
        0,
        0,
        0,
        0,
        0,
        0,
        0,
        0,
        0,
        0,
        0,
        0,
        0,
        0,
        0,
        0,
        0,
        0,
        0,
        0,
        0,
        0,
        0,
        0,
        0,
        0,
        0,
        0,
        0,
        0,
        0,
        0,
        0,
        0,
        0,
        0,
        0,
        0,
        0,
        0,
        0,
        0,
        0,
        0,
        0,
        0,
        0,
        0,
        0,
        0,
        0,
        0,
        0,
        0,
        0,
        0,
        0,
        0,
        0,
        0,
        0,
        0,
        0,
        0,
        0,
        0,
        0,
        0,
        0,
        0,
        0,
        0,
        0,
        0,
        0,
        0,
        0,
        0,
        0,
        0,
        0,
        0,
        0,
        0,
        0,
        0,
        0,
        0,
        0,
        0,
        0,
        0,
        0,
        0,
        0,
        0,
        0,
        0,
        0,
        0,
        0,
        0,
        0,
        0,
        0,
        0,
        0,
        0,
        0,
        0,
        0,
        0,
        0,
        0,
        0,
        0,
        0,
        0,
        0,
        0,
        0,
        0,
        0,
        0,
        0,
        0,
        0,
        0,
        0,
        0,
        0,
        0,
        0,
        0,
        0,
        0,
        0,
        0,
        0,
        0,
        0,
        0,
        0,
        0,
        0,
        0,
        0,
        0,
        0,
        0,
        0,
        0,
        0,
        0,
        0,
        0,
        0,
        0,
        0,
        0,
        0,
        0,
        0,
        0,
        0,
        0,
        0,
        0,
        0,
        0,
        0,
        0,
        0,
        0,
        0,
        0,
        0,
        0,
        0,
        0,
        0,
        0,
        0,
        0,
        0,
        0,
        0,
        0,
        0,
        0,
        0,
        0,
        0,
        0,
        0,
        0,
        0,
        0,
        0,
        0,
        0,
        0,
        0,
        0,
        0,
        0,
        0,
        0,
        0,
        0,
        0,
        0,
        0,
        0,
        0,
        0,
        0,
        0,
        0,
        0,
        0,
        0,
        0,
        0,
        0,
        0,
        0,
        0,
        0,
        0,
        0,
        0,
        0,
        0,
        0,
        0,
        0,
        0,
        0,
        0,
        0,
        0,
        0,
        0,
        0,
        0,
        0,
        0,
        0,
        0,
        0,
        0,
        0,
        0,
        0,
        0,
        0,
        0,
        0,
        0,
        0,
        0,
        0,
        0,
        0,
        0,
        0,
        0,
        0,
        0,
        0,
        0,
        0,
        0,
        0,
        0,
        0,
        0,
        0,
        0,
        0,
        0,
        0,
        0,
        0,
        0,
        0,
        0,
        0,
        0,
        0,
        0,
        0,
        0,
        0,
        0,
        0,
        0,
        0,
        0,
        0,
        0,
        0,
        0,
        0,
        0,
        0,
        0,
        0,
        0,
        0,
        0,
        0,
        0,
        0,
        0,
        0,
        0,
        0,
        0,
        0,
        0,
        0,
        0,
        0,
        0,
        0,
        0,
        0,
        0,
        0,
        0,
        0,
        0,
        0,
        0,
        0,
        0,
        0,
        0,
        0,
        0,
        0,
        0,
        0,
        0,
        0,
        0,
        0,
        0,
        0,
        0,
        0,
        0,
        0,
        0,
        0,
        0,
        0,
        0,
        0,
        0,
        0,
        0,
        0,
        0,
        0,
        0,
        0,
        0,
        0,
        0,
        0,
        0,
        0,
        0,
        0,
        0,
        0,
        0,
        0,
        0,
        0,
        0,
        0,
        0,
        0,
        0,
        0,
        0,
        0,
        0,
        0,
        0,
        0,
        0,
        0,
        0,
        0,
        0,
        0,
        0,
        0,
        0,
        0,
        0,
        0,
        0,
        0,
        0,
        0,
        0,
        0,
        0,
        0,
        0,
        0,
        0,
        0,
        0,
        0,
        0,
        0,
        0,
        0,
        0,
        0,
        0,
        0,
        0,
        0,
        0,
        0,
        0,
        0,
        0,
        0,
        0,
        0,
        0,
        0,
        0,
        0,
        0,
        0,
        0,
        0,
        0,
        0,
        0,
        0,
        0,
        0,
        0,
        0,
        0,
        0,
        0,
        0,
        0,
        0,
        0,
        0,
        0,
        0,
        0,
        0,
        0,
        0,
        0,
        0,
        0,
        0,
        0,
        0,
        0,
        0,
        0,
        0,
        0,
        0,
        0,
        0,
        0,
        0,
        0,
        0,
        0,
        0,
        0,
        0,
        0,
        0,
        0,
        0,
        0,
        0,
        0,
        0,
        0,
        0,
        0,
        0,
        0,
        0,
        0,
        0,
        0,
        0,
        0,
        0,
        0,
        0,
        0,
        0,
        0,
        0,
        0,
        0,
        0,
        0,
        0,
        0,
        0,
        0,
        0,
        0,
        0,
        202,
        0,
        0,
        0,
        0,
        0,
        202,
        0,
        0,
        0,
        202,
        0,
        0,
        0,
        0,
        0,
        0,
        0,
        0,
        0,
        0,
        0,
        0,
        0,
        0,
        0,
        0,
        0,
        0,
        0,
        0,
        0,
        0,
        0,
        0,
        0,
        0,
        0,
        0,
        0,
        0,
        0,
        0,
        0,
        0,
        0,
        0,
        0,
        0,
        0,
        0,
        0,
        0,
        0,
        0,
        0,
        0,
        0,
        0,
        0,
        0,
        0,
        0,
        0,
        0,
        0,
        0,
        0,
        0,
        0,
        0,
        0,
        0,
        0,
        0,
        0,
        0,
        0,
        0,
        203,
        0,
        0,
        204,
        0,
        204,
        203,
        0,
        0,
        0,
        0,
        0,
        0,
        0,
        0,
        0,
        0,
        0,
        0,
        0,
        0,
        0,
        0,
        0,
        0,
        0,
        0,
        0,
        0,
        0,
        0,
        0,
        0,
        0,
        0,
        0,
        0,
        0,
        0,
        0,
        0,
        0,
        0,
        202,
        0,
        0,
        202,
        0,
        202,
        0,
        0,
        0,
        0,
        0,
        0,
        0,
        0,
        0,
        0,
        0,
        0,
        0,
        0,
        0,
        0,
        0,
        202,
        0,
        0,
        0,
        0,
        0,
        0,
        0,
        0,
        0,
        0,
        0,
        0,
        0,
        0,
        0,
        0,
        0,
        0,
        0,
        0,
        0,
        0,
        0,
        0,
        0,
        0,
        202,
        0,
        0,
        0,
        0,
        0,
        0,
        0,
        0,
        0,
        0,
        0,
        0,
        0,
        0,
        0,
        0,
        0,
        0,
        0,
        0,
        0,
        0,
        0,
        0,
        0,
        203,
        203,
        0,
        0,
        203,
        0,
        0,
        203,
        0,
        0,
        0,
        0,
        0,
        204,
        203,
        0,
        204,
        204,
        204,
        204,
        0,
        0,
        204,
        204,
        204,
        0,
        0,
        0,
        0,
        0,
        0,
        0,
        0,
        0,
        0,
        0,
        0,
        0,
        0,
        0,
        0,
        0,
        0,
        0,
        0,
        0,
        0,
        0,
        0,
        0,
        0,
        0,
        0,
        0,
        0,
        0,
        0,
        0,
        0,
        0,
        0,
        0,
        0,
        202,
        0,
        0,
        0,
        0,
        0,
        0,
        0,
        0,
        0,
        0,
        0,
        202,
        202,
        0,
        0,
        0,
        0,
        0,
        0,
        202,
        0,
        202,
        0,
        0,
        202,
        0,
        0,
        0,
        0,
        0,
        202,
        0,
        0,
        0,
        202,
        0,
        0,
        0,
        0,
        0,
        0,
        0,
        0,
        0,
        0,
        202,
        0,
        0,
        0,
        0,
        0,
        0,
        202,
        0,
        0,
        0,
        0,
        0,
        0,
        0,
        0,
        0,
        0,
        0,
        0,
        202,
        203,
        202,
        0,
        0,
        203,
        0,
        204,
        204,
        0,
        202,
        0,
        204,
        0,
        0,
        204,
        0,
        204,
        202,
        204,
        0,
        204,
        0,
        0,
        0,
        0,
        0,
        0,
        0,
        0,
        0,
        0,
        0,
        0,
        0,
        0,
        0,
        0,
        0,
        0,
        0,
        0,
        0,
        0,
        0,
        0,
        202,
        0,
        0,
        0,
        0,
        0,
        202,
        0,
        0,
        0,
        0,
        0,
        0,
        0,
        0,
        0,
        0,
        0,
        0,
        0,
        0,
        0,
        0,
        0,
        202,
        202,
        0,
        202,
        0,
        0,
        0,
        0,
        0,
        0,
        0,
        0,
        0,
        0,
        0,
        202,
        0,
        0,
        0,
        0,
        0,
        0,
        0,
        0,
        0,
        0,
        0,
        0,
        0,
        0,
        0,
        0,
        202,
        0,
        0,
        0,
        0,
        0,
        0,
        0,
        0,
        0,
        0,
        0,
        0,
        0,
        202,
        0,
        0,
        0,
        0,
        0,
        0,
        0,
        202,
        0,
        0,
        0,
        0,
        203,
        202,
        203,
        0,
        0,
        204,
        204,
        204,
        204,
        0,
        204,
        204,
        0,
        204,
        204,
        0,
        203,
        0,
        204,
        0,
        0,
        0,
        0,
        0,
        0,
        0,
        0,
        0,
        0,
        0,
        0,
        0,
        0,
        0,
        0,
        0,
        0,
        0,
        0,
        0,
        0,
        0,
        0,
        0,
        0,
        0,
        0,
        0,
        0,
        0,
        0,
        0,
        0,
        0,
        0,
        0,
        0,
        202,
        0,
        0,
        0,
        0,
        0,
        0,
        0,
        0,
        202,
        0,
        0,
        0,
        0,
        0,
        0,
        0,
        0,
        202,
        0,
        0,
        202,
        0,
        0,
        0,
        0,
        202,
        202,
        0,
        0,
        0,
        0,
        0,
        0,
        0,
        0,
        202,
        0,
        0,
        0,
        0,
        0,
        202,
        0,
        0,
        0,
        0,
        0,
        0,
        0,
        0,
        0,
        0,
        0,
        202,
        0,
        0,
        0,
        0,
        0,
        0,
        0,
        0,
        0,
        0,
        0,
        203,
        0,
        0,
        0,
        0,
        203,
        202,
        0,
        0,
        0,
        204,
        0,
        204,
        204,
        0,
        204,
        0,
        0,
        202,
        0,
        204,
        204,
        0,
        0,
        0,
        0,
        0,
        0,
        0,
        0,
        0,
        0,
        0,
        0,
        0,
        0,
        0,
        0,
        0,
        0,
        0,
        0,
        0,
        0,
        0,
        0,
        0,
        0,
        0,
        0,
        0,
        0,
        0,
        0,
        0,
        0,
        0,
        0,
        0,
        0,
        0,
        0,
        0,
        202,
        0,
        0,
        0,
        0,
        0,
        0,
        0,
        0,
        0,
        0,
        0,
        0,
        0,
        0,
        0,
        0,
        202,
        0,
        0,
        0,
        0,
        0,
        0,
        0,
        0,
        0,
        0,
        202,
        0,
        0,
        0,
        0,
        0,
        0,
        0,
        0,
        202,
        0,
        0,
        0,
        0,
        0,
        0,
        0,
        0,
        0,
        0,
        0,
        202,
        0,
        0,
        0,
        0,
        202,
        0,
        0,
        203,
        203,
        0,
        0,
        0,
        0,
        0,
        202,
        203,
        0,
        0,
        203,
        203,
        0,
        204,
        204,
        0,
        0,
        0,
        0,
        0,
        0,
        204,
        204,
        204,
        204,
        204,
        203,
        0,
        0,
        0,
        0,
        0,
        0,
        0,
        0,
        0,
        0,
        0,
        0,
        0,
        0,
        0,
        0,
        0,
        0,
        0,
        0,
        0,
        0,
        0,
        0,
        0,
        202,
        0,
        0,
        0,
        0,
        0,
        0,
        202,
        0,
        202,
        0,
        202,
        0,
        0,
        0,
        0,
        0,
        202,
        0,
        0,
        0,
        0,
        202,
        0,
        0,
        0,
        0,
        0,
        0,
        0,
        0,
        0,
        0,
        0,
        0,
        202,
        0,
        0,
        0,
        202,
        0,
        0,
        0,
        0,
        202,
        0,
        0,
        0,
        0,
        0,
        0,
        0,
        0,
        0,
        0,
        0,
        0,
        0,
        0,
        0,
        0,
        0,
        0,
        0,
        0,
        0,
        0,
        0,
        0,
        0,
        0,
        0,
        0,
        0,
        203,
        0,
        0,
        0,
        0,
        0,
        0,
        0,
        0,
        0,
        0,
        0,
        0,
        0,
        204,
        0,
        0,
        0,
        0,
        0,
        204,
        204,
        203,
        0,
        0,
        0,
        0,
        0,
        0,
        0,
        0,
        0,
        0,
        0,
        0,
        0,
        0,
        0,
        0,
        0,
        0,
        0,
        0,
        0,
        0,
        0,
        0,
        0,
        0,
        0,
        0,
        0,
        0,
        0,
        0,
        0,
        0,
        0,
        0,
        0,
        0,
        0,
        0,
        0,
        0,
        0,
        0,
        0,
        0,
        0,
        0,
        0,
        202,
        202,
        0,
        0,
        0,
        0,
        0,
        0,
        0,
        0,
        0,
        0,
        0,
        0,
        0,
        202,
        0,
        0,
        0,
        0,
        0,
        0,
        0,
        0,
        0,
        0,
        0,
        0,
        0,
        0,
        0,
        0,
        0,
        0,
        0,
        0,
        202,
        0,
        202,
        0,
        0,
        0,
        0,
        0,
        0,
        0,
        0,
        0,
        0,
        0,
        0,
        0,
        0,
        202,
        0,
        203,
        0,
        0,
        0,
        0,
        202,
        203,
        0,
        0,
        0,
        0,
        0,
        203,
        204,
        202,
        0,
        202,
        0,
        203,
        204,
        204,
        0,
        204,
        202,
        204,
        204,
        0,
        0,
        0,
        0,
        0,
        0,
        0,
        0,
        0,
        0,
        0,
        0,
        0,
        0,
        0,
        0,
        0,
        0,
        0,
        0,
        0,
        0,
        0,
        0,
        0,
        0,
        0,
        0,
        0,
        202,
        0,
        0,
        0,
        0,
        0,
        0,
        0,
        0,
        0,
        0,
        0,
        0,
        0,
        0,
        0,
        0,
        0,
        0,
        0,
        0,
        0,
        0,
        0,
        0,
        0,
        202,
        0,
        0,
        0,
        0,
        202,
        0,
        0,
        0,
        0,
        0,
        202,
        0,
        0,
        0,
        0,
        0,
        0,
        0,
        202,
        0,
        0,
        0,
        0,
        0,
        202,
        0,
        0,
        202,
        0,
        0,
        0,
        0,
        0,
        0,
        0,
        0,
        0,
        0,
        0,
        0,
        0,
        0,
        0,
        203,
        0,
        0,
        0,
        0,
        0,
        0,
        0,
        203,
        0,
        0,
        0,
        0,
        203,
        0,
        0,
        204,
        0,
        0,
        0,
        0,
        202,
        0,
        202,
        0,
        204,
        0,
        0,
        0,
        0,
        0,
        0,
        0,
        0,
        0,
        0,
        0,
        0,
        0,
        0,
        0,
        0,
        0,
        0,
        0,
        0,
        0,
        0,
        0,
        0,
        0,
        0,
        0,
        202,
        202,
        0,
        0,
        0,
        0,
        0,
        0,
        0,
        0,
        0,
        0,
        0,
        0,
        0,
        0,
        0,
        0,
        0,
        0,
        0,
        0,
        202,
        0,
        0,
        0,
        0,
        202,
        0,
        202,
        0,
        0,
        0,
        0,
        0,
        0,
        0,
        202,
        0,
        0,
        0,
        0,
        0,
        202,
        0,
        0,
        0,
        0,
        0,
        0,
        0,
        0,
        0,
        0,
        0,
        0,
        0,
        0,
        0,
        0,
        0,
        0,
        0,
        0,
        0,
        0,
        0,
        0,
        0,
        0,
        0,
        0,
        203,
        0,
        0,
        203,
        203,
        0,
        0,
        0,
        0,
        0,
        0,
        203,
        203,
        202,
        0,
        0,
        204,
        204,
        0,
        0,
        204,
        203,
        204,
        0,
        0,
        204,
        0,
        0,
        0,
        0,
        0,
        0,
        0,
        0,
        0,
        0,
        0,
        0,
        0,
        0,
        0,
        0,
        0,
        0,
        0,
        0,
        0,
        0,
        0,
        0,
        0,
        0,
        202,
        0,
        0,
        0,
        0,
        0,
        0,
        0,
        202,
        0,
        0,
        0,
        202,
        0,
        0,
        0,
        202,
        0,
        0,
        0,
        0,
        0,
        0,
        0,
        0,
        0,
        202,
        0,
        202,
        0,
        0,
        0,
        0,
        202,
        202,
        0,
        0,
        0,
        0,
        0,
        0,
        0,
        0,
        0,
        0,
        0,
        0,
        0,
        0,
        202,
        202,
        0,
        0,
        0,
        0,
        0,
        0,
        0,
        0,
        0,
        0,
        0,
        0,
        202,
        0,
        0,
        0,
        0,
        0,
        0,
        0,
        202,
        0,
        0,
        0,
        0,
        0,
        0,
        0,
        0,
        0,
        0,
        0,
        0,
        0,
        0,
        203,
        0,
        0,
        203,
        204,
        0,
        204,
        0,
        0,
        0,
        204,
        204,
        0,
        203,
        0,
        0,
        0,
        0,
        0,
        0,
        0,
        0,
        0,
        0,
        0,
        0,
        0,
        0,
        0,
        0,
        0,
        0,
        0,
        0,
        0,
        0,
        0,
        0,
        0,
        0,
        0,
        0,
        0,
        0,
        0,
        0,
        0,
        0,
        0,
        0,
        0,
        0,
        0,
        0,
        0,
        0,
        0,
        0,
        0,
        0,
        202,
        0,
        0,
        0,
        0,
        0,
        0,
        0,
        0,
        202,
        0,
        0,
        0,
        0,
        0,
        0,
        202,
        0,
        0,
        0,
        0,
        202,
        0,
        0,
        0,
        0,
        0,
        202,
        0,
        0,
        0,
        0,
        0,
        0,
        0,
        0,
        0,
        0,
        0,
        202,
        0,
        202,
        0,
        0,
        0,
        0,
        0,
        0,
        0,
        202,
        0,
        0,
        0,
        0,
        0,
        0,
        0,
        203,
        202,
        0,
        0,
        0,
        0,
        0,
        203,
        202,
        0,
        203,
        0,
        0,
        203,
        0,
        0,
        0,
        204,
        204,
        0,
        203,
        0,
        204,
        204,
        0,
        0,
        0,
        0,
        0,
        0,
        0,
        0,
        0,
        0,
        0,
        0,
        0,
        0,
        0,
        0,
        0,
        0,
        0,
        0,
        202,
        0,
        0,
        0,
        0,
        0,
        202,
        0,
        0,
        0,
        202,
        0,
        0,
        0,
        0,
        0,
        0,
        0,
        202,
        0,
        0,
        0,
        0,
        202,
        202,
        202,
        0,
        0,
        0,
        0,
        0,
        0,
        0,
        202,
        202,
        0,
        0,
        0,
        0,
        0,
        0,
        0,
        0,
        0,
        0,
        0,
        0,
        0,
        0,
        0,
        0,
        0,
        0,
        0,
        0,
        0,
        0,
        0,
        0,
        0,
        0,
        0,
        0,
        202,
        202,
        0,
        0,
        0,
        0,
        0,
        0,
        0,
        0,
        0,
        0,
        0,
        0,
        0,
        0,
        0,
        0,
        203,
        0,
        203,
        203,
        203,
        0,
        0,
        0,
        0,
        0,
        203,
        0,
        0,
        204,
        204,
        204,
        0,
        0,
        0,
        0,
        0,
        204,
        0,
        0,
        204,
        0,
        0,
        0,
        0,
        0,
        0,
        0,
        0,
        0,
        0,
        0,
        0,
        0,
        0,
        0,
        0,
        0,
        0,
        0,
        0,
        0,
        0,
        0,
        0,
        0,
        0,
        0,
        202,
        0,
        0,
        0,
        0,
        0,
        202,
        0,
        0,
        0,
        0,
        202,
        0,
        0,
        202,
        0,
        0,
        0,
        0,
        0,
        0,
        0,
        0,
        0,
        0,
        0,
        0,
        0,
        0,
        0,
        0,
        0,
        202,
        202,
        0,
        0,
        202,
        0,
        0,
        202,
        0,
        202,
        0,
        0,
        0,
        0,
        0,
        0,
        0,
        0,
        202,
        0,
        0,
        0,
        0,
        0,
        0,
        0,
        0,
        0,
        0,
        0,
        202,
        0,
        202,
        0,
        0,
        0,
        202,
        202,
        0,
        0,
        0,
        203,
        0,
        203,
        0,
        203,
        0,
        0,
        202,
        203,
        0,
        0,
        203,
        0,
        203,
        0,
        203,
        203,
        204,
        0,
        202,
        202,
        204,
        204,
        204,
        0,
        0,
        0,
        0,
        0,
        0,
        0,
        0,
        0,
        0,
        0,
        0,
        0,
        0,
        0,
        0,
        0,
        0,
        0,
        0,
        0,
        0,
        0,
        0,
        0,
        0,
        0,
        0,
        0,
        0,
        0,
        0,
        0,
        0,
        0,
        202,
        0,
        0,
        0,
        0,
        0,
        0,
        0,
        0,
        0,
        0,
        0,
        0,
        202,
        0,
        0,
        0,
        0,
        0,
        0,
        0,
        0,
        0,
        202,
        0,
        202,
        202,
        0,
        0,
        0,
        0,
        0,
        202,
        0,
        0,
        0,
        0,
        0,
        0,
        0,
        202,
        0,
        0,
        0,
        0,
        0,
        0,
        0,
        202,
        0,
        0,
        0,
        202,
        0,
        0,
        0,
        0,
        0,
        0,
        0,
        202,
        0,
        0,
        0,
        202,
        0,
        0,
        203,
        0,
        0,
        0,
        0,
        0,
        0,
        0,
        203,
        0,
        0,
        202,
        203,
        203,
        204,
        204,
        202,
        203,
        204,
        202,
        0,
        204,
        0,
        204,
        203,
        204,
        0,
        0,
        0,
        0,
        0,
        0,
        0,
        0,
        0,
        0,
        0,
        0,
        0,
        0,
        0,
        0,
        0,
        0,
        0,
        0,
        0,
        0,
        0,
        0,
        0,
        0,
        202,
        0,
        0,
        0,
        0,
        0,
        0,
        0,
        0,
        0,
        0,
        0,
        0,
        0,
        0,
        0,
        0,
        0,
        0,
        0,
        0,
        0,
        0,
        0,
        0,
        0,
        0,
        202,
        0,
        202,
        0,
        0,
        0,
        0,
        0,
        0,
        0,
        0,
        0,
        0,
        0,
        0,
        0,
        0,
        0,
        0,
        0,
        0,
        0,
        0,
        0,
        0,
        0,
        202,
        0,
        0,
        0,
        0,
        0,
        0,
        0,
        0,
        0,
        0,
        0,
        0,
        0,
        0,
        0,
        0,
        0,
        0,
        0,
        0,
        0,
        0,
        0,
        0,
        203,
        0,
        0,
        0,
        0,
        0,
        0,
        0,
        204,
        204,
        0,
        0,
        0,
        0,
        203,
        203,
        0,
        204,
        203,
        204,
        0,
        0,
        0,
        0,
        0,
        0,
        0,
        0,
        0,
        0,
        0,
        0,
        0,
        0,
        0,
        0,
        0,
        0,
        0,
        0,
        0,
        0,
        0,
        0,
        0,
        0,
        0,
        0,
        0,
        0,
        0,
        202,
        0,
        0,
        0,
        202,
        202,
        0,
        0,
        0,
        0,
        0,
        0,
        0,
        0,
        0,
        0,
        0,
        0,
        0,
        0,
        0,
        0,
        0,
        0,
        0,
        0,
        0,
        0,
        0,
        0,
        0,
        0,
        0,
        202,
        0,
        0,
        0,
        0,
        202,
        0,
        0,
        0,
        0,
        0,
        0,
        0,
        0,
        0,
        0,
        202,
        0,
        0,
        0,
        0,
        202,
        0,
        202,
        0,
        0,
        0,
        0,
        0,
        0,
        202,
        0,
        0,
        0,
        0,
        0,
        0,
        0,
        0,
        0,
        203,
        0,
        0,
        0,
        0,
        0,
        0,
        0,
        0,
        203,
        0,
        0,
        204,
        0,
        204,
        204,
        203,
        202,
        203,
        0,
        204,
        204,
        204,
        0,
        0,
        0,
        0,
        0,
        0,
        0,
        0,
        0,
        0,
        0,
        0,
        0,
        0,
        0,
        0,
        0,
        0,
        0,
        0,
        0,
        0,
        0,
        0,
        0,
        0,
        0,
        0,
        0,
        0,
        0,
        0,
        0,
        0,
        0,
        0,
        0,
        0,
        0,
        0,
        0,
        0,
        0,
        202,
        0,
        0,
        0,
        202,
        0,
        0,
        0,
        0,
        0,
        0,
        202,
        0,
        202,
        0,
        0,
        0,
        202,
        0,
        0,
        0,
        0,
        0,
        0,
        0,
        0,
        0,
        202,
        0,
        0,
        202,
        0,
        0,
        0,
        0,
        0,
        0,
        0,
        0,
        0,
        0,
        0,
        0,
        0,
        0,
        0,
        0,
        0,
        0,
        0,
        0,
        202,
        0,
        0,
        0,
        0,
        0,
        0,
        0,
        203,
        203,
        0,
        0,
        0,
        203,
        0,
        0,
        0,
        0,
        0,
        203,
        204,
        204,
        204,
        0,
        204,
        202,
        0,
        203,
        0,
        203,
        204,
        0,
        204,
        0,
        0,
        0,
        0,
        0,
        0,
        0,
        0,
        0,
        0,
        0,
        0,
        0,
        0,
        0,
        0,
        0,
        0,
        0,
        202,
        0,
        0,
        0,
        0,
        0,
        0,
        0,
        0,
        0,
        0,
        202,
        0,
        202,
        0,
        0,
        0,
        0,
        0,
        0,
        0,
        0,
        0,
        0,
        0,
        0,
        0,
        202,
        202,
        0,
        0,
        0,
        0,
        0,
        0,
        202,
        202,
        0,
        0,
        0,
        0,
        0,
        0,
        0,
        0,
        0,
        0,
        0,
        0,
        0,
        0,
        202,
        0,
        0,
        0,
        0,
        0,
        0,
        0,
        0,
        0,
        0,
        0,
        202,
        0,
        202,
        0,
        0,
        0,
        0,
        0,
        0,
        0,
        0,
        202,
        0,
        0,
        202,
        0,
        0,
        0,
        0,
        203,
        0,
        203,
        0,
        0,
        0,
        0,
        0,
        203,
        202,
        0,
        204,
        0,
        0,
        0,
        0,
        204,
        204,
        0,
        0,
        0,
        0,
        0,
        0,
        0,
        0,
        0,
        0,
        0,
        0,
        0,
        0,
        0,
        0,
        0,
        0,
        0,
        0,
        0,
        0,
        0,
        0,
        0,
        0,
        0,
        0,
        202,
        0,
        0,
        0,
        202,
        202,
        0,
        0,
        0,
        0,
        0,
        0,
        0,
        0,
        0,
        0,
        202,
        0,
        0,
        0,
        0,
        0,
        0,
        0,
        0,
        0,
        0,
        0,
        0,
        0,
        202,
        0,
        0,
        0,
        0,
        0,
        0,
        0,
        0,
        0,
        0,
        0,
        0,
        0,
        0,
        0,
        0,
        0,
        0,
        0,
        0,
        0,
        0,
        0,
        0,
        0,
        0,
        0,
        0,
        202,
        0,
        0,
        0,
        0,
        0,
        0,
        0,
        0,
        0,
        202,
        0,
        0,
        0,
        0,
        0,
        202,
        202,
        0,
        203,
        0,
        0,
        0,
        0,
        202,
        0,
        0,
        0,
        0,
        0,
        203,
        0,
        204,
        0,
        0,
        204,
        204,
        204,
        203,
        0,
        0,
        203,
        0,
        0,
        204,
        204,
        0,
        0,
        0,
        0,
        0,
        0,
        0,
        0,
        0,
        0,
        0,
        0,
        0,
        0,
        0,
        0,
        0,
        0,
        0,
        0,
        0,
        202,
        0,
        0,
        0,
        0,
        0,
        0,
        0,
        0,
        0,
        0,
        0,
        0,
        0,
        0,
        0,
        0,
        0,
        0,
        0,
        0,
        0,
        0,
        0,
        0,
        0,
        202,
        0,
        0,
        0,
        0,
        0,
        0,
        0,
        0,
        0,
        0,
        0,
        0,
        0,
        0,
        0,
        202,
        0,
        0,
        0,
        0,
        0,
        0,
        0,
        0,
        0,
        0,
        0,
        0,
        0,
        0,
        0,
        0,
        0,
        0,
        0,
        0,
        202,
        0,
        0,
        0,
        0,
        0,
        0,
        0,
        0,
        0,
        0,
        202,
        0,
        0,
        0,
        0,
        203,
        203,
        203,
        202,
        202,
        0,
        0,
        202,
        0,
        0,
        0,
        0,
        203,
        0,
        0,
        204,
        204,
        0,
        204,
        0,
        204,
        204,
        203,
        204,
        203,
        204,
        0,
        0,
        0,
        0,
        0,
        0,
        0,
        0,
        0,
        0,
        0,
        0,
        0,
        0,
        0,
        0,
        0,
        0,
        0,
        0,
        0,
        0,
        0,
        0,
        0,
        0,
        0,
        202,
        0,
        0,
        0,
        202,
        0,
        0,
        0,
        0,
        0,
        0,
        0,
        0,
        0,
        0,
        0,
        0,
        0,
        0,
        0,
        0,
        0,
        0,
        0,
        0,
        0,
        0,
        0,
        0,
        202,
        202,
        0,
        0,
        0,
        0,
        202,
        202,
        0,
        0,
        0,
        0,
        0,
        0,
        0,
        0,
        0,
        0,
        0,
        0,
        202,
        0,
        0,
        0,
        0,
        0,
        0,
        0,
        202,
        0,
        0,
        0,
        0,
        0,
        0,
        0,
        0,
        0,
        0,
        0,
        0,
        0,
        0,
        0,
        0,
        0,
        0,
        203,
        0,
        203,
        203,
        0,
        0,
        203,
        203,
        0,
        204,
        204,
        203,
        0,
        0,
        0,
        0,
        204,
        0,
        0,
        203,
        204,
        203,
        204,
        0,
        0,
        0,
        0,
        0,
        0,
        0,
        0,
        0,
        0,
        0,
        0,
        0,
        0,
        0,
        0,
        0,
        0,
        0,
        0,
        202,
        0,
        202,
        0,
        0,
        0,
        0,
        0,
        0,
        0,
        0,
        0,
        0,
        0,
        202,
        0,
        0,
        0,
        0,
        0,
        0,
        0,
        0,
        0,
        0,
        0,
        0,
        0,
        0,
        202,
        0,
        0,
        0,
        0,
        0,
        0,
        202,
        0,
        202,
        0,
        0,
        0,
        0,
        0,
        0,
        0,
        0,
        0,
        0,
        0,
        0,
        0,
        0,
        0,
        0,
        0,
        0,
        0,
        0,
        202,
        0,
        0,
        0,
        0,
        0,
        0,
        0,
        0,
        0,
        0,
        0,
        0,
        0,
        0,
        0,
        0,
        0,
        0,
        0,
        0,
        203,
        202,
        0,
        0,
        0,
        0,
        0,
        0,
        0,
        203,
        0,
        0,
        204,
        204,
        204,
        203,
        202,
        0,
        204,
        204,
        0,
        0,
        204,
        0,
        204,
        0,
        0,
        0,
        0,
        0,
        0,
        0,
        0,
        0,
        0,
        0,
        0,
        0,
        0,
        0,
        0,
        0,
        0,
        0,
        0,
        0,
        0,
        0,
        0,
        0,
        0,
        0,
        0,
        0,
        0,
        0,
        0,
        0,
        0,
        0,
        0,
        0,
        0,
        0,
        0,
        0,
        0,
        0,
        0,
        0,
        0,
        0,
        0,
        202,
        0,
        202,
        0,
        0,
        0,
        0,
        0,
        0,
        0,
        0,
        0,
        0,
        0,
        202,
        0,
        0,
        0,
        0,
        202,
        0,
        0,
        0,
        0,
        0,
        0,
        0,
        0,
        0,
        0,
        0,
        0,
        0,
        0,
        0,
        0,
        0,
        202,
        202,
        0,
        0,
        0,
        0,
        0,
        0,
        0,
        0,
        0,
        202,
        0,
        0,
        202,
        0,
        0,
        203,
        0,
        0,
        0,
        0,
        0,
        203,
        203,
        0,
        0,
        0,
        204,
        204,
        0,
        204,
        204,
        204,
        0,
        203,
        203,
        0,
        0,
        0,
        204,
        204,
        0,
        0,
        0,
        0,
        0,
        0,
        0,
        0,
        0,
        0,
        0,
        0,
        0,
        0,
        0,
        0,
        0,
        0,
        0,
        0,
        0,
        0,
        202,
        0,
        0,
        0,
        0,
        0,
        0,
        0,
        202,
        0,
        0,
        0,
        0,
        0,
        0,
        0,
        0,
        202,
        0,
        0,
        0,
        0,
        0,
        0,
        0,
        0,
        0,
        0,
        0,
        0,
        0,
        0,
        0,
        202,
        202,
        0,
        0,
        0,
        0,
        0,
        0,
        0,
        0,
        0,
        0,
        0,
        0,
        0,
        202,
        202,
        0,
        0,
        0,
        0,
        0,
        0,
        0,
        0,
        0,
        0,
        0,
        0,
        0,
        0,
        202,
        0,
        202,
        0,
        0,
        0,
        0,
        0,
        0,
        0,
        0,
        0,
        0,
        0,
        203,
        0,
        0,
        203,
        0,
        0,
        0,
        203,
        202,
        203,
        203,
        0,
        0,
        0,
        204,
        0,
        0,
        204,
        204,
        0,
        204,
        204,
        0,
        0,
        0,
        203,
        0,
        0,
        0,
        0,
        0,
        0,
        0,
        0,
        0,
        0,
        0,
        0,
        0,
        0,
        0,
        0,
        0,
        0,
        0,
        0,
        0,
        0,
        202,
        0,
        0,
        0,
        0,
        0,
        0,
        0,
        0,
        0,
        0,
        0,
        0,
        0,
        0,
        0,
        0,
        0,
        0,
        202,
        202,
        0,
        0,
        0,
        0,
        0,
        0,
        0,
        0,
        0,
        0,
        0,
        0,
        0,
        0,
        0,
        0,
        0,
        0,
        202,
        0,
        0,
        0,
        0,
        0,
        0,
        0,
        0,
        0,
        202,
        0,
        0,
        0,
        0,
        0,
        0,
        0,
        0,
        0,
        0,
        0,
        0,
        0,
        0,
        0,
        0,
        0,
        0,
        0,
        0,
        0,
        0,
        0,
        0,
        0,
        0,
        0,
        0,
        0,
        202,
        0,
        0,
        0,
        0,
        203,
        203,
        0,
        203,
        203,
        0,
        204,
        0,
        0,
        204,
        203,
        204,
        0,
        204,
        0,
        0,
        0,
        204,
        0,
        0,
        204,
        0,
        0,
        0,
        0,
        0,
        0,
        0,
        0,
        0,
        0,
        0,
        0,
        0,
        0,
        0,
        0,
        0,
        0,
        0,
        0,
        0,
        0,
        0,
        0,
        0,
        0,
        0,
        0,
        0,
        0,
        0,
        0,
        0,
        0,
        0,
        0,
        0,
        0,
        0,
        0,
        0,
        0,
        0,
        0,
        0,
        0,
        0,
        0,
        0,
        0,
        0,
        0,
        0,
        0,
        0,
        0,
        0,
        0,
        0,
        0,
        0,
        0,
        0,
        0,
        0,
        0,
        0,
        0,
        0,
        0,
        0,
        0,
        0,
        0,
        0,
        0,
        0,
        0,
        0,
        0,
        0,
        0,
        0,
        0,
        0,
        0,
        0,
        0,
        0,
        0,
        0,
        0,
        0,
        0,
        0,
        0,
        0,
        0,
        0,
        0,
        0,
        203,
        0,
        0,
        203,
        203,
        203,
        0,
        0,
        0,
        0,
        0,
        204,
        0,
        204,
        204,
        0,
        0,
        204,
        0,
        0,
        0,
        0,
        203,
        0,
        0,
        0,
        0,
        0,
        0,
        0,
        0,
        0,
        0,
        0,
        0,
        0,
        0,
        0,
        0,
        0,
        0,
        0,
        0,
        0,
        0,
        0,
        0,
        0,
        0,
        0,
        0,
        0,
        0,
        0,
        0,
        0,
        0,
        0,
        0,
        0,
        0,
        0,
        0,
        0,
        0,
        0,
        0,
        0,
        0,
        0,
        0,
        0,
        0,
        0,
        0,
        0,
        0,
        0,
        0,
        0,
        0,
        0,
        0,
        0,
        0,
        0,
        0,
        0,
        0,
        0,
        0,
        0,
        0,
        0,
        0,
        0,
        0,
        0,
        0,
        0,
        0,
        0,
        0,
        0,
        0,
        0,
        0,
        0,
        0,
        0,
        0,
        0,
        0,
        0,
        0,
        0,
        0,
        0,
        0,
        0,
        0,
        0,
        0,
        0,
        0,
        0,
        0,
        0,
        0,
        0,
        0,
        0,
        203,
        0,
        203,
        0,
        204,
        204,
        0,
        204,
        0,
        204,
        0,
        203,
        0,
        0,
        203,
        203,
        0,
        0,
        204,
        0,
        0,
        0,
        0,
        0,
        0,
        0,
        0,
        0,
        0,
        0,
        0,
        0,
        0,
        0,
        0,
        0,
        0,
        0,
        0,
        0,
        0,
        0,
        0,
        0,
        0,
        0,
        0,
        0,
        0,
        0,
        0,
        0,
        0,
        0,
        0,
        0,
        0,
        0,
        0,
        0,
        0,
        0,
        0,
        0,
        0,
        0,
        0,
        0,
        0,
        0,
        0,
        0,
        0,
        0,
        0,
        0,
        0,
        0,
        0,
        0,
        0,
        0,
        0,
        0,
        0,
        0,
        0,
        0,
        0,
        0,
        0,
        0,
        0,
        0,
        0,
        0,
        0,
        0,
        0,
        0,
        0,
        0,
        0,
        0,
        0,
        0,
        0,
        0,
        0,
        0,
        0,
        0,
        0,
        0,
        0,
        0,
        0,
        203,
        0,
        0,
        0,
        0,
        0,
        0,
        0,
        203,
        203,
        203,
        0,
        0,
        204,
        204,
        204,
        0,
        0,
        203,
        204,
        204,
        204,
        203,
        203,
        204,
        204,
        204,
        0,
        0,
        0,
        0,
        0,
        0,
        0,
        0,
        0,
        0,
        0,
        0,
        0,
        0,
        0,
        0,
        0,
        0,
        0,
        0,
        0,
        0,
        0,
        0,
        0,
        0,
        0,
        0,
        0,
        0,
        0,
        0,
        0,
        0,
        0,
        0,
        0,
        0,
        0,
        0,
        0,
        0,
        0,
        0,
        0,
        0,
        0,
        0,
        0,
        0,
        0,
        0,
        0,
        0,
        0,
        0,
        0,
        0,
        0,
        0,
        0,
        0,
        0,
        0,
        0,
        0,
        0,
        0,
        0,
        0,
        0,
        0,
        0,
        0,
        0,
        0,
        0,
        0,
        0,
        0,
        0,
        0,
        0,
        0,
        0,
        0,
        0,
        0,
        0,
        0,
        0,
        0,
        0,
        0,
        0,
        0,
        0,
        0,
        0,
        203,
        203,
        0,
        203,
        0,
        203,
        0,
        0,
        0,
        0,
        0,
        0,
        0,
        0,
        0,
        0,
        203,
        0,
        203,
        0,
        0,
        0,
        204,
        0,
        204,
        204,
        204,
        0,
        0,
        0,
        0,
        0,
        0,
        0,
        0,
        0,
        0,
        0,
        0,
        0,
        0,
        0,
        0,
        0,
        0,
        0,
        0,
        0,
        0,
        0,
        0,
        0,
        0,
        0,
        0,
        0,
        0,
        0,
        0,
        0,
        0,
        0,
        0,
        0,
        0,
        0,
        0,
        0,
        0,
        0,
        0,
        0,
        0,
        0,
        0,
        0,
        0,
        0,
        0,
        0,
        0,
        0,
        0,
        0,
        0,
        0,
        0,
        0,
        0,
        0,
        0,
        0,
        0,
        0,
        0,
        0,
        0,
        0,
        0,
        0,
        0,
        0,
        0,
        0,
        0,
        0,
        0,
        0,
        0,
        0,
        0,
        0,
        0,
        0,
        0,
        0,
        0,
        0,
        0,
        0,
        0,
        0,
        0,
        0,
        0,
        0,
        203,
        0,
        0,
        0,
        203,
        0,
        0,
        0,
        0,
        0,
        0,
        0,
        0,
        204,
        204,
        0,
        0,
        203,
        203,
        204,
        204,
        204,
        203,
        204,
        0,
        0,
        203,
        204,
        0,
        0,
        0,
        0,
        0,
        0,
        0,
        0,
        0,
        0,
        0,
        0,
        0,
        0,
        0,
        0,
        0,
        0,
        0,
        0,
        0,
        0,
        0,
        0,
        0,
        0,
        0,
        0,
        0,
        0,
        0,
        0,
        0,
        0,
        0,
        0,
        0,
        0,
        0,
        0,
        0,
        0,
        0,
        0,
        0,
        0,
        0,
        0,
        0,
        0,
        0,
        0,
        0,
        0,
        0,
        0,
        0,
        0,
        0,
        0,
        0,
        0,
        0,
        0,
        0,
        0,
        0,
        0,
        0,
        0,
        0,
        0,
        0,
        0,
        0,
        0,
        0,
        0,
        0,
        0,
        0,
        0,
        0,
        0,
        0,
        0,
        0,
        0,
        0,
        0,
        0,
        0,
        0,
        0,
        0,
        0,
        0,
        0,
        203,
        0,
        203,
        0,
        0,
        203,
        203,
        203,
        0,
        203,
        0,
        0,
        0,
        204,
        0,
        204,
        0,
        204,
        204,
        0,
        204,
        0,
        0,
        204,
        204,
        0,
        0,
        0,
        0,
        0,
        0,
        0,
        0,
        0,
        0,
        0,
        0,
        0,
        0,
        0,
        0,
        0,
        0,
        0,
        0,
        0,
        0,
        0,
        0,
        0,
        0,
        0,
        0,
        0,
        0,
        0,
        0,
        0,
        0,
        0,
        0,
        0,
        0,
        0,
        0,
        0,
        0,
        0,
        0,
        0,
        0,
        0,
        0,
        0,
        0,
        0,
        0,
        0,
        0,
        0,
        0,
        0,
        0,
        0,
        0,
        0,
        0,
        0,
        0,
        0,
        0,
        0,
        0,
        0,
        0,
        0,
        0,
        0,
        0,
        0,
        0,
        0,
        0,
        0,
        0,
        0,
        0,
        0,
        0,
        0,
        0,
        0,
        0,
        0,
        0,
        0,
        0,
        0,
        0,
        0,
        0,
        0,
        0,
        0,
        0,
        0,
        0,
        0,
        0,
        203,
        0,
        0,
        203,
        0,
        203,
        0,
        0,
        0,
        0,
        0,
        0,
        0,
        0,
        204,
        203,
        204,
        0,
        0,
        204,
        203,
        0,
        204,
        0,
        204,
        0,
        0,
        0,
        0,
        0,
        0,
        0,
        0,
        0,
        0,
        0,
        0,
        0,
        0,
        0,
        0,
        0,
        0,
        0,
        0,
        0,
        0,
        0,
        0,
        0,
        0,
        0,
        0,
        0,
        0,
        0,
        0,
        0,
        0,
        0,
        0,
        0,
        0,
        0,
        0,
        0,
        0,
        0,
        0,
        0,
        0,
        0,
        0,
        0,
        0,
        0,
        0,
        0,
        0,
        0,
        0,
        0,
        0,
        0,
        0,
        0,
        0,
        0,
        0,
        0,
        0,
        0,
        0,
        0,
        0,
        0,
        0,
        0,
        0,
        0,
        0,
        0,
        0,
        0,
        0,
        0,
        0,
        0,
        0,
        0,
        0,
        0,
        0,
        0,
        0,
        0,
        0,
        0,
        0,
        0,
        0,
        0,
        0,
        0,
        0,
        0,
        0,
        0,
        0,
        0,
        0,
        0,
        0,
        203,
        0,
        203,
        0,
        0,
        0,
        204,
        0,
        204,
        204,
        204,
        0,
        0,
        0,
        204,
        0,
        0,
        203,
        0,
        0,
        0,
        0,
        0,
        0,
        0,
        0,
        0,
        0,
        0,
        0,
        0,
        0,
        0,
        0,
        0,
        0,
        0,
        0,
        0,
        0,
        0,
        0,
        0,
        0,
        0,
        0,
        0,
        0,
        0,
        0,
        0,
        0,
        0,
        0,
        0,
        0,
        0,
        0,
        0,
        0,
        0,
        0,
        0,
        0,
        0,
        0,
        0,
        0,
        0,
        0,
        0,
        0,
        0,
        0,
        0,
        0,
        0,
        0,
        0,
        0,
        0,
        0,
        0,
        0,
        0,
        0,
        0,
        0,
        0,
        0,
        0,
        0,
        0,
        0,
        0,
        0,
        0,
        0,
        0,
        0,
        0,
        0,
        0,
        0,
        0,
        0,
        0,
        0,
        0,
        0,
        0,
        0,
        0,
        0,
        0,
        0,
        0,
        0,
        0,
        0,
        0,
        0,
        0,
        0,
        0,
        0,
        0,
        0,
        0,
        0,
        204,
        0,
        204,
        0,
        204,
        204,
        0,
        0,
        204,
        0,
        204,
        0,
        204,
        203,
        204,
        0,
        0,
        0,
        0,
        0,
        0,
        0,
        0,
        0,
        0,
        0,
        0,
        0,
        0,
        0,
        0,
        0,
        0,
        0,
        0,
        0,
        0,
        0,
        0,
        0,
        0,
        0,
        0,
        0,
        0,
        0,
        0,
        0,
        0,
        0,
        0,
        0,
        0,
        0,
        0,
        0,
        0,
        0,
        0,
        0,
        0,
        0,
        0,
        0,
        0,
        0,
        0,
        0,
        0,
        0,
        0,
        0,
        0,
        0,
        0,
        0,
        0,
        0,
        0,
        0,
        0,
        0,
        0,
        0,
        0,
        0,
        0,
        0,
        0,
        0,
        0,
        0,
        0,
        0,
        0,
        0,
        0,
        0,
        0,
        0,
        0,
        0,
        0,
        0,
        0,
        0,
        0,
        0,
        0,
        0,
        0,
        0,
        0,
        0,
        0,
        0,
        0,
        0,
        0,
        0,
        0,
        0,
        203,
        0,
        203,
        204,
        204,
        204,
        203,
        0,
        0,
        204,
        204,
        0,
        204,
        0,
        0,
        0,
        0,
        0,
        0,
        0,
        0,
        0,
        0,
        0,
        0,
        0,
        0,
        0,
        0,
        0,
        0,
        0,
        0,
        0,
        0,
        0,
        0,
        0,
        0,
        0,
        0,
        0,
        0,
        0,
        0,
        0,
        0,
        0,
        0,
        0,
        0,
        0,
        0,
        0,
        0,
        0,
        0,
        0,
        0,
        0,
        0,
        0,
        0,
        0,
        0,
        0,
        0,
        0,
        0,
        0,
        0,
        0,
        0,
        0,
        0,
        0,
        0,
        0,
        0,
        0,
        0,
        0,
        0,
        0,
        0,
        0,
        0,
        0,
        0,
        0,
        0,
        0,
        0,
        0,
        0,
        0,
        0,
        0,
        0,
        0,
        0,
        0,
        0,
        0,
        0,
        0,
        0,
        0,
        0,
        0,
        0,
        0,
        0,
        0,
        0,
        0,
        0,
        0,
        0,
        0,
        0,
        0,
        0,
        0,
        0,
        0,
        0,
        203,
        203,
        204,
        203,
        204,
        0,
        0,
        203,
        0,
        0,
        0,
        0,
        0,
        0,
        204,
        203,
        203,
        203,
        0,
        0,
        0,
        0,
        0,
        0,
        0,
        0,
        0,
        0,
        0,
        0,
        0,
        0,
        0,
        0,
        0,
        0,
        0,
        0,
        0,
        0,
        0,
        0,
        0,
        0,
        0,
        0,
        0,
        0,
        0,
        0,
        0,
        0,
        0,
        0,
        0,
        0,
        0,
        0,
        0,
        0,
        0,
        0,
        0,
        0,
        0,
        0,
        0,
        0,
        0,
        0,
        0,
        0,
        0,
        0,
        0,
        0,
        0,
        0,
        0,
        0,
        0,
        0,
        0,
        0,
        0,
        0,
        0,
        0,
        0,
        0,
        0,
        0,
        0,
        0,
        0,
        0,
        0,
        0,
        0,
        0,
        0,
        0,
        0,
        0,
        0,
        0,
        0,
        0,
        0,
        0,
        0,
        0,
        0,
        0,
        0,
        0,
        0,
        0,
        0,
        0,
        0,
        0,
        0,
        0,
        0,
        0,
        0,
        203,
        0,
        204,
        204,
        0,
        0,
        0,
        203,
        0,
        203,
        0,
        204,
        204,
        204,
        0,
        0,
        0,
        0,
        0,
        0,
        0,
        0,
        0,
        0,
        0,
        0,
        0,
        0,
        0,
        0,
        0,
        0,
        0,
        0,
        0,
        0,
        0,
        0,
        0,
        0,
        0,
        0,
        0,
        0,
        0,
        0,
        0,
        0,
        0,
        0,
        0,
        0,
        0,
        0,
        0,
        0,
        0,
        0,
        0,
        0,
        0,
        0,
        0,
        0,
        0,
        0,
        0,
        0,
        0,
        0,
        0,
        0,
        0,
        0,
        0,
        0,
        0,
        0,
        0,
        0,
        0,
        0,
        0,
        0,
        0,
        0,
        0,
        0,
        0,
        0,
        0,
        0,
        0,
        0,
        0,
        0,
        0,
        0,
        0,
        0,
        0,
        0,
        0,
        0,
        0,
        0,
        0,
        0,
        0,
        0,
        0,
        0,
        0,
        0,
        0,
        0,
        0,
        0,
        0,
        0,
        0,
        0,
        0,
        0,
        0,
        203,
        0,
        204,
        203,
        204,
        0,
        204,
        0,
        204,
        0,
        0,
        204,
        0,
        204,
        204,
        203,
        0,
        0,
        0,
        0,
        0,
        0,
        0,
        0,
        0,
        0,
        0,
        0,
        0,
        0,
        0,
        0,
        0,
        0,
        0,
        0,
        0,
        0,
        0,
        0,
        0,
        0,
        0,
        0,
        0,
        0,
        0,
        0,
        0,
        0,
        0,
        0,
        0,
        0,
        0,
        0,
        0,
        0,
        0,
        0,
        0,
        0,
        0,
        0,
        0,
        0,
        0,
        0,
        0,
        0,
        0,
        0,
        0,
        0,
        0,
        0,
        0,
        0,
        0,
        0,
        0,
        0,
        0,
        0,
        0,
        0,
        0,
        0,
        0,
        0,
        0,
        0,
        0,
        0,
        0,
        0,
        0,
        0,
        0,
        0,
        0,
        0,
        0,
        0,
        0,
        0,
        0,
        0,
        0,
        0,
        0,
        0,
        0,
        0,
        0,
        0,
        0,
        0,
        0,
        0,
        0,
        0,
        0,
        0,
        0,
        0,
        0,
        0,
        0,
        0,
        204,
        204,
        0,
        204,
        0,
        0,
        0,
        204,
        203,
        204,
        203,
        0,
        0,
        204,
        0,
        0,
        0,
        0,
        0,
        0,
        0,
        0,
        0,
        0,
        0,
        0,
        0,
        0,
        0,
        0,
        0,
        0,
        0,
        0,
        0,
        0,
        0,
        0,
        0,
        0,
        0,
        0,
        0,
        0,
        0,
        0,
        0,
        0,
        0,
        0,
        0,
        0,
        0,
        0,
        0,
        0,
        0,
        0,
        0,
        0,
        0,
        0,
        0,
        0,
        0,
        0,
        0,
        0,
        0,
        0,
        0,
        0,
        0,
        0,
        0,
        0,
        0,
        0,
        0,
        0,
        0,
        0,
        0,
        0,
        0,
        0,
        0,
        0,
        0,
        0,
        0,
        0,
        0,
        0,
        0,
        0,
        0,
        0,
        0,
        0,
        0,
        0,
        0,
        0,
        0,
        0,
        0,
        0,
        0,
        0,
        0,
        0,
        0,
        0,
        0,
        0,
        0,
        0,
        0,
        0,
        0,
        0,
        0,
        203,
        0,
        0,
        0,
        0,
        204,
        0,
        203,
        0,
        204,
        204,
        204,
        0,
        0,
        0,
        203,
        0,
        0,
        0,
        0,
        0,
        0,
        0,
        0,
        0,
        0,
        0,
        0,
        0,
        0,
        0,
        0,
        0,
        0,
        0,
        0,
        0,
        0,
        0,
        0,
        0,
        0,
        0,
        0,
        0,
        0,
        0,
        0,
        0,
        0,
        0,
        0,
        0,
        0,
        0,
        0,
        0,
        0,
        0,
        0,
        0,
        0,
        0,
        0,
        0,
        0,
        0,
        0,
        0,
        0,
        0,
        0,
        0,
        0,
        0,
        0,
        0,
        0,
        0,
        0,
        0,
        0,
        0,
        0,
        0,
        0,
        0,
        0,
        0,
        0,
        0,
        0,
        0,
        0,
        0,
        0,
        0,
        0,
        0,
        0,
        0,
        0,
        0,
        0,
        0,
        0,
        0,
        0,
        0,
        0,
        0,
        0,
        0,
        0,
        0,
        0,
        0,
        0,
        0,
        0,
        0,
        0,
        0,
        0,
        0,
        0,
        0,
        0,
        204,
        204,
        204,
        204,
        0,
        0,
        0,
        204,
        0,
        0,
        204,
        0,
        204,
        0,
        0,
        0,
        0,
        0,
        0,
        0,
        0,
        0,
        0,
        0,
        0,
        0,
        0,
        0,
        0,
        0,
        0,
        0,
        0,
        0,
        0,
        0,
        0,
        0,
        0,
        0,
        0,
        0,
        0,
        0,
        0,
        0,
        0,
        0,
        0,
        0,
        0,
        0,
        0,
        0,
        0,
        0,
        0,
        0,
        0,
        0,
        0,
        0,
        0,
        0,
        0,
        0,
        0,
        0,
        0,
        0,
        0,
        0,
        0,
        0,
        0,
        0,
        0,
        0,
        0,
        0,
        0,
        0,
        0,
        0,
        0,
        0,
        0,
        0,
        0,
        0,
        0,
        0,
        0,
        0,
        0,
        0,
        0,
        0,
        0,
        0,
        0,
        0,
        0,
        0,
        0,
        0,
        0,
        0,
        0,
        0,
        0,
        0,
        0,
        0,
        0,
        0,
        0,
        0,
        0,
        0,
        0,
        0,
        203,
        0,
        0,
        0,
        0,
        0,
        204,
        203,
        204,
        0,
        0,
        204,
        203,
        0,
        0,
        0,
        204,
        204,
        0,
        0,
        0,
        0,
        0,
        0,
        0,
        0,
        0,
        0,
        0,
        0,
        0,
        0,
        0,
        0,
        0,
        0,
        0,
        0,
        0,
        0,
        0,
        0,
        0,
        0,
        0,
        0,
        0,
        0,
        0,
        0,
        0,
        0,
        0,
        0,
        0,
        0,
        0,
        0,
        0,
        0,
        0,
        0,
        0,
        0,
        0,
        0,
        0,
        0,
        0,
        0,
        0,
        0,
        0,
        0,
        0,
        0,
        0,
        0,
        0,
        0,
        0,
        0,
        0,
        0,
        0,
        0,
        0,
        0,
        0,
        0,
        0,
        0,
        0,
        0,
        0,
        0,
        0,
        0,
        0,
        0,
        0,
        0,
        0,
        0,
        0,
        0,
        0,
        0,
        0,
        0,
        0,
        0,
        0,
        0,
        0,
        0,
        0,
        0,
        0,
        0,
        0,
        0,
        0,
        0,
        0,
        0,
        203,
        0,
        0,
        204,
        0,
        0,
        0,
        204,
        0,
        203,
        0,
        0,
        204,
        203,
        203,
        0,
        0,
        0,
        204,
        0,
        0,
        0,
        0,
        0,
        0,
        0,
        0,
        0,
        0,
        0,
        0,
        0,
        0,
        0,
        0,
        0,
        0,
        0,
        0,
        0,
        0,
        0,
        0,
        0,
        0,
        0,
        0,
        0,
        0,
        0,
        0,
        0,
        0,
        0,
        0,
        0,
        0,
        0,
        0,
        0,
        0,
        0,
        0,
        0,
        0,
        0,
        0,
        0,
        0,
        0,
        0,
        0,
        0,
        0,
        0,
        0,
        0,
        0,
        0,
        0,
        0,
        0,
        0,
        0,
        0,
        0,
        0,
        0,
        0,
        0,
        0,
        0,
        0,
        0,
        0,
        0,
        0,
        0,
        0,
        0,
        0,
        0,
        0,
        0,
        0,
        0,
        0,
        0,
        0,
        0,
        0,
        0,
        0,
        0,
        0,
        0,
        0,
        0,
        0,
        0,
        0,
        0,
        0,
        0,
        0,
        0,
        0,
        0,
        203,
        204,
        204,
        204,
        0,
        204,
        203,
        0,
        0,
        0,
        0,
        0,
        0,
        0,
        0,
        0,
        0,
        0,
        0,
        0,
        0,
        0,
        0,
        0,
        0,
        0,
        0,
        0,
        0,
        0,
        0,
        0,
        0,
        0,
        0,
        0,
        0,
        0,
        0,
        0,
        0,
        0,
        0,
        0,
        0,
        0,
        0,
        0,
        0,
        0,
        0,
        0,
        0,
        0,
        0,
        0,
        0,
        0,
        0,
        0,
        0,
        0,
        0,
        0,
        0,
        0,
        0,
        0,
        0,
        0,
        0,
        0,
        0,
        0,
        0,
        0,
        0,
        0,
        0,
        0,
        0,
        0,
        0,
        0,
        0,
        0,
        0,
        0,
        0,
        0,
        0,
        0,
        0,
        0,
        0,
        0,
        0,
        0,
        0,
        0,
        0,
        0,
        0,
        0,
        0,
        0,
        0,
        0,
        0,
        0,
        0,
        0,
        0,
        0,
        0,
        0,
        0,
        0,
        0,
        0,
        0,
        0,
        0,
        0,
        0,
        0,
        0,
        204,
        204,
        0,
        203,
        203,
        203,
        0,
        0,
        203,
        204,
        204,
        204,
        0,
        204,
        0,
        0,
        0,
        0,
        0,
        0,
        0,
        0,
        0,
        0,
        0,
        0,
        0,
        0,
        0,
        0,
        0,
        0,
        0,
        0,
        0,
        0,
        0,
        0,
        0,
        0,
        0,
        0,
        0,
        0,
        0,
        0,
        0,
        0,
        0,
        0,
        0,
        0,
        0,
        0,
        0,
        0,
        0,
        0,
        0,
        0,
        0,
        0,
        0,
        0,
        0,
        0,
        0,
        0,
        0,
        0,
        0,
        0,
        0,
        0,
        0,
        0,
        0,
        0,
        0,
        0,
        0,
        0,
        0,
        0,
        0,
        0,
        0,
        0,
        0,
        0,
        0,
        0,
        0,
        0,
        0,
        0,
        0,
        0,
        0,
        0,
        0,
        0,
        0,
        0,
        0,
        0,
        0,
        0,
        0,
        0,
        0,
        0,
        0,
        0,
        0,
        0,
        0,
        0,
        0,
        0,
        0,
        0,
        0,
        0,
        203,
        203,
        0,
        204,
        204,
        0,
        204,
        203,
        0,
        0,
        0,
        204,
        0,
        204,
        204,
        204,
        0,
        0,
        0,
        0,
        0,
        0,
        0,
        0,
        0,
        0,
        0,
        0,
        0,
        0,
        0,
        0,
        0,
        0,
        0,
        0,
        0,
        0,
        0,
        0,
        0,
        0,
        0,
        0,
        0,
        0,
        0,
        0,
        0,
        0,
        0,
        0,
        0,
        0,
        0,
        0,
        0,
        0,
        0,
        0,
        0,
        0,
        0,
        0,
        0,
        0,
        0,
        0,
        0,
        0,
        0,
        0,
        0,
        0,
        0,
        0,
        0,
        0,
        0,
        0,
        0,
        0,
        0,
        0,
        0,
        0,
        0,
        0,
        0,
        0,
        0,
        0,
        0,
        0,
        0,
        0,
        0,
        0,
        0,
        0,
        0,
        0,
        0,
        0,
        0,
        0,
        0,
        0,
        0,
        0,
        0,
        0,
        0,
        0,
        0,
        0,
        0,
        0,
        0,
        0,
        0,
        0,
        0,
        0,
        0,
        0,
        0,
        0,
        203,
        0,
        204,
        203,
        204,
        204,
        0,
        0,
        0,
        204,
        203,
        0,
        204,
        0,
        204,
        0,
        0,
        0,
        0,
        0,
        0,
        0,
        0,
        0,
        0,
        0,
        0,
        0,
        0,
        0,
        0,
        0,
        0,
        0,
        0,
        0,
        0,
        0,
        0,
        0,
        0,
        0,
        0,
        0,
        0,
        0,
        0,
        0,
        0,
        0,
        0,
        0,
        0,
        0,
        0,
        0,
        0,
        0,
        0,
        0,
        0,
        0,
        0,
        0,
        0,
        0,
        0,
        0,
        0,
        0,
        0,
        0,
        0,
        0,
        0,
        0,
        0,
        0,
        0,
        0,
        0,
        0,
        0,
        0,
        0,
        0,
        0,
        0,
        0,
        0,
        0,
        0,
        0,
        0,
        0,
        0,
        0,
        0,
        0,
        0,
        0,
        0,
        0,
        0,
        0,
        0,
        0,
        0,
        0,
        0,
        0,
        0,
        0,
        0,
        0,
        0,
        0,
        0,
        0,
        0,
        0,
        0,
        0,
        0,
        203,
        0,
        0,
        204,
        204,
        204,
        204,
        0,
        204,
        0,
        204,
        0,
        0,
        204,
        0,
        204,
        203,
        0,
        0,
        0,
        0,
        0,
        0,
        0,
        0,
        0,
        0,
        0,
        0,
        0,
        0,
        0,
        0,
        0,
        0,
        0,
        0,
        0,
        0,
        0,
        0,
        0,
        0,
        0,
        0,
        0,
        0,
        0,
        0,
        0,
        0,
        0,
        0,
        0,
        0,
        0,
        0,
        0,
        0,
        0,
        0,
        0,
        0,
        0,
        0,
        0,
        0,
        0,
        0,
        0,
        0,
        0,
        0,
        0,
        0,
        0,
        0,
        0,
        0,
        0,
        0,
        0,
        0,
        0,
        0,
        0,
        0,
        0,
        0,
        0,
        0,
        0,
        0,
        0,
        0,
        0,
        0,
        0,
        0,
        0,
        0,
        0,
        0,
        0,
        0,
        0,
        0,
        0,
        0,
        0,
        0,
        0,
        0,
        0,
        0,
        0,
        0,
        0,
        0,
        0,
        0,
        0,
        0,
        0,
        0,
        0,
        0,
        0,
        204,
        204,
        204,
        204,
        204,
        204,
        0,
        0,
        204,
        0,
        204,
        0,
        0,
        0,
        0,
        0,
        0,
        0,
        0,
        0,
        0,
        0,
        0,
        0,
        0,
        0,
        0,
        0,
        0,
        0,
        0,
        0,
        0,
        0,
        0,
        0,
        0,
        0,
        0,
        0,
        0,
        0,
        0,
        0,
        0,
        0,
        0,
        0,
        0,
        0,
        0,
        0,
        0,
        0,
        0,
        0,
        0,
        0,
        0,
        0,
        0,
        0,
        0,
        0,
        0,
        0,
        0,
        0,
        0,
        0,
        0,
        0,
        0,
        0,
        0,
        0,
        0,
        0,
        0,
        0,
        0,
        0,
        0,
        0,
        0,
        0,
        0,
        0,
        0,
        0,
        0,
        0,
        0,
        0,
        0,
        0,
        0,
        0,
        0,
        0,
        0,
        0,
        0,
        0,
        0,
        0,
        0,
        0,
        0,
        0,
        0,
        0,
        0,
        0,
        0,
        0,
        0,
        0,
        0,
        0,
        0,
        0,
        0,
        0,
        0,
        0,
        0,
        0,
        0,
        204,
        0,
        0,
        0,
        204,
        203,
        0,
        0,
        0,
        0,
        0,
        203,
        0,
        0,
        0,
        0,
        0,
        0,
        0,
        0,
        0,
        0,
        0,
        0,
        0,
        0,
        0,
        0,
        0,
        0,
        0,
        0,
        0,
        0,
        0,
        0,
        0,
        0,
        0,
        0,
        0,
        0,
        0,
        0,
        0,
        0,
        0,
        0,
        0,
        0,
        0,
        0,
        0,
        0,
        0,
        0,
        0,
        0,
        0,
        0,
        0,
        0,
        0,
        0,
        0,
        0,
        0,
        0,
        0,
        0,
        0,
        0,
        0,
        0,
        0,
        0,
        0,
        0,
        0,
        0,
        0,
        0,
        0,
        0,
        0,
        0,
        0,
        0,
        0,
        0,
        0,
        0,
        0,
        0,
        0,
        0,
        0,
        0,
        0,
        0,
        0,
        0,
        0,
        0,
        0,
        0,
        0,
        0,
        0,
        0,
        0,
        0,
        0,
        0,
        0,
        0,
        0,
        0,
        0,
        0,
        0,
        0,
        0,
        0,
        204,
        0,
        204,
        204,
        0,
        0,
        0,
        0,
        204,
        0,
        204,
        203,
        0,
        203,
        0,
        0,
        0,
        0,
        0,
        0,
        0,
        0,
        0,
        0,
        0,
        0,
        0,
        0,
        0,
        0,
        0,
        0,
        0,
        0,
        0,
        0,
        0,
        0,
        0,
        0,
        0,
        0,
        0,
        0,
        0,
        0,
        0,
        0,
        0,
        0,
        0,
        0,
        0,
        0,
        0,
        0,
        0,
        0,
        0,
        0,
        0,
        0,
        0,
        0,
        0,
        0,
        0,
        0,
        0,
        0,
        0,
        0,
        0,
        0,
        0,
        0,
        0,
        0,
        0,
        0,
        0,
        0,
        0,
        0,
        0,
        0,
        0,
        0,
        0,
        0,
        0,
        0,
        0,
        0,
        0,
        0,
        0,
        0,
        0,
        0,
        0,
        0,
        0,
        0,
        0,
        0,
        0,
        0,
        0,
        0,
        0,
        0,
        0,
        0,
        0,
        0,
        0,
        0,
        0,
        0,
        0,
        0,
        0,
        0,
        0,
        0,
        203,
        203,
        204,
        0,
        203,
        204,
        204,
        204,
        0,
        0,
        204,
        0,
        0,
        204,
        0,
        0,
        0,
        0,
        0,
        0,
        0,
        0,
        0,
        0,
        0,
        0,
        0,
        0,
        0,
        0,
        0,
        0,
        0,
        0,
        0,
        0,
        0,
        0,
        0,
        0,
        0,
        0,
        0,
        0,
        0,
        0,
        0,
        0,
        0,
        0,
        0,
        0,
        0,
        0,
        0,
        0,
        0,
        0,
        0,
        0,
        0,
        0,
        0,
        0,
        0,
        0,
        0,
        0,
        0,
        0,
        0,
        0,
        0,
        0,
        0,
        0,
        0,
        0,
        0,
        0,
        0,
        0,
        0,
        0,
        0,
        0,
        0,
        0,
        0,
        0,
        0,
        0,
        0,
        0,
        0,
        0,
        0,
        0,
        0,
        0,
        0,
        0,
        0,
        0,
        0,
        0,
        0,
        0,
        0,
        0,
        0,
        0,
        0,
        0,
        0,
        0,
        0,
        0,
        0,
        0,
        0,
        0,
        0,
        0,
        0,
        0,
        0,
        0,
        203,
        0,
        0,
        0,
        204,
        0,
        0,
        0,
        204,
        0,
        204,
        204,
        0,
        0,
        0,
        0,
        0,
        0,
        0,
        0,
        0,
        0,
        0,
        0,
        0,
        0,
        0,
        0,
        0,
        0,
        0,
        0,
        0,
        0,
        0,
        0,
        0,
        0,
        0,
        0,
        0,
        0,
        0,
        0,
        0,
        0,
        0,
        0,
        0,
        0,
        0,
        0,
        0,
        0,
        0,
        0,
        0,
        0,
        0,
        0,
        0,
        0,
        0,
        0,
        0,
        0,
        0,
        0,
        0,
        0,
        0,
        0,
        0,
        0,
        0,
        0,
        0,
        0,
        0,
        0,
        0,
        0,
        0,
        0,
        0,
        0,
        0,
        0,
        0,
        0,
        0,
        0,
        0,
        0,
        0,
        0,
        0,
        0,
        0,
        0,
        0,
        0,
        0,
        0,
        0,
        0,
        0,
        0,
        0,
        0,
        0,
        0,
        0,
        0,
        0,
        0,
        0,
        0,
        0,
        0,
        203,
        203,
        0,
        0,
        0,
        204,
        204,
        0,
        204,
        0,
        0,
        0,
        203,
        203,
        0,
        204,
        0,
        0,
        0,
        0,
        0,
        0,
        0,
        0,
        0,
        0,
        0,
        0,
        0,
        0,
        0,
        0,
        0,
        0,
        0,
        0,
        0,
        0,
        0,
        0,
        0,
        0,
        0,
        0,
        0,
        0,
        0,
        0,
        0,
        0,
        0,
        0,
        0,
        0,
        0,
        0,
        0,
        0,
        0,
        0,
        0,
        0,
        0,
        0,
        0,
        0,
        0,
        0,
        0,
        0,
        0,
        0,
        0,
        0,
        0,
        0,
        0,
        0,
        0,
        0,
        0,
        0,
        0,
        0,
        0,
        0,
        0,
        0,
        0,
        0,
        0,
        0,
        0,
        0,
        0,
        0,
        0,
        0,
        0,
        0,
        0,
        0,
        0,
        0,
        0,
        0,
        0,
        0,
        0,
        0,
        0,
        0,
        0,
        0,
        0,
        0,
        0,
        0,
        0,
        0,
        0,
        0,
        0,
        0,
        0,
        0,
        0,
        203,
        0,
        204,
        0,
        204,
        204,
        0,
        0,
        0,
        203,
        0,
        0,
        203,
        0,
        0,
        204,
        0,
        0,
        0,
        0,
        0,
        0,
        0,
        0,
        0,
        0,
        0,
        0,
        0,
        0,
        0,
        0,
        0,
        0,
        0,
        0,
        0,
        0,
        0,
        0,
        0,
        0,
        0,
        0,
        0,
        0,
        0,
        0,
        0,
        0,
        0,
        0,
        0,
        0,
        0,
        0,
        0,
        0,
        0,
        0,
        0,
        0,
        0,
        0,
        0,
        0,
        0,
        0,
        0,
        0,
        0,
        0,
        0,
        0,
        0,
        0,
        0,
        0,
        0,
        0,
        0,
        0,
        0,
        0,
        0,
        0,
        0,
        0,
        0,
        0,
        0,
        0,
        0,
        0,
        0,
        0,
        0,
        0,
        0,
        0,
        0,
        0,
        0,
        0,
        0,
        0,
        0,
        0,
        0,
        0,
        0,
        0,
        0,
        0,
        0,
        0,
        203,
        0,
        0,
        0,
        203,
        203,
        0,
        0,
        203,
        0,
        0,
        0,
        203,
        204,
        204,
        0,
        204,
        0,
        0,
        204,
        0,
        0,
        203,
        204,
        204,
        204,
        203,
        0,
        0,
        0,
        0,
        0,
        0,
        0,
        0,
        0,
        0,
        0,
        0,
        0,
        0,
        0,
        0,
        0,
        0,
        0,
        0,
        0,
        0,
        0,
        0,
        0,
        0,
        0,
        0,
        0,
        0,
        0,
        0,
        0,
        0,
        0,
        0,
        0,
        0,
        0,
        0,
        0,
        0,
        0,
        0,
        0,
        0,
        0,
        0,
        0,
        0,
        0,
        0,
        0,
        0,
        0,
        0,
        0,
        0,
        0,
        0,
        0,
        0,
        0,
        0,
        0,
        0,
        0,
        0,
        0,
        0,
        0,
        0,
        0,
        0,
        0,
        0,
        0,
        0,
        0,
        0,
        0,
        0,
        0,
        0,
        0,
        0,
        0,
        0,
        0,
        0,
        0,
        0,
        0,
        0,
        0,
        0,
        0,
        0,
        203,
        0,
        0,
        0,
        0,
        0,
        203,
        203,
        0,
        0,
        0,
        203,
        0,
        204,
        204,
        0,
        0,
        204,
        0,
        204,
        0,
        203,
        0,
        0,
        204,
        0,
        0,
        0,
        0,
        0,
        0,
        0,
        0,
        0,
        0,
        0,
        0,
        0,
        0,
        0,
        0,
        0,
        0,
        0,
        0,
        0,
        0,
        0,
        0,
        0,
        0,
        0,
        0,
        0,
        0,
        0,
        0,
        0,
        0,
        0,
        0,
        0,
        0,
        0,
        0,
        0,
        0,
        0,
        0,
        0,
        0,
        0,
        0,
        0,
        0,
        0,
        0,
        0,
        0,
        0,
        0,
        0,
        0,
        0,
        0,
        0,
        0,
        0,
        0,
        0,
        0,
        0,
        0,
        0,
        0,
        0,
        0,
        0,
        0,
        0,
        0,
        0,
        0,
        0,
        0,
        0,
        0,
        0,
        0,
        0,
        0,
        0,
        0,
        0,
        0,
        0,
        0,
        0,
        0,
        0,
        0,
        0,
        0,
        0,
        0,
        0,
        0,
        0,
        203,
        0,
        203,
        0,
        203,
        0,
        0,
        203,
        203,
        0,
        203,
        0,
        0,
        0,
        0,
        0,
        0,
        204,
        0,
        203,
        204,
        0,
        0,
        0,
        0,
        0,
        0,
        0,
        0,
        0,
        0,
        0,
        0,
        0,
        0,
        0,
        0,
        0,
        0,
        0,
        0,
        0,
        0,
        0,
        0,
        0,
        0,
        0,
        0,
        0,
        0,
        0,
        0,
        0,
        0,
        0,
        0,
        0,
        0,
        0,
        0,
        0,
        0,
        0,
        0,
        0,
        0,
        0,
        0,
        0,
        0,
        0,
        0,
        0,
        0,
        0,
        0,
        0,
        0,
        0,
        0,
        0,
        0,
        0,
        0,
        0,
        0,
        0,
        0,
        0,
        0,
        0,
        0,
        0,
        0,
        0,
        0,
        0,
        0,
        0,
        0,
        0,
        0,
        0,
        0,
        0,
        0,
        0,
        0,
        0,
        0,
        0,
        0,
        0,
        0,
        0,
        0,
        0,
        0,
        0,
        0,
        0,
        0,
        0,
        0,
        203,
        0,
        203,
        0,
        0,
        0,
        0,
        0,
        0,
        203,
        0,
        0,
        203,
        204,
        204,
        0,
        204,
        0,
        0,
        203,
        0,
        0,
        204,
        204,
        0,
        0,
        0,
        0,
        0,
        0,
        0,
        0,
        0,
        0,
        0,
        0,
        0,
        0,
        0,
        0,
        0,
        0,
        0,
        0,
        0,
        0,
        0,
        0,
        0,
        0,
        0,
        0,
        0,
        0,
        0,
        0,
        0,
        0,
        0,
        0,
        0,
        0,
        0,
        0,
        0,
        0,
        0,
        0,
        0,
        0,
        0,
        0,
        0,
        0,
        0,
        0,
        0,
        0,
        0,
        0,
        0,
        0,
        0,
        0,
        0,
        0,
        0,
        0,
        0,
        0,
        0,
        0,
        0,
        0,
        0,
        0,
        0,
        0,
        0,
        0,
        0,
        0,
        0,
        0,
        0,
        0,
        0,
        0,
        0,
        0,
        0,
        0,
        0,
        0,
        0,
        0,
        0,
        0,
        0,
        0,
        0,
        0,
        0,
        0,
        0,
        203,
        0,
        0,
        0,
        0,
        0,
        0,
        203,
        0,
        0,
        0,
        0,
        0,
        204,
        0,
        203,
        204,
        203,
        204,
        204,
        0,
        0,
        204,
        0,
        204,
        203,
        0,
        0,
        0,
        0,
        0,
        0,
        0,
        0,
        0,
        0,
        0,
        0,
        0,
        0,
        0,
        0,
        0,
        0,
        0,
        0,
        0,
        0,
        0,
        0,
        0,
        0,
        0,
        0,
        0,
        0,
        0,
        0,
        0,
        0,
        0,
        0,
        0,
        0,
        0,
        0,
        0,
        0,
        0,
        0,
        0,
        0,
        0,
        0,
        0,
        0,
        0,
        0,
        0,
        0,
        0,
        0,
        0,
        0,
        0,
        0,
        0,
        0,
        0,
        0,
        0,
        0,
        0,
        0,
        0,
        0,
        0,
        0,
        0,
        0,
        0,
        0,
        0,
        0,
        0,
        0,
        0,
        0,
        0,
        0,
        0,
        0,
        0,
        0,
        0,
        0,
        0,
        0,
        0,
        0,
        0,
        0,
        0,
        0,
        0,
        0,
        0,
        0,
        0,
        0,
        0,
        0,
        203,
        0,
        0,
        203,
        0,
        203,
        0,
        204,
        204,
        204,
        204,
        0,
        0,
        0,
        204,
        0,
        203,
        203,
        203,
        204,
        0,
        0,
        0,
        0,
        0,
        0,
        0,
        0,
        0,
        0,
        0,
        0,
        0,
        0,
        0,
        0,
        0,
        0,
        0,
        0,
        0,
        0,
        0,
        0,
        0,
        0,
        0,
        0,
        0,
        0,
        0,
        0,
        0,
        0,
        0,
        0,
        0,
        0,
        0,
        0,
        0,
        0,
        0,
        0,
        0,
        0,
        0,
        0,
        0,
        0,
        0,
        0,
        0,
        0,
        0,
        0,
        0,
        0,
        0,
        0,
        0,
        0,
        0,
        0,
        0,
        0,
        0,
        0,
        0,
        0,
        0,
        0,
        0,
        0,
        0,
        0,
        0,
        0,
        0,
        0,
        0,
        0,
        0,
        0,
        0,
        0,
        0,
        0,
        0,
        0,
        0,
        0,
        0,
        0,
        0,
        0,
        0,
        0,
        0,
        0,
        0,
        0,
        203,
        203,
        0,
        0,
        0,
        0,
        0,
        0,
        0,
        0,
        203,
        0,
        203,
        0,
        0,
        0,
        203,
        0,
        204,
        203,
        0,
        0,
        204,
        0,
        0,
        0,
        0,
        0,
        0,
        0,
        0,
        0,
        0,
        0,
        0,
        0,
        0,
        0,
        0,
        0,
        0,
        0,
        0,
        0,
        0,
        0,
        0,
        0,
        0,
        0,
        0,
        0,
        0,
        0,
        0,
        0,
        0,
        0,
        0,
        0,
        0,
        0,
        0,
        0,
        0,
        0,
        0,
        0,
        0,
        0,
        0,
        0,
        0,
        0,
        0,
        0,
        0,
        0,
        0,
        0,
        0,
        0,
        0,
        0,
        0,
        0,
        0,
        0,
        0,
        0,
        0,
        0,
        0,
        0,
        0,
        0,
        0,
        0,
        0,
        0,
        0,
        0,
        0,
        0,
        0,
        0,
        0,
        0,
        0,
        0,
        0,
        0,
        0,
        0,
        0,
        0,
        0,
        0,
        0,
        0,
        0,
        0,
        0,
        0,
        0,
        0,
        0,
        0,
        203,
        0,
        203,
        0,
        0,
        203,
        0,
        203,
        0,
        204,
        0,
        0,
        0,
        204,
        0,
        0,
        0,
        203,
        0,
        0,
        0,
        0,
        204,
        0,
        0,
        0,
        0,
        0,
        0,
        0,
        0,
        0,
        0,
        0,
        0,
        0,
        0,
        0,
        0,
        0,
        0,
        0,
        0,
        0,
        0,
        0,
        0,
        0,
        0,
        0,
        0,
        0,
        0,
        0,
        0,
        0,
        0,
        0,
        0,
        0,
        0,
        0,
        0,
        0,
        0,
        0,
        0,
        0,
        0,
        0,
        0,
        0,
        0,
        0,
        0,
        0,
        0,
        0,
        0,
        0,
        0,
        0,
        0,
        0,
        0,
        0,
        0,
        0,
        0,
        0,
        0,
        0,
        0,
        0,
        0,
        0,
        0,
        0,
        0,
        0,
        0,
        0,
        0,
        0,
        0,
        0,
        0,
        0,
        0,
        0,
        0,
        0,
        0,
        0,
        0,
        0,
        0,
        0,
        0,
        0,
        0,
        0,
        0,
        0,
        203,
        0,
        0,
        0,
        0,
        203,
        0,
        0,
        0,
        203,
        0,
        203,
        204,
        204,
        204,
        0,
        0,
        203,
        0,
        0,
        0,
        0,
        0,
        204,
        203,
        0,
        0,
        0,
        0,
        0,
        0,
        0,
        0,
        0,
        0,
        0,
        0,
        0,
        0,
        0,
        0,
        0,
        0,
        0,
        0,
        0,
        0,
        0,
        0,
        0,
        0,
        0,
        0,
        0,
        0,
        0,
        0,
        0,
        0,
        0,
        0,
        0,
        0,
        0,
        0,
        0,
        0,
        0,
        0,
        0,
        0,
        0,
        0,
        0,
        0,
        0,
        0,
        0,
        0,
        0,
        0,
        0,
        0,
        0,
        0,
        0,
        0,
        0,
        0,
        0,
        0,
        0,
        0,
        0,
        0,
        0,
        0,
        0,
        0,
        0,
        0,
        0,
        0,
        0,
        0,
        0,
        0,
        0,
        0,
        0,
        0,
        0,
        0,
        0,
        0,
        0,
        0,
        0,
        0,
        0,
        0,
        0,
        0,
        0,
        0,
        0,
        203,
        0,
        203,
        0,
        203,
        0,
        0,
        0,
        0,
        0,
        203,
        0,
        204,
        0,
        204,
        0,
        203,
        203,
        203,
        0,
        203,
        204,
        0,
        204,
        203,
        0,
        0,
        0,
        0,
        0,
        0,
        0,
        0,
        0,
        0,
        0,
        0,
        0,
        0,
        0,
        0,
        0,
        0,
        0,
        0,
        0,
        0,
        0,
        0,
        0,
        0,
        0,
        0,
        0,
        0,
        0,
        0,
        0,
        0,
        0,
        0,
        0,
        0,
        0,
        0,
        0,
        0,
        0,
        0,
        0,
        0,
        0,
        0,
        0,
        0,
        0,
        0,
        0,
        0,
        0,
        0,
        0,
        0,
        0,
        0,
        0,
        0,
        0,
        0,
        0,
        0,
        0,
        0,
        0,
        0,
        0,
        0,
        0,
        0,
        0,
        0,
        0,
        0,
        0,
        0,
        0,
        0,
        0,
        0,
        0,
        0,
        0,
        0,
        0,
        0,
        0,
        0,
        0,
        0,
        0,
        0,
        0,
        0,
        0,
        0,
        0,
        203,
        0,
        0,
        0,
        0,
        0,
        203,
        0,
        0,
        203,
        0,
        204,
        204,
        203,
        0,
        204,
        203,
        0,
        204,
        203,
        0,
        204,
        0,
        0,
        204,
        0,
        0,
        0,
        0,
        0,
        0,
        0,
        0,
        0,
        0,
        0,
        0,
        0,
        0,
        0,
        0,
        0,
        0,
        0,
        0,
        0,
        0,
        0,
        0,
        0,
        0,
        0,
        0,
        0,
        0,
        0,
        0,
        0,
        0,
        0,
        0,
        0,
        0,
        0,
        0,
        0,
        0,
        0,
        0,
        0,
        0,
        0,
        0,
        0,
        0,
        0,
        0,
        0,
        0,
        0,
        0,
        0,
        0,
        0,
        0,
        0,
        0,
        0,
        0,
        0,
        0,
        0,
        0,
        0,
        0,
        0,
        0,
        0,
        0,
        0,
        0,
        0,
        0,
        0,
        0,
        0,
        0,
        0,
        0,
        0,
        0,
        0,
        0,
        0,
        0,
        0,
        0,
        0,
        0,
        0,
        0,
        0,
        0,
        0,
        0,
        0,
        0,
        0,
        0,
        203,
        0,
        0,
        203,
        0,
        0,
        0,
        203,
        203,
        203,
        204,
        204,
        0,
        204,
        203,
        0,
        204,
        204,
        0,
        0,
        204,
        204,
        0,
        0,
        0,
        0,
        0,
        0,
        0,
        0,
        0,
        0,
        0,
        0,
        0,
        0,
        0,
        0,
        0,
        0,
        0,
        0,
        0,
        0,
        0,
        0,
        0,
        0,
        0,
        0,
        0,
        0,
        0,
        0,
        0,
        0,
        0,
        0,
        0,
        0,
        0,
        0,
        0,
        0,
        0,
        0,
        0,
        0,
        0,
        0,
        0,
        0,
        0,
        0,
        0,
        0,
        0,
        0,
        0,
        0,
        0,
        0,
        0,
        0,
        0,
        0,
        0,
        0,
        0,
        0,
        0,
        0,
        0,
        0,
        0,
        0,
        0,
        0,
        0,
        0,
        0,
        0,
        0,
        0,
        0,
        0,
        0,
        0,
        0,
        0,
        0,
        0,
        0,
        0,
        0,
        0,
        0,
        0,
        0,
        0,
        0,
        0,
        0,
        0,
        0,
        0,
        203,
        0,
        0,
        203,
        0,
        0,
        0,
        0,
        203,
        0,
        204,
        0,
        0,
        0,
        0,
        204,
        0,
        0,
        0,
        204,
        204,
        0,
        0,
        0,
        0,
        0,
        0,
        0,
        0,
        0,
        0,
        0,
        0,
        0,
        0,
        0,
        0,
        0,
        0,
        0,
        0,
        0,
        0,
        0,
        0,
        0,
        0,
        0,
        0,
        0,
        0,
        0,
        0,
        0,
        0,
        0,
        0,
        0,
        0,
        0,
        0,
        0,
        0,
        0,
        0,
        0,
        0,
        0,
        0,
        0,
        0,
        0,
        0,
        0,
        0,
        0,
        0,
        0,
        0,
        0,
        0,
        0,
        0,
        0,
        0,
        0,
        0,
        0,
        0,
        0,
        0,
        0,
        0,
        0,
        0,
        0,
        0,
        0,
        0,
        0,
        0,
        0,
        0,
        0,
        0,
        0,
        0,
        0,
        0,
        0,
        0,
        0,
        0,
        0,
        0,
        0,
        0,
        0,
        0,
        0,
        0,
        0,
        0,
        0,
        0,
        0,
        0,
        0,
        0,
        0,
        0,
        203,
        0,
        0,
        203,
        0,
        0,
        204,
        0,
        204,
        0,
        0,
        0,
        0,
        204,
        204,
        204,
        0,
        0,
        0,
        0,
        0,
        0,
        0,
        0,
        0,
        0,
        0,
        0,
        0,
        0,
        0,
        0,
        0,
        0,
        0,
        0,
        0,
        0,
        0,
        0,
        0,
        0,
        0,
        0,
        0,
        0,
        0,
        0,
        0,
        0,
        0,
        0,
        0,
        0,
        0,
        0,
        0,
        0,
        0,
        0,
        0,
        0,
        0,
        0,
        0,
        0,
        0,
        0,
        0,
        0,
        0,
        0,
        0,
        0,
        0,
        0,
        0,
        0,
        0,
        0,
        0,
        0,
        0,
        0,
        0,
        0,
        0,
        0,
        0,
        0,
        0,
        0,
        0,
        0,
        0,
        0,
        0,
        0,
        0,
        0,
        0,
        0,
        0,
        0,
        0,
        0,
        0,
        0,
        0,
        0,
        0,
        0,
        0,
        0,
        0,
        0,
        0,
        0,
        203,
        203,
        0,
        203,
        0,
        0,
        203,
        0,
        0,
        0,
        0,
        204,
        203,
        204,
        204,
        0,
        204,
        0,
        0,
        203,
        204,
        0,
        0,
        0,
        204,
        0,
        0,
        0,
        0,
        0,
        0,
        0,
        0,
        0,
        0,
        0,
        0,
        0,
        0,
        0,
        0,
        0,
        0,
        0,
        0,
        0,
        0,
        0,
        0,
        0,
        0,
        0,
        0,
        0,
        0,
        0,
        0,
        0,
        0,
        0,
        0,
        0,
        0,
        0,
        0,
        0,
        0,
        0,
        0,
        0,
        0,
        0,
        0,
        0,
        0,
        0,
        0,
        0,
        0,
        0,
        0,
        0,
        0,
        0,
        0,
        0,
        0,
        0,
        0,
        0,
        0,
        0,
        0,
        0,
        0,
        0,
        0,
        0,
        0,
        0,
        0,
        0,
        0,
        0,
        0,
        0,
        0,
        0,
        0,
        0,
        0,
        0,
        0,
        0,
        0,
        0,
        0,
        0,
        0,
        0,
        0,
        0,
        0,
        0,
        0,
        0,
        203,
        0,
        0,
        0,
        203,
        0,
        0,
        0,
        0,
        0,
        0,
        0,
        0,
        203,
        0,
        203,
        204,
        204,
        204,
        0,
        204,
        204,
        204,
        203,
        0,
        0,
        0,
        0,
        0,
        0,
        0,
        0,
        0,
        0,
        0,
        0,
        0,
        0,
        0,
        0,
        0,
        0,
        0,
        0,
        0,
        0,
        0,
        0,
        0,
        0,
        0,
        0,
        0,
        0,
        0,
        0,
        0,
        0,
        0,
        0,
        0,
        0,
        0,
        0,
        0,
        0,
        0,
        0,
        0,
        0,
        0,
        0,
        0,
        0,
        0,
        0,
        0,
        0,
        0,
        0,
        0,
        0,
        0,
        0,
        0,
        0,
        0,
        0,
        0,
        0,
        0,
        0,
        0,
        0,
        0,
        0,
        0,
        0,
        0,
        0,
        0,
        0,
        0,
        0,
        0,
        0,
        0,
        0,
        0,
        0,
        0,
        0,
        0,
        0,
        0,
        0,
        0,
        0,
        0,
        0,
        0,
        0,
        0,
        0,
        0,
        203,
        0,
        203,
        0,
        0,
        0,
        203,
        0,
        0,
        0,
        0,
        0,
        203,
        0,
        204,
        204,
        0,
        0,
        204,
        0,
        0,
        0,
        204,
        0,
        0,
        0,
        0,
        0,
        0,
        0,
        0,
        0,
        0,
        0,
        0,
        0,
        0,
        0,
        0,
        0,
        0,
        0,
        0,
        0,
        0,
        0,
        0,
        0,
        0,
        0,
        0,
        0,
        0,
        0,
        0,
        0,
        0,
        0,
        0,
        0,
        0,
        0,
        0,
        0,
        0,
        0,
        0,
        0,
        0,
        0,
        0,
        0,
        0,
        0,
        0,
        0,
        0,
        0,
        0,
        0,
        0,
        0,
        0,
        0,
        0,
        0,
        0,
        0,
        0,
        0,
        0,
        0,
        0,
        0,
        0,
        0,
        0,
        0,
        0,
        0,
        0,
        0,
        0,
        0,
        0,
        0,
        0,
        0,
        0,
        0,
        0,
        0,
        0,
        0,
        0,
        0,
        0,
        0,
        0,
        0,
        0,
        0,
        0,
        0,
        0,
        0,
        0,
        0,
        0,
        0,
        203,
        0,
        0,
        0,
        0,
        203,
        0,
        0,
        0,
        0,
        0,
        204,
        203,
        204,
        204,
        204,
        0,
        204,
        204,
        203,
        0,
        0,
        0,
        0,
        0,
        0,
        0,
        0,
        0,
        0,
        0,
        0,
        0,
        0,
        0,
        0,
        0,
        0,
        0,
        0,
        0,
        0,
        0,
        0,
        0,
        0,
        0,
        0,
        0,
        0,
        0,
        0,
        0,
        0,
        0,
        0,
        0,
        0,
        0,
        0,
        0,
        0,
        0,
        0,
        0,
        0,
        0,
        0,
        0,
        0,
        0,
        0,
        0,
        0,
        0,
        0,
        0,
        0,
        0,
        0,
        0,
        0,
        0,
        0,
        0,
        0,
        0,
        0,
        0,
        0,
        0,
        0,
        0,
        0,
        0,
        0,
        0,
        0,
        0,
        0,
        0,
        0,
        0,
        0,
        0,
        0,
        0,
        0,
        0,
        0,
        0,
        0,
        0,
        0,
        0,
        0,
        0,
        0,
        0,
        0,
        0,
        0,
        0,
        0,
        0,
        0,
        0,
        0,
        0,
        0,
        0,
        0,
        203,
        0,
        0,
        204,
        204,
        204,
        0,
        203,
        0,
        204,
        204,
        204,
        203,
        0,
        0,
        204,
        0,
        0,
        0,
        0,
        0,
        0,
        0,
        0,
        0,
        0,
        0,
        0,
        0,
        0,
        0,
        0,
        0,
        0,
        0,
        0,
        0,
        0,
        0,
        0,
        0,
        0,
        0,
        0,
        0,
        0,
        0,
        0,
        0,
        0,
        0,
        0,
        0,
        0,
        0,
        0,
        0,
        0,
        0,
        0,
        0,
        0,
        0,
        0,
        0,
        0,
        0,
        0,
        0,
        0,
        0,
        0,
        0,
        0,
        0,
        0,
        0,
        0,
        0,
        0,
        0,
        0,
        0,
        0,
        0,
        0,
        0,
        0,
        0,
        0,
        0,
        0,
        0,
        0,
        0,
        0,
        0,
        0,
        0,
        0,
        0,
        0,
        0,
        0,
        0,
        0,
        0,
        0,
        0,
        0,
        0,
        0,
        0,
        0,
        0,
        203,
        0,
        0,
        0,
        0,
        0,
        203,
        0,
        0,
        0,
        0,
        0,
        0,
        203,
        204,
        0,
        0,
        203,
        203,
        0,
        0,
        0,
        0,
        203,
        0,
        204,
        0,
        203,
        0,
        0,
        0,
        0,
        0,
        0,
        0,
        0,
        0,
        0,
        0,
        0,
        0,
        0,
        0,
        0,
        0,
        0,
        0,
        0,
        0,
        0,
        0,
        0,
        0,
        0,
        0,
        0,
        0,
        0,
        0,
        0,
        0,
        0,
        0,
        0,
        0,
        0,
        0,
        0,
        0,
        0,
        0,
        0,
        0,
        0,
        0,
        0,
        0,
        0,
        0,
        0,
        0,
        0,
        0,
        0,
        0,
        0,
        0,
        0,
        0,
        0,
        0,
        0,
        0,
        0,
        0,
        0,
        0,
        0,
        0,
        0,
        0,
        0,
        0,
        0,
        0,
        0,
        0,
        0,
        0,
        0,
        0,
        0,
        0,
        0,
        0,
        0,
        0,
        0,
        0,
        0,
        0,
        0,
        0,
        0,
        0,
        0,
        0,
        0,
        203,
        0,
        203,
        203,
        0,
        203,
        0,
        0,
        203,
        0,
        0,
        203,
        0,
        0,
        0,
        0,
        204,
        0,
        0,
        203,
        204,
        204,
        0,
        0,
        204,
        204,
        0,
        0,
        0,
        0,
        0,
        0,
        0,
        0,
        0,
        0,
        0,
        0,
        0,
        0,
        0,
        0,
        0,
        0,
        0,
        0,
        0,
        0,
        0,
        0,
        0,
        0,
        0,
        0,
        0,
        0,
        0,
        0,
        0,
        0,
        0,
        0,
        0,
        0,
        0,
        0,
        0,
        0,
        0,
        0,
        0,
        0,
        0,
        0,
        0,
        0,
        0,
        0,
        0,
        0,
        0,
        0,
        0,
        0,
        0,
        0,
        0,
        0,
        0,
        0,
        0,
        0,
        0,
        0,
        0,
        0,
        0,
        0,
        0,
        0,
        0,
        0,
        0,
        0,
        0,
        0,
        0,
        0,
        0,
        0,
        0,
        0,
        0,
        0,
        0,
        0,
        0,
        0,
        0,
        0,
        0,
        0,
        0,
        0,
        0,
        203,
        0,
        203,
        0,
        0,
        0,
        0,
        0,
        0,
        203,
        203,
        0,
        204,
        204,
        0,
        0,
        204,
        0,
        0,
        204,
        0,
        0,
        0,
        203,
        0,
        204,
        203,
        0,
        0,
        0,
        0,
        0,
        0,
        0,
        0,
        0,
        0,
        0,
        0,
        0,
        0,
        0,
        0,
        0,
        0,
        0,
        0,
        0,
        0,
        0,
        0,
        0,
        0,
        0,
        0,
        0,
        0,
        0,
        0,
        0,
        0,
        0,
        0,
        0,
        0,
        0,
        0,
        0,
        0,
        0,
        0,
        0,
        0,
        0,
        0,
        0,
        0,
        0,
        0,
        0,
        0,
        0,
        0,
        0,
        0,
        0,
        0,
        0,
        0,
        0,
        0,
        0,
        0,
        0,
        0,
        0,
        0,
        0,
        0,
        0,
        0,
        0,
        0,
        0,
        0,
        0,
        0,
        0,
        0,
        0,
        0,
        0,
        0,
        0,
        0,
        0,
        0,
        0,
        0,
        0,
        0,
        0,
        0,
        0,
        0,
        0,
        203,
        203,
        0,
        0,
        0,
        0,
        203,
        0,
        0,
        0,
        0,
        0,
        204,
        0,
        204,
        0,
        0,
        204,
        0,
        0,
        204,
        0,
        204,
        0,
        204,
        0,
        0,
        0,
        0,
        0,
        0,
        0,
        0,
        0,
        0,
        0,
        0,
        0,
        0,
        0,
        0,
        0,
        0,
        0,
        0,
        0,
        0,
        0,
        0,
        0,
        0,
        0,
        0,
        0,
        0,
        0,
        0,
        0,
        0,
        0,
        0,
        0,
        0,
        0,
        0,
        0,
        0,
        0,
        0,
        0,
        0,
        0,
        0,
        0,
        0,
        0,
        0,
        0,
        0,
        0,
        0,
        0,
        0,
        0,
        0,
        0,
        0,
        0,
        0,
        0,
        0,
        0,
        0,
        0,
        0,
        0,
        0,
        0,
        0,
        0,
        0,
        0,
        0,
        0,
        0,
        0,
        0,
        0,
        0,
        0,
        0,
        0,
        0,
        0,
        0,
        0,
        0,
        0,
        0,
        0,
        0,
        0,
        0,
        0,
        0,
        0,
        0,
        0,
        0,
        203,
        0,
        0,
        203,
        203,
        0,
        0,
        0,
        0,
        203,
        204,
        204,
        0,
        204,
        0,
        0,
        0,
        203,
        203,
        204,
        0,
        0,
        0,
        203,
        0,
        0,
        0,
        0,
        0,
        0,
        0,
        0,
        0,
        0,
        0,
        0,
        0,
        0,
        0,
        0,
        0,
        0,
        0,
        0,
        0,
        0,
        0,
        0,
        0,
        0,
        0,
        0,
        0,
        0,
        0,
        0,
        0,
        0,
        0,
        0,
        0,
        0,
        0,
        0,
        0,
        0,
        0,
        0,
        0,
        0,
        0,
        0,
        0,
        0,
        0,
        0,
        0,
        0,
        0,
        0,
        0,
        0,
        0,
        0,
        0,
        0,
        0,
        0,
        0,
        0,
        0,
        0,
        0,
        0,
        0,
        0,
        0,
        0,
        0,
        0,
        0,
        0,
        0,
        0,
        0,
        0,
        0,
        0,
        0,
        0,
        0,
        0,
        0,
        0,
        0,
        0,
        0,
        0,
        0,
        0,
        0,
        0,
        203,
        0,
        0,
        0,
        0,
        203,
        0,
        0,
        0,
        0,
        0,
        0,
        0,
        0,
        0,
        204,
        0,
        203,
        204,
        0,
        204,
        203,
        204,
        0,
        0,
        204,
        0,
        0,
        0,
        0,
        0,
        0,
        0,
        0,
        0,
        0,
        0,
        0,
        0,
        0,
        0,
        0,
        0,
        0,
        0,
        0,
        0,
        0,
        0,
        0,
        0,
        0,
        0,
        0,
        0,
        0,
        0,
        0,
        0,
        0,
        0,
        0,
        0,
        0,
        0,
        0,
        0,
        0,
        0,
        0,
        0,
        0,
        0,
        0,
        0,
        0,
        0,
        0,
        0,
        0,
        0,
        0,
        0,
        0,
        0,
        0,
        0,
        0,
        0,
        0,
        0,
        0,
        0,
        0,
        0,
        0,
        0,
        0,
        0,
        0,
        0,
        0,
        0,
        0,
        0,
        0,
        0,
        0,
        0,
        0,
        0,
        0,
        0,
        0,
        0,
        0,
        0,
        0,
        0,
        0,
        0,
        0,
        0,
        0,
        0,
        0,
        0,
        203,
        0,
        0,
        203,
        0,
        0,
        0,
        203,
        0,
        0,
        0,
        0,
        0,
        0,
        203,
        204,
        0,
        0,
        0,
        204,
        0,
        0,
        204,
        0,
        204,
        204,
        0,
        0,
        0,
        0,
        0,
        0,
        0,
        0,
        0,
        0,
        0,
        0,
        0,
        0,
        0,
        0,
        0,
        0,
        0,
        0,
        0,
        0,
        0,
        0,
        0,
        0,
        0,
        0,
        0,
        0,
        0,
        0,
        0,
        0,
        0,
        0,
        0,
        0,
        0,
        0,
        0,
        0,
        0,
        0,
        0,
        0,
        0,
        0,
        0,
        0,
        0,
        0,
        0,
        0,
        0,
        0,
        0,
        0,
        0,
        0,
        0,
        0,
        0,
        0,
        0,
        0,
        0,
        0,
        0,
        0,
        0,
        0,
        0,
        0,
        0,
        0,
        0,
        0,
        0,
        0,
        0,
        0,
        0,
        0,
        0,
        0,
        0,
        0,
        0,
        0,
        0,
        0,
        0,
        0,
        0,
        0,
        0,
        0,
        0,
        0,
        203,
        0,
        0,
        0,
        0,
        203,
        0,
        0,
        0,
        0,
        0,
        0,
        0,
        203,
        203,
        0,
        0,
        0,
        204,
        204,
        203,
        0,
        0,
        0,
        0,
        0,
        0,
        0,
        0,
        0,
        0,
        0,
        0,
        0,
        0,
        0,
        0,
        0,
        0,
        0,
        0,
        0,
        0,
        0,
        0,
        0,
        0,
        0,
        0,
        0,
        0,
        0,
        0,
        0,
        0,
        0,
        0,
        0,
        0,
        0,
        0,
        0,
        0,
        0,
        0,
        0,
        0,
        0,
        0,
        0,
        0,
        0,
        0,
        0,
        0,
        0,
        0,
        0,
        0,
        0,
        0,
        0,
        0,
        0,
        0,
        0,
        0,
        0,
        0,
        0,
        0,
        0,
        0,
        0,
        0,
        0,
        0,
        0,
        0,
        0,
        0,
        0,
        0,
        0,
        0,
        0,
        0,
        0,
        0,
        0,
        0,
        0,
        0,
        0,
        0,
        0,
        0,
        0,
        0,
        0,
        0,
        0,
        0,
        0,
        0,
        203,
        0,
        203,
        0,
        0,
        0,
        0,
        0,
        0,
        0,
        0,
        0,
        0,
        0,
        203,
        204,
        0,
        204,
        204,
        204,
        204,
        0,
        0,
        204,
        203,
        204,
        204,
        0,
        0,
        0,
        0,
        0,
        0,
        0,
        0,
        0,
        0,
        0,
        0,
        0,
        0,
        0,
        0,
        0,
        0,
        0,
        0,
        0,
        0,
        0,
        0,
        0,
        0,
        0,
        0,
        0,
        0,
        0,
        0,
        0,
        0,
        0,
        0,
        0,
        0,
        0,
        0,
        0,
        0,
        0,
        0,
        0,
        0,
        0,
        0,
        0,
        0,
        0,
        0,
        0,
        0,
        0,
        0,
        0,
        0,
        0,
        0,
        0,
        0,
        0,
        0,
        0,
        0,
        0,
        0,
        0,
        0,
        0,
        0,
        0,
        0,
        0,
        0,
        0,
        0,
        0,
        0,
        0,
        0,
        0,
        0,
        0,
        0,
        0,
        0,
        0,
        0,
        0,
        0,
        0,
        0,
        0,
        0,
        0,
        0,
        0,
        0,
        0,
        0,
        203,
        0,
        203,
        0,
        0,
        0,
        0,
        0,
        203,
        203,
        203,
        0,
        0,
        0,
        0,
        0,
        204,
        204,
        0,
        0,
        203,
        0,
        0,
        204,
        0,
        0,
        0,
        0,
        0,
        0,
        0,
        0,
        0,
        0,
        0,
        0,
        0,
        0,
        0,
        0,
        0,
        0,
        0,
        0,
        0,
        0,
        0,
        0,
        0,
        0,
        0,
        0,
        0,
        0,
        0,
        0,
        0,
        0,
        0,
        0,
        0,
        0,
        0,
        0,
        0,
        0,
        0,
        0,
        0,
        0,
        0,
        0,
        0,
        0,
        0,
        0,
        0,
        0,
        0,
        0,
        0,
        0,
        0,
        0,
        0,
        0,
        0,
        0,
        0,
        0,
        0,
        0,
        0,
        0,
        0,
        0,
        0,
        0,
        0,
        0,
        0,
        0,
        0,
        0,
        0,
        0,
        0,
        0,
        0,
        0,
        0,
        0,
        0,
        0,
        0,
        0,
        0,
        0,
        0,
        0,
        0,
        0,
        0,
        0,
        0,
        0,
        0,
        0,
        0,
        0,
        0,
        203,
        203,
        203,
        0,
        0,
        0,
        203,
        0,
        0,
        0,
        204,
        204,
        203,
        203,
        203,
        0,
        0,
        0,
        0,
        0,
        0,
        0,
        0,
        0,
        0,
        0,
        0,
        0,
        0,
        0,
        0,
        0,
        0,
        0,
        0,
        0,
        0,
        0,
        0,
        0,
        0,
        0,
        0,
        0,
        0,
        0,
        0,
        0,
        0,
        0,
        0,
        0,
        0,
        0,
        0,
        0,
        0,
        0,
        0,
        0,
        0,
        0,
        0,
        0,
        0,
        0,
        0,
        0,
        0,
        0,
        0,
        0,
        0,
        0,
        0,
        0,
        0,
        0,
        0,
        0,
        0,
        0,
        0,
        0,
        0,
        0,
        0,
        0,
        0,
        0,
        0,
        0,
        0,
        0,
        0,
        0,
        0,
        0,
        0,
        0,
        0,
        0,
        0,
        0,
        0,
        0,
        0,
        0,
        0,
        0,
        0,
        0,
        0,
        0,
        0,
        0,
        0,
        0,
        0,
        0,
        0,
        0,
        0,
        0,
        0,
        0,
        0,
        0,
        0,
        0,
        0,
        203,
        204,
        0,
        204,
        204,
        204,
        204,
        204,
        203,
        204,
        204,
        0,
        0,
        203,
        0,
        0,
        0,
        0,
        0,
        0,
        0,
        0,
        0,
        0,
        0,
        0,
        0,
        0,
        0,
        0,
        0,
        0,
        0,
        0,
        0,
        0,
        0,
        0,
        0,
        0,
        0,
        0,
        0,
        0,
        0,
        0,
        0,
        0,
        0,
        0,
        0,
        0,
        0,
        0,
        0,
        0,
        0,
        0,
        0,
        0,
        0,
        0,
        0,
        0,
        0,
        0,
        0,
        0,
        0,
        0,
        0,
        0,
        0,
        0,
        0,
        0,
        0,
        0,
        0,
        0,
        0,
        0,
        0,
        0,
        0,
        0,
        0,
        0,
        0,
        0,
        0,
        0,
        0,
        0,
        0,
        0,
        0,
        0,
        0,
        0,
        0,
        0,
        0,
        0,
        0,
        0,
        0,
        0,
        0,
        0,
        0,
        0,
        0,
        0,
        0,
        0,
        0,
        0,
        0,
        0,
        0,
        0,
        0,
        0,
        0,
        0,
        0,
        204,
        0,
        203,
        203,
        203,
        0,
        0,
        204,
        204,
        0,
        0,
        0,
        0,
        0,
        0,
        0,
        0,
        0,
        0,
        0,
        0,
        0,
        0,
        0,
        0,
        0,
        0,
        0,
        0,
        0,
        0,
        0,
        0,
        0,
        0,
        0,
        0,
        0,
        0,
        0,
        0,
        0,
        0,
        0,
        0,
        0,
        0,
        0,
        0,
        0,
        0,
        0,
        0,
        0,
        0,
        0,
        0,
        0,
        0,
        0,
        0,
        0,
        0,
        0,
        0,
        0,
        0,
        0,
        0,
        0,
        0,
        0,
        0,
        0,
        0,
        0,
        0,
        0,
        0,
        0,
        0,
        0,
        0,
        0,
        0,
        0,
        0,
        0,
        0,
        0,
        0,
        0,
        0,
        0,
        0,
        0,
        0,
        0,
        0,
        0,
        0,
        0,
        0,
        0,
        0,
        0,
        0,
        0,
        0,
        0,
        0,
        0,
        0,
        0,
        0,
        0,
        0,
        0,
        0,
        0,
        0,
        0,
        0,
        0,
        0,
        0,
        0,
        0,
        0,
        0,
        0,
        0,
        0,
        0,
        0,
        0,
        0,
        0,
        0,
        0,
        0,
        0,
        0,
        0,
        0,
        0,
        0,
        0,
        0,
        0,
        0,
        0,
        0,
        0,
        0,
        0,
        0,
        0,
        0,
        0,
        0,
        0,
        0,
        0,
        0,
        0,
        0,
        0,
        0,
        0,
        0,
        0,
        0,
        0,
        0,
        0,
        0,
        0,
        0,
        0,
        0,
        0,
        0,
        0,
        0,
        0,
        0,
        0,
        0,
        0,
        0,
        0,
        0,
        0,
        0,
        0,
        0,
        0,
        0,
        0,
        0,
        0,
        0,
        0,
        0,
        0,
        0,
        0,
        0,
        0,
        0,
        0,
        0,
        0,
        0,
        0,
        0,
        0,
        0,
        0,
        0,
        0,
        0,
        0,
        0,
        0,
        0,
        0,
        0,
        0,
        0,
        0,
        0,
        0,
        0,
        0,
        0,
        0,
        0,
        0,
        0,
        0,
        0,
        0,
        0,
        0,
        0,
        0,
        0,
        0,
        0,
        0,
        0,
        0,
        0,
        0,
        0,
        0,
        0,
        0,
        0,
        0,
        0,
        0,
        0,
        0,
        0,
        0,
        0,
        0,
        0,
        0,
        0,
        0,
        0,
        0,
        0,
        0,
        0,
        0,
        0,
        0,
        0,
        0,
        0,
        0,
        0,
        0,
        0,
        0,
        0,
        0,
        0,
        0,
        0,
        0,
        0,
        0,
        0,
        0,
        0,
        0,
        0,
        0,
        0,
        0,
        0,
        0,
        0,
        0,
        0,
        0,
        0,
        0,
        0,
        0,
        0,
        0,
        0,
        0,
        0,
        0,
        0,
        0,
        0,
        0,
        0,
        0,
        0,
        0,
        0,
        0,
        0,
        0,
        0,
        0,
        0,
        0,
        0,
        0,
        0,
        0,
        0,
        0,
        0,
        0,
        0,
        0,
        0,
        0,
        0,
        0,
        0,
        0,
        0,
        0,
        0,
        0,
        0,
        0,
        0,
        0,
        0,
        0,
        0,
        0,
        0,
        0,
        0,
        0,
        0,
        0,
        0,
        0,
        0,
        0,
        0,
        0,
        0,
        0,
        0,
        0,
        0,
        0,
        0,
        0,
        0,
        0,
        0,
        0,
        0,
        0,
        0,
        0,
        0,
        0,
        0,
        0,
        0,
        0,
        0,
        0,
        0,
        0,
        0,
        0,
        0,
        0,
        0,
        0,
        0,
        0,
        0,
        0,
        0,
        0,
        0,
        0,
        0,
        0,
        0,
        0,
        0,
        0,
        0,
        0,
        0,
        0,
        0,
        0,
        0,
        0,
        0,
        0,
        0,
        0,
        0,
        0,
        0,
        0,
        0,
        0,
        0,
        0,
        0,
        0,
        0,
        0,
        0,
        0,
        0,
        0,
        0,
        0,
        0,
        0,
        0,
        0,
        0,
        0,
        0,
        0,
        0,
        0,
        0,
        0,
        0,
        0,
        0,
        0,
        0,
        0,
        0,
        0,
        0,
        0,
        0,
        0,
        0,
        0,
        0,
        0,
        0,
        0,
        0,
        0,
        0,
        0,
        0,
        0,
        0,
        0,
        0,
        0,
        0,
        0,
        0,
        0,
        0,
        0,
        0,
        0,
        0,
        0,
        0,
        0,
        0,
        0,
        0,
        0,
        0,
        0,
        0,
        0,
        0,
        0,
        0,
        0,
        0,
        0,
        0,
        0,
        0,
        0,
        0,
        0,
        0,
        0,
        0,
        0,
        0,
        0,
        0,
        0,
        0,
        0,
        0,
        0,
        0,
        0,
        0,
        0,
        0,
        0,
        0,
        0,
        0,
        0,
        0,
        0,
        0,
        0,
        0,
        0,
        0,
        0,
        0,
        0,
        0,
        0,
        0,
        0,
        0,
        0,
        0,
        0,
        0,
        0,
        0,
        0,
        0,
        0,
        0,
        0,
        0,
        0,
        0,
        0,
        0,
        0,
        0,
        0,
        0,
        0,
        0,
        0,
        0,
        0,
        0,
        0,
        0,
        0,
        0,
        0,
        0,
        0,
        0,
        0,
        0,
        0,
        0,
        0,
        0,
        0,
        0,
        0,
        0,
        0,
        0,
        0,
        0,
        0,
        0,
        0,
        0,
        0,
        0,
        0,
        0,
        0,
        0,
        0,
        0,
        0,
        0,
        0,
        0,
        0,
        0,
        0,
        0,
        0,
        0,
        0,
        0,
        0,
        0,
        0,
        0,
        0,
        0,
        0,
        0,
        0,
        0,
        0,
        0,
        0,
        0,
        0,
        0,
        0,
        0,
        0,
        0,
        0,
        0,
        0,
        0,
        0,
        0,
        0,
        0,
        0,
        0,
        0,
        0,
        0,
        0,
        0,
        0,
        0,
        0,
        0,
        0,
        0,
        0,
        0,
        0,
        0,
        0,
        0,
        0,
        0,
        0,
        0,
        0,
        0,
        0,
        0,
        0,
        0,
        0,
        0,
        0,
        0,
        0,
        0,
        0,
        0,
        0,
        0,
        0,
        0,
        0,
        0,
        0,
        0,
        0,
        0,
        0,
        0,
        0,
        0,
        0,
        0,
        0,
        0,
        0,
        0,
        0,
        0,
        0,
        0,
        0,
        0,
        0,
        0,
        0,
        0,
        0,
        0,
        0,
        0,
        0,
        0,
        0,
        0,
        0,
        0,
        0,
        0,
        0,
        0,
        0,
        0,
        0,
        0,
        0,
        0,
        0,
        0,
        0,
        0,
        0,
        0,
        0,
        0,
        0,
        0,
        0,
        0,
        0,
        0,
        0,
        0,
        0,
        0,
        0,
        0,
        0,
        0,
        0,
        0,
        0,
        0,
        0,
        0,
        0,
        0,
        0,
        0,
        0,
        0,
        0,
        0,
        0,
        0,
        0,
        0,
        0,
        0,
        0,
        0,
        0,
        0,
        0,
        0,
        0,
        0,
        0,
        0,
        0,
        0,
        0,
        0,
        0,
        0,
        0,
        0,
        0,
        0,
        0,
        0,
        0,
        0,
        0,
        0,
        0,
        0,
        0,
        0,
        0,
        0,
        0,
        0,
        0,
        0,
        0,
        0,
        0,
        0,
        0,
        0,
        0,
        0,
        0,
        0,
        0,
        0,
        0,
        0,
        0,
        0,
        0,
        0,
        0,
        0,
        0,
        0,
        0,
        0,
        0,
        0,
        0,
        0,
        0,
        0,
        0,
        0,
        0,
        0,
        0,
        0,
        0,
        0,
        0,
        0,
        0,
        0,
        0,
        0,
        0,
        0,
        0,
        0,
        0,
        0,
        0,
        0,
        0,
        0,
        0,
        0,
        0,
        0,
        0,
        0,
        0,
        0,
        0,
        0,
        0,
        0,
        0,
        0,
        0,
        0,
        0,
        0,
        0,
        0,
        0,
        0,
        0,
        0
      ],
      "height": 104,
      "id": 4,
      "name": "Hazard",
      "opacity": 1,
      "type": "tilelayer",
      "visible": true,
      "width": 126,
      "x": 0,
      "y": 0
    },
    {
      "draworder": "topdown",
      "id": 5,
      "name": "Anchors",
      "objects": [
        {
          "id": 10,
          "name": "COMM_RELAY",
          "point": true,
          "type": "anchor",
          "visible": true,
          "x": 8928,
          "y": 4512,
          "properties": [
            {
              "name": "gridX",
              "type": "int",
              "value": 93
            },
            {
              "name": "gridY",
              "type": "int",
              "value": 47
            }
          ]
        },
        {
          "id": 11,
          "name": "CRASH_CLUE",
          "point": true,
          "type": "anchor",
          "visible": true,
          "x": 10272,
          "y": 3360,
          "properties": [
            {
              "name": "gridX",
              "type": "int",
              "value": 107
            },
            {
              "name": "gridY",
              "type": "int",
              "value": 35
            }
          ]
        },
        {
          "id": 12,
          "name": "ENERGY_CORE",
          "point": true,
          "type": "anchor",
          "visible": true,
          "x": 10464,
          "y": 4800,
          "properties": [
            {
              "name": "gridX",
              "type": "int",
              "value": 109
            },
            {
              "name": "gridY",
              "type": "int",
              "value": 50
            }
          ]
        },
        {
          "id": 13,
          "name": "SIGNAL_TOWER",
          "point": true,
          "type": "anchor",
          "visible": true,
          "x": 6144,
          "y": 1632,
          "properties": [
            {
              "name": "gridX",
              "type": "int",
              "value": 64
            },
            {
              "name": "gridY",
              "type": "int",
              "value": 17
            }
          ]
        },
        {
          "id": 14,
          "name": "BOSS_PLAYER_ENTRY",
          "point": true,
          "type": "anchor",
          "visible": true,
          "x": 2976,
          "y": 2688,
          "properties": [
            {
              "name": "gridX",
              "type": "int",
              "value": 31
            },
            {
              "name": "gridY",
              "type": "int",
              "value": 28
            }
          ]
        },
        {
          "id": 15,
          "name": "BOSS_SPAWN",
          "point": true,
          "type": "anchor",
          "visible": true,
          "x": 2496,
          "y": 2304,
          "properties": [
            {
              "name": "gridX",
              "type": "int",
              "value": 26
            },
            {
              "name": "gridY",
              "type": "int",
              "value": 24
            }
          ]
        },
        {
          "id": 16,
          "name": "MONOLITH_A",
          "point": true,
          "type": "anchor",
          "visible": true,
          "x": 5184,
          "y": 2208,
          "properties": [
            {
              "name": "gridX",
              "type": "int",
              "value": 54
            },
            {
              "name": "gridY",
              "type": "int",
              "value": 23
            }
          ]
        },
        {
          "id": 17,
          "name": "MONOLITH_B",
          "point": true,
          "type": "anchor",
          "visible": true,
          "x": 6144,
          "y": 1920,
          "properties": [
            {
              "name": "gridX",
              "type": "int",
              "value": 64
            },
            {
              "name": "gridY",
              "type": "int",
              "value": 20
            }
          ]
        },
        {
          "id": 18,
          "name": "MONOLITH_C",
          "point": true,
          "type": "anchor",
          "visible": true,
          "x": 7200,
          "y": 2304,
          "properties": [
            {
              "name": "gridX",
              "type": "int",
              "value": 75
            },
            {
              "name": "gridY",
              "type": "int",
              "value": 24
            }
          ]
        },
        {
          "id": 19,
          "name": "SWAMP_OUTER_GATE",
          "point": true,
          "type": "anchor",
          "visible": true,
          "x": 9504,
          "y": 3840,
          "properties": [
            {
              "name": "gridX",
              "type": "int",
              "value": 99
            },
            {
              "name": "gridY",
              "type": "int",
              "value": 40
            }
          ]
        },
        {
          "id": 20,
          "name": "SWAMP_DEEP_GATE",
          "point": true,
          "type": "anchor",
          "visible": true,
          "x": 9504,
          "y": 3840,
          "properties": [
            {
              "name": "gridX",
              "type": "int",
              "value": 99
            },
            {
              "name": "gridY",
              "type": "int",
              "value": 40
            }
          ]
        },
        {
          "id": 21,
          "name": "RUINS_GATE",
          "point": true,
          "type": "anchor",
          "visible": true,
          "x": 6432,
          "y": 2784,
          "properties": [
            {
              "name": "gridX",
              "type": "int",
              "value": 67
            },
            {
              "name": "gridY",
              "type": "int",
              "value": 29
            }
          ]
        },
        {
          "id": 22,
          "name": "ROPE_BARRIER_A",
          "point": true,
          "type": "anchor",
          "visible": true,
          "x": 9120,
          "y": 5472,
          "properties": [
            {
              "name": "gridX",
              "type": "int",
              "value": 95
            },
            {
              "name": "gridY",
              "type": "int",
              "value": 57
            }
          ]
        },
        {
          "id": 23,
          "name": "ROPE_BARRIER_B",
          "point": true,
          "type": "anchor",
          "visible": true,
          "x": 9120,
          "y": 5568,
          "properties": [
            {
              "name": "gridX",
              "type": "int",
              "value": 95
            },
            {
              "name": "gridY",
              "type": "int",
              "value": 58
            }
          ]
        },
        {
          "id": 24,
          "name": "ROPE_BARRIER_C",
          "point": true,
          "type": "anchor",
          "visible": true,
          "x": 9120,
          "y": 5664,
          "properties": [
            {
              "name": "gridX",
              "type": "int",
              "value": 95
            },
            {
              "name": "gridY",
              "type": "int",
              "value": 59
            }
          ]
        },
        {
          "id": 25,
          "name": "WEST_ECHO_BASIN",
          "point": true,
          "type": "anchor",
          "visible": true,
          "x": 4320,
          "y": 7872,
          "properties": [
            {
              "name": "gridX",
              "type": "int",
              "value": 45
            },
            {
              "name": "gridY",
              "type": "int",
              "value": 82
            }
          ]
        },
        {
          "id": 26,
          "name": "SOUTH_FACILITY",
          "point": true,
          "type": "anchor",
          "visible": true,
          "x": 7776,
          "y": 8160,
          "properties": [
            {
              "name": "gridX",
              "type": "int",
              "value": 81
            },
            {
              "name": "gridY",
              "type": "int",
              "value": 85
            }
          ]
        },
        {
          "id": 27,
          "name": "FINAL_GATE",
          "point": true,
          "type": "anchor",
          "visible": true,
          "x": 6144,
          "y": 1632,
          "properties": [
            {
              "name": "gridX",
              "type": "int",
              "value": 64
            },
            {
              "name": "gridY",
              "type": "int",
              "value": 17
            }
          ]
        },
        {
          "id": 119,
          "name": "RUINS_APPROACH",
          "point": true,
          "type": "anchor",
          "visible": true,
          "x": 6144,
          "y": 3072,
          "properties": [
            {
              "name": "gridX",
              "type": "int",
              "value": 64
            },
            {
              "name": "gridY",
              "type": "int",
              "value": 32
            }
          ]
        },
        {
          "id": 120,
          "name": "SHIP_EXIT_SPAWN",
          "point": true,
          "properties": [
            {
              "name": "gridX",
              "type": "int",
              "value": 83
            },
            {
              "name": "gridY",
              "type": "int",
              "value": 52
            }
          ],
          "type": "anchor",
          "visible": true,
          "x": 7968,
          "y": 4992,
          "rotation": 0
        },
        {
          "id": 121,
          "name": "SHIP_EXTERIOR_ORIGIN",
          "point": true,
          "properties": [
            {
              "name": "gridX",
              "type": "int",
              "value": 76
            },
            {
              "name": "gridY",
              "type": "int",
              "value": 49
            }
          ],
          "type": "anchor",
          "visible": true,
          "x": 7296,
          "y": 4704,
          "rotation": 0
        }
      ],
      "opacity": 1,
      "type": "objectgroup",
      "visible": true,
      "x": 0,
      "y": 0
    },
    {
      "draworder": "topdown",
      "id": 6,
      "name": "Resources",
      "objects": [
        {
          "id": 29,
          "name": "RESOURCE_WOOD_01",
          "point": true,
          "type": "resource",
          "visible": true,
          "x": 5760,
          "y": 6048,
          "properties": [
            {
              "name": "sourceIndex",
              "type": "int",
              "value": 1
            },
            {
              "name": "resourceType",
              "type": "int",
              "value": 0
            },
            {
              "name": "resourceName",
              "type": "string",
              "value": "WOOD"
            },
            {
              "name": "baseYield",
              "type": "int",
              "value": 2
            },
            {
              "name": "respawnsRemaining",
              "type": "int",
              "value": 4
            },
            {
              "name": "special",
              "type": "bool",
              "value": false
            },
            {
              "name": "gridX",
              "type": "int",
              "value": 60
            },
            {
              "name": "gridY",
              "type": "int",
              "value": 63
            }
          ]
        },
        {
          "id": 30,
          "name": "RESOURCE_WOOD_02",
          "point": true,
          "type": "resource",
          "visible": true,
          "x": 6336,
          "y": 7008,
          "properties": [
            {
              "name": "sourceIndex",
              "type": "int",
              "value": 2
            },
            {
              "name": "resourceType",
              "type": "int",
              "value": 0
            },
            {
              "name": "resourceName",
              "type": "string",
              "value": "WOOD"
            },
            {
              "name": "baseYield",
              "type": "int",
              "value": 2
            },
            {
              "name": "respawnsRemaining",
              "type": "int",
              "value": 4
            },
            {
              "name": "special",
              "type": "bool",
              "value": false
            },
            {
              "name": "gridX",
              "type": "int",
              "value": 66
            },
            {
              "name": "gridY",
              "type": "int",
              "value": 73
            }
          ]
        },
        {
          "id": 31,
          "name": "RESOURCE_WOOD_03",
          "point": true,
          "type": "resource",
          "visible": true,
          "x": 7488,
          "y": 7104,
          "properties": [
            {
              "name": "sourceIndex",
              "type": "int",
              "value": 3
            },
            {
              "name": "resourceType",
              "type": "int",
              "value": 0
            },
            {
              "name": "resourceName",
              "type": "string",
              "value": "WOOD"
            },
            {
              "name": "baseYield",
              "type": "int",
              "value": 2
            },
            {
              "name": "respawnsRemaining",
              "type": "int",
              "value": 4
            },
            {
              "name": "special",
              "type": "bool",
              "value": false
            },
            {
              "name": "gridX",
              "type": "int",
              "value": 78
            },
            {
              "name": "gridY",
              "type": "int",
              "value": 74
            }
          ]
        },
        {
          "id": 32,
          "name": "RESOURCE_WOOD_04",
          "point": true,
          "type": "resource",
          "visible": true,
          "x": 8544,
          "y": 6912,
          "properties": [
            {
              "name": "sourceIndex",
              "type": "int",
              "value": 4
            },
            {
              "name": "resourceType",
              "type": "int",
              "value": 0
            },
            {
              "name": "resourceName",
              "type": "string",
              "value": "WOOD"
            },
            {
              "name": "baseYield",
              "type": "int",
              "value": 2
            },
            {
              "name": "respawnsRemaining",
              "type": "int",
              "value": 4
            },
            {
              "name": "special",
              "type": "bool",
              "value": false
            },
            {
              "name": "gridX",
              "type": "int",
              "value": 89
            },
            {
              "name": "gridY",
              "type": "int",
              "value": 72
            }
          ]
        },
        {
          "id": 34,
          "name": "RESOURCE_WOOD_06",
          "point": true,
          "type": "resource",
          "visible": true,
          "x": 8352,
          "y": 3264,
          "properties": [
            {
              "name": "sourceIndex",
              "type": "int",
              "value": 6
            },
            {
              "name": "resourceType",
              "type": "int",
              "value": 0
            },
            {
              "name": "resourceName",
              "type": "string",
              "value": "WOOD"
            },
            {
              "name": "baseYield",
              "type": "int",
              "value": 2
            },
            {
              "name": "respawnsRemaining",
              "type": "int",
              "value": 4
            },
            {
              "name": "special",
              "type": "bool",
              "value": false
            },
            {
              "name": "gridX",
              "type": "int",
              "value": 87
            },
            {
              "name": "gridY",
              "type": "int",
              "value": 34
            }
          ]
        },
        {
          "id": 35,
          "name": "RESOURCE_WOOD_07",
          "point": true,
          "type": "resource",
          "visible": true,
          "x": 9216,
          "y": 5952,
          "properties": [
            {
              "name": "sourceIndex",
              "type": "int",
              "value": 7
            },
            {
              "name": "resourceType",
              "type": "int",
              "value": 0
            },
            {
              "name": "resourceName",
              "type": "string",
              "value": "WOOD"
            },
            {
              "name": "baseYield",
              "type": "int",
              "value": 2
            },
            {
              "name": "respawnsRemaining",
              "type": "int",
              "value": 4
            },
            {
              "name": "special",
              "type": "bool",
              "value": false
            },
            {
              "name": "gridX",
              "type": "int",
              "value": 96
            },
            {
              "name": "gridY",
              "type": "int",
              "value": 62
            }
          ]
        },
        {
          "id": 36,
          "name": "RESOURCE_WOOD_08",
          "point": true,
          "type": "resource",
          "visible": true,
          "x": 6432,
          "y": 8352,
          "properties": [
            {
              "name": "sourceIndex",
              "type": "int",
              "value": 8
            },
            {
              "name": "resourceType",
              "type": "int",
              "value": 0
            },
            {
              "name": "resourceName",
              "type": "string",
              "value": "WOOD"
            },
            {
              "name": "baseYield",
              "type": "int",
              "value": 2
            },
            {
              "name": "respawnsRemaining",
              "type": "int",
              "value": 4
            },
            {
              "name": "special",
              "type": "bool",
              "value": false
            },
            {
              "name": "gridX",
              "type": "int",
              "value": 67
            },
            {
              "name": "gridY",
              "type": "int",
              "value": 87
            }
          ]
        },
        {
          "id": 38,
          "name": "RESOURCE_METAL_SCRAP_10",
          "point": true,
          "type": "resource",
          "visible": true,
          "x": 5952,
          "y": 6336,
          "properties": [
            {
              "name": "sourceIndex",
              "type": "int",
              "value": 10
            },
            {
              "name": "resourceType",
              "type": "int",
              "value": 2
            },
            {
              "name": "resourceName",
              "type": "string",
              "value": "METAL_SCRAP"
            },
            {
              "name": "baseYield",
              "type": "int",
              "value": 2
            },
            {
              "name": "respawnsRemaining",
              "type": "int",
              "value": 4
            },
            {
              "name": "special",
              "type": "bool",
              "value": false
            },
            {
              "name": "gridX",
              "type": "int",
              "value": 62
            },
            {
              "name": "gridY",
              "type": "int",
              "value": 66
            }
          ]
        },
        {
          "id": 39,
          "name": "RESOURCE_METAL_SCRAP_11",
          "point": true,
          "type": "resource",
          "visible": true,
          "x": 9312,
          "y": 5280,
          "properties": [
            {
              "name": "sourceIndex",
              "type": "int",
              "value": 11
            },
            {
              "name": "resourceType",
              "type": "int",
              "value": 2
            },
            {
              "name": "resourceName",
              "type": "string",
              "value": "METAL_SCRAP"
            },
            {
              "name": "baseYield",
              "type": "int",
              "value": 1
            },
            {
              "name": "respawnsRemaining",
              "type": "int",
              "value": 3
            },
            {
              "name": "special",
              "type": "bool",
              "value": false
            },
            {
              "name": "gridX",
              "type": "int",
              "value": 97
            },
            {
              "name": "gridY",
              "type": "int",
              "value": 55
            }
          ]
        },
        {
          "id": 40,
          "name": "RESOURCE_METAL_SCRAP_12",
          "point": true,
          "type": "resource",
          "visible": true,
          "x": 3552,
          "y": 7104,
          "properties": [
            {
              "name": "sourceIndex",
              "type": "int",
              "value": 12
            },
            {
              "name": "resourceType",
              "type": "int",
              "value": 2
            },
            {
              "name": "resourceName",
              "type": "string",
              "value": "METAL_SCRAP"
            },
            {
              "name": "baseYield",
              "type": "int",
              "value": 1
            },
            {
              "name": "respawnsRemaining",
              "type": "int",
              "value": 3
            },
            {
              "name": "special",
              "type": "bool",
              "value": false
            },
            {
              "name": "gridX",
              "type": "int",
              "value": 37
            },
            {
              "name": "gridY",
              "type": "int",
              "value": 74
            }
          ]
        },
        {
          "id": 41,
          "name": "RESOURCE_METAL_SCRAP_13",
          "point": true,
          "type": "resource",
          "visible": true,
          "x": 4800,
          "y": 6144,
          "properties": [
            {
              "name": "sourceIndex",
              "type": "int",
              "value": 13
            },
            {
              "name": "resourceType",
              "type": "int",
              "value": 2
            },
            {
              "name": "resourceName",
              "type": "string",
              "value": "METAL_SCRAP"
            },
            {
              "name": "baseYield",
              "type": "int",
              "value": 1
            },
            {
              "name": "respawnsRemaining",
              "type": "int",
              "value": 3
            },
            {
              "name": "special",
              "type": "bool",
              "value": false
            },
            {
              "name": "gridX",
              "type": "int",
              "value": 50
            },
            {
              "name": "gridY",
              "type": "int",
              "value": 64
            }
          ]
        },
        {
          "id": 42,
          "name": "RESOURCE_METAL_SCRAP_14",
          "point": true,
          "type": "resource",
          "visible": true,
          "x": 9312,
          "y": 8544,
          "properties": [
            {
              "name": "sourceIndex",
              "type": "int",
              "value": 14
            },
            {
              "name": "resourceType",
              "type": "int",
              "value": 2
            },
            {
              "name": "resourceName",
              "type": "string",
              "value": "METAL_SCRAP"
            },
            {
              "name": "baseYield",
              "type": "int",
              "value": 1
            },
            {
              "name": "respawnsRemaining",
              "type": "int",
              "value": 3
            },
            {
              "name": "special",
              "type": "bool",
              "value": false
            },
            {
              "name": "gridX",
              "type": "int",
              "value": 97
            },
            {
              "name": "gridY",
              "type": "int",
              "value": 89
            }
          ]
        },
        {
          "id": 43,
          "name": "RESOURCE_FRUIT_15",
          "point": true,
          "type": "resource",
          "visible": true,
          "x": 8736,
          "y": 4704,
          "properties": [
            {
              "name": "sourceIndex",
              "type": "int",
              "value": 15
            },
            {
              "name": "resourceType",
              "type": "int",
              "value": 3
            },
            {
              "name": "resourceName",
              "type": "string",
              "value": "FRUIT"
            },
            {
              "name": "baseYield",
              "type": "int",
              "value": 2
            },
            {
              "name": "respawnsRemaining",
              "type": "int",
              "value": 4
            },
            {
              "name": "special",
              "type": "bool",
              "value": false
            },
            {
              "name": "gridX",
              "type": "int",
              "value": 91
            },
            {
              "name": "gridY",
              "type": "int",
              "value": 49
            }
          ]
        },
        {
          "id": 44,
          "name": "RESOURCE_FRUIT_16",
          "point": true,
          "type": "resource",
          "visible": true,
          "x": 9408,
          "y": 5952,
          "properties": [
            {
              "name": "sourceIndex",
              "type": "int",
              "value": 16
            },
            {
              "name": "resourceType",
              "type": "int",
              "value": 3
            },
            {
              "name": "resourceName",
              "type": "string",
              "value": "FRUIT"
            },
            {
              "name": "baseYield",
              "type": "int",
              "value": 2
            },
            {
              "name": "respawnsRemaining",
              "type": "int",
              "value": 4
            },
            {
              "name": "special",
              "type": "bool",
              "value": false
            },
            {
              "name": "gridX",
              "type": "int",
              "value": 98
            },
            {
              "name": "gridY",
              "type": "int",
              "value": 62
            }
          ]
        },
        {
          "id": 45,
          "name": "RESOURCE_FRUIT_17",
          "point": true,
          "type": "resource",
          "visible": true,
          "x": 9696,
          "y": 7104,
          "properties": [
            {
              "name": "sourceIndex",
              "type": "int",
              "value": 17
            },
            {
              "name": "resourceType",
              "type": "int",
              "value": 3
            },
            {
              "name": "resourceName",
              "type": "string",
              "value": "FRUIT"
            },
            {
              "name": "baseYield",
              "type": "int",
              "value": 2
            },
            {
              "name": "respawnsRemaining",
              "type": "int",
              "value": 4
            },
            {
              "name": "special",
              "type": "bool",
              "value": false
            },
            {
              "name": "gridX",
              "type": "int",
              "value": 101
            },
            {
              "name": "gridY",
              "type": "int",
              "value": 74
            }
          ]
        },
        {
          "id": 46,
          "name": "RESOURCE_FRUIT_18",
          "point": true,
          "type": "resource",
          "visible": true,
          "x": 9600,
          "y": 8352,
          "properties": [
            {
              "name": "sourceIndex",
              "type": "int",
              "value": 18
            },
            {
              "name": "resourceType",
              "type": "int",
              "value": 3
            },
            {
              "name": "resourceName",
              "type": "string",
              "value": "FRUIT"
            },
            {
              "name": "baseYield",
              "type": "int",
              "value": 2
            },
            {
              "name": "respawnsRemaining",
              "type": "int",
              "value": 4
            },
            {
              "name": "special",
              "type": "bool",
              "value": false
            },
            {
              "name": "gridX",
              "type": "int",
              "value": 100
            },
            {
              "name": "gridY",
              "type": "int",
              "value": 87
            }
          ]
        },
        {
          "id": 47,
          "name": "RESOURCE_FRUIT_19",
          "point": true,
          "type": "resource",
          "visible": true,
          "x": 10080,
          "y": 8928,
          "properties": [
            {
              "name": "sourceIndex",
              "type": "int",
              "value": 19
            },
            {
              "name": "resourceType",
              "type": "int",
              "value": 3
            },
            {
              "name": "resourceName",
              "type": "string",
              "value": "FRUIT"
            },
            {
              "name": "baseYield",
              "type": "int",
              "value": 2
            },
            {
              "name": "respawnsRemaining",
              "type": "int",
              "value": 4
            },
            {
              "name": "special",
              "type": "bool",
              "value": false
            },
            {
              "name": "gridX",
              "type": "int",
              "value": 105
            },
            {
              "name": "gridY",
              "type": "int",
              "value": 93
            }
          ]
        },
        {
          "id": 48,
          "name": "RESOURCE_FRUIT_20",
          "point": true,
          "type": "resource",
          "visible": true,
          "x": 4704,
          "y": 6816,
          "properties": [
            {
              "name": "sourceIndex",
              "type": "int",
              "value": 20
            },
            {
              "name": "resourceType",
              "type": "int",
              "value": 3
            },
            {
              "name": "resourceName",
              "type": "string",
              "value": "FRUIT"
            },
            {
              "name": "baseYield",
              "type": "int",
              "value": 2
            },
            {
              "name": "respawnsRemaining",
              "type": "int",
              "value": 4
            },
            {
              "name": "special",
              "type": "bool",
              "value": false
            },
            {
              "name": "gridX",
              "type": "int",
              "value": 49
            },
            {
              "name": "gridY",
              "type": "int",
              "value": 71
            }
          ]
        },
        {
          "id": 49,
          "name": "RESOURCE_FRUIT_21",
          "point": true,
          "type": "resource",
          "visible": true,
          "x": 4800,
          "y": 7680,
          "properties": [
            {
              "name": "sourceIndex",
              "type": "int",
              "value": 21
            },
            {
              "name": "resourceType",
              "type": "int",
              "value": 3
            },
            {
              "name": "resourceName",
              "type": "string",
              "value": "FRUIT"
            },
            {
              "name": "baseYield",
              "type": "int",
              "value": 1
            },
            {
              "name": "respawnsRemaining",
              "type": "int",
              "value": 3
            },
            {
              "name": "special",
              "type": "bool",
              "value": false
            },
            {
              "name": "gridX",
              "type": "int",
              "value": 50
            },
            {
              "name": "gridY",
              "type": "int",
              "value": 80
            }
          ]
        },
        {
          "id": 50,
          "name": "RESOURCE_GLOW_MOSS_22",
          "point": true,
          "type": "resource",
          "visible": true,
          "x": 6624,
          "y": 7104,
          "properties": [
            {
              "name": "sourceIndex",
              "type": "int",
              "value": 22
            },
            {
              "name": "resourceType",
              "type": "int",
              "value": 6
            },
            {
              "name": "resourceName",
              "type": "string",
              "value": "GLOW_MOSS"
            },
            {
              "name": "baseYield",
              "type": "int",
              "value": 1
            },
            {
              "name": "respawnsRemaining",
              "type": "int",
              "value": 4
            },
            {
              "name": "special",
              "type": "bool",
              "value": false
            },
            {
              "name": "gridX",
              "type": "int",
              "value": 69
            },
            {
              "name": "gridY",
              "type": "int",
              "value": 74
            }
          ]
        },
        {
          "id": 51,
          "name": "RESOURCE_GLOW_MOSS_23",
          "point": true,
          "type": "resource",
          "visible": true,
          "x": 7680,
          "y": 7104,
          "properties": [
            {
              "name": "sourceIndex",
              "type": "int",
              "value": 23
            },
            {
              "name": "resourceType",
              "type": "int",
              "value": 6
            },
            {
              "name": "resourceName",
              "type": "string",
              "value": "GLOW_MOSS"
            },
            {
              "name": "baseYield",
              "type": "int",
              "value": 1
            },
            {
              "name": "respawnsRemaining",
              "type": "int",
              "value": 4
            },
            {
              "name": "special",
              "type": "bool",
              "value": false
            },
            {
              "name": "gridX",
              "type": "int",
              "value": 80
            },
            {
              "name": "gridY",
              "type": "int",
              "value": 74
            }
          ]
        },
        {
          "id": 52,
          "name": "RESOURCE_GLOW_MOSS_24",
          "point": true,
          "type": "resource",
          "visible": true,
          "x": 8736,
          "y": 4032,
          "properties": [
            {
              "name": "sourceIndex",
              "type": "int",
              "value": 24
            },
            {
              "name": "resourceType",
              "type": "int",
              "value": 6
            },
            {
              "name": "resourceName",
              "type": "string",
              "value": "GLOW_MOSS"
            },
            {
              "name": "baseYield",
              "type": "int",
              "value": 2
            },
            {
              "name": "respawnsRemaining",
              "type": "int",
              "value": 4
            },
            {
              "name": "special",
              "type": "bool",
              "value": false
            },
            {
              "name": "gridX",
              "type": "int",
              "value": 91
            },
            {
              "name": "gridY",
              "type": "int",
              "value": 42
            }
          ]
        },
        {
          "id": 53,
          "name": "RESOURCE_GLOW_MOSS_25",
          "point": true,
          "type": "resource",
          "visible": true,
          "x": 8832,
          "y": 7584,
          "properties": [
            {
              "name": "sourceIndex",
              "type": "int",
              "value": 25
            },
            {
              "name": "resourceType",
              "type": "int",
              "value": 6
            },
            {
              "name": "resourceName",
              "type": "string",
              "value": "GLOW_MOSS"
            },
            {
              "name": "baseYield",
              "type": "int",
              "value": 2
            },
            {
              "name": "respawnsRemaining",
              "type": "int",
              "value": 4
            },
            {
              "name": "special",
              "type": "bool",
              "value": false
            },
            {
              "name": "gridX",
              "type": "int",
              "value": 92
            },
            {
              "name": "gridY",
              "type": "int",
              "value": 79
            }
          ]
        },
        {
          "id": 54,
          "name": "RESOURCE_GLOW_MOSS_26",
          "point": true,
          "type": "resource",
          "visible": true,
          "x": 5856,
          "y": 8256,
          "properties": [
            {
              "name": "sourceIndex",
              "type": "int",
              "value": 26
            },
            {
              "name": "resourceType",
              "type": "int",
              "value": 6
            },
            {
              "name": "resourceName",
              "type": "string",
              "value": "GLOW_MOSS"
            },
            {
              "name": "baseYield",
              "type": "int",
              "value": 1
            },
            {
              "name": "respawnsRemaining",
              "type": "int",
              "value": 4
            },
            {
              "name": "special",
              "type": "bool",
              "value": false
            },
            {
              "name": "gridX",
              "type": "int",
              "value": 61
            },
            {
              "name": "gridY",
              "type": "int",
              "value": 86
            }
          ]
        },
        {
          "id": 55,
          "name": "RESOURCE_GLOW_MOSS_27",
          "point": true,
          "type": "resource",
          "visible": true,
          "x": 4224,
          "y": 7296,
          "properties": [
            {
              "name": "sourceIndex",
              "type": "int",
              "value": 27
            },
            {
              "name": "resourceType",
              "type": "int",
              "value": 6
            },
            {
              "name": "resourceName",
              "type": "string",
              "value": "GLOW_MOSS"
            },
            {
              "name": "baseYield",
              "type": "int",
              "value": 1
            },
            {
              "name": "respawnsRemaining",
              "type": "int",
              "value": 4
            },
            {
              "name": "special",
              "type": "bool",
              "value": false
            },
            {
              "name": "gridX",
              "type": "int",
              "value": 44
            },
            {
              "name": "gridY",
              "type": "int",
              "value": 76
            }
          ]
        },
        {
          "id": 56,
          "name": "RESOURCE_GLOW_MOSS_28",
          "point": true,
          "type": "resource",
          "visible": true,
          "x": 4512,
          "y": 6240,
          "properties": [
            {
              "name": "sourceIndex",
              "type": "int",
              "value": 28
            },
            {
              "name": "resourceType",
              "type": "int",
              "value": 6
            },
            {
              "name": "resourceName",
              "type": "string",
              "value": "GLOW_MOSS"
            },
            {
              "name": "baseYield",
              "type": "int",
              "value": 1
            },
            {
              "name": "respawnsRemaining",
              "type": "int",
              "value": 4
            },
            {
              "name": "special",
              "type": "bool",
              "value": false
            },
            {
              "name": "gridX",
              "type": "int",
              "value": 47
            },
            {
              "name": "gridY",
              "type": "int",
              "value": 65
            }
          ]
        },
        {
          "id": 57,
          "name": "RESOURCE_GLOW_MOSS_29",
          "point": true,
          "type": "resource",
          "visible": true,
          "x": 8448,
          "y": 8640,
          "properties": [
            {
              "name": "sourceIndex",
              "type": "int",
              "value": 29
            },
            {
              "name": "resourceType",
              "type": "int",
              "value": 6
            },
            {
              "name": "resourceName",
              "type": "string",
              "value": "GLOW_MOSS"
            },
            {
              "name": "baseYield",
              "type": "int",
              "value": 1
            },
            {
              "name": "respawnsRemaining",
              "type": "int",
              "value": 4
            },
            {
              "name": "special",
              "type": "bool",
              "value": false
            },
            {
              "name": "gridX",
              "type": "int",
              "value": 88
            },
            {
              "name": "gridY",
              "type": "int",
              "value": 90
            }
          ]
        },
        {
          "id": 58,
          "name": "RESOURCE_ORE_30",
          "point": true,
          "type": "resource",
          "visible": true,
          "x": 6816,
          "y": 7104,
          "properties": [
            {
              "name": "sourceIndex",
              "type": "int",
              "value": 30
            },
            {
              "name": "resourceType",
              "type": "int",
              "value": 1
            },
            {
              "name": "resourceName",
              "type": "string",
              "value": "ORE"
            },
            {
              "name": "baseYield",
              "type": "int",
              "value": 1
            },
            {
              "name": "respawnsRemaining",
              "type": "int",
              "value": 3
            },
            {
              "name": "special",
              "type": "bool",
              "value": false
            },
            {
              "name": "gridX",
              "type": "int",
              "value": 71
            },
            {
              "name": "gridY",
              "type": "int",
              "value": 74
            }
          ]
        },
        {
          "id": 59,
          "name": "RESOURCE_ORE_31",
          "point": true,
          "type": "resource",
          "visible": true,
          "x": 8160,
          "y": 7296,
          "properties": [
            {
              "name": "sourceIndex",
              "type": "int",
              "value": 31
            },
            {
              "name": "resourceType",
              "type": "int",
              "value": 1
            },
            {
              "name": "resourceName",
              "type": "string",
              "value": "ORE"
            },
            {
              "name": "baseYield",
              "type": "int",
              "value": 1
            },
            {
              "name": "respawnsRemaining",
              "type": "int",
              "value": 3
            },
            {
              "name": "special",
              "type": "bool",
              "value": false
            },
            {
              "name": "gridX",
              "type": "int",
              "value": 85
            },
            {
              "name": "gridY",
              "type": "int",
              "value": 76
            }
          ]
        },
        {
          "id": 60,
          "name": "RESOURCE_ORE_32",
          "point": true,
          "type": "resource",
          "visible": true,
          "x": 9312,
          "y": 3840,
          "properties": [
            {
              "name": "sourceIndex",
              "type": "int",
              "value": 32
            },
            {
              "name": "resourceType",
              "type": "int",
              "value": 1
            },
            {
              "name": "resourceName",
              "type": "string",
              "value": "ORE"
            },
            {
              "name": "baseYield",
              "type": "int",
              "value": 1
            },
            {
              "name": "respawnsRemaining",
              "type": "int",
              "value": 3
            },
            {
              "name": "special",
              "type": "bool",
              "value": false
            },
            {
              "name": "gridX",
              "type": "int",
              "value": 97
            },
            {
              "name": "gridY",
              "type": "int",
              "value": 40
            }
          ]
        },
        {
          "id": 61,
          "name": "RESOURCE_ORE_33",
          "point": true,
          "type": "resource",
          "visible": true,
          "x": 9312,
          "y": 3936,
          "properties": [
            {
              "name": "sourceIndex",
              "type": "int",
              "value": 33
            },
            {
              "name": "resourceType",
              "type": "int",
              "value": 1
            },
            {
              "name": "resourceName",
              "type": "string",
              "value": "ORE"
            },
            {
              "name": "baseYield",
              "type": "int",
              "value": 1
            },
            {
              "name": "respawnsRemaining",
              "type": "int",
              "value": 3
            },
            {
              "name": "special",
              "type": "bool",
              "value": false
            },
            {
              "name": "gridX",
              "type": "int",
              "value": 97
            },
            {
              "name": "gridY",
              "type": "int",
              "value": 41
            }
          ]
        },
        {
          "id": 62,
          "name": "RESOURCE_ORE_34",
          "point": true,
          "type": "resource",
          "visible": true,
          "x": 7008,
          "y": 8640,
          "properties": [
            {
              "name": "sourceIndex",
              "type": "int",
              "value": 34
            },
            {
              "name": "resourceType",
              "type": "int",
              "value": 1
            },
            {
              "name": "resourceName",
              "type": "string",
              "value": "ORE"
            },
            {
              "name": "baseYield",
              "type": "int",
              "value": 1
            },
            {
              "name": "respawnsRemaining",
              "type": "int",
              "value": 3
            },
            {
              "name": "special",
              "type": "bool",
              "value": false
            },
            {
              "name": "gridX",
              "type": "int",
              "value": 73
            },
            {
              "name": "gridY",
              "type": "int",
              "value": 90
            }
          ]
        },
        {
          "id": 63,
          "name": "RESOURCE_ORE_35",
          "point": true,
          "type": "resource",
          "visible": true,
          "x": 8160,
          "y": 8544,
          "properties": [
            {
              "name": "sourceIndex",
              "type": "int",
              "value": 35
            },
            {
              "name": "resourceType",
              "type": "int",
              "value": 1
            },
            {
              "name": "resourceName",
              "type": "string",
              "value": "ORE"
            },
            {
              "name": "baseYield",
              "type": "int",
              "value": 1
            },
            {
              "name": "respawnsRemaining",
              "type": "int",
              "value": 3
            },
            {
              "name": "special",
              "type": "bool",
              "value": false
            },
            {
              "name": "gridX",
              "type": "int",
              "value": 85
            },
            {
              "name": "gridY",
              "type": "int",
              "value": 89
            }
          ]
        },
        {
          "id": 64,
          "name": "RESOURCE_SPECIAL_FUNGUS_36",
          "point": true,
          "type": "resource",
          "visible": true,
          "x": 8928,
          "y": 4320,
          "properties": [
            {
              "name": "sourceIndex",
              "type": "int",
              "value": 36
            },
            {
              "name": "resourceType",
              "type": "int",
              "value": 4
            },
            {
              "name": "resourceName",
              "type": "string",
              "value": "SPECIAL_FUNGUS"
            },
            {
              "name": "baseYield",
              "type": "int",
              "value": 1
            },
            {
              "name": "respawnsRemaining",
              "type": "int",
              "value": 3
            },
            {
              "name": "special",
              "type": "bool",
              "value": false
            },
            {
              "name": "gridX",
              "type": "int",
              "value": 93
            },
            {
              "name": "gridY",
              "type": "int",
              "value": 45
            }
          ]
        },
        {
          "id": 65,
          "name": "RESOURCE_SPECIAL_FUNGUS_37",
          "point": true,
          "type": "resource",
          "visible": true,
          "x": 9504,
          "y": 6720,
          "properties": [
            {
              "name": "sourceIndex",
              "type": "int",
              "value": 37
            },
            {
              "name": "resourceType",
              "type": "int",
              "value": 4
            },
            {
              "name": "resourceName",
              "type": "string",
              "value": "SPECIAL_FUNGUS"
            },
            {
              "name": "baseYield",
              "type": "int",
              "value": 1
            },
            {
              "name": "respawnsRemaining",
              "type": "int",
              "value": 3
            },
            {
              "name": "special",
              "type": "bool",
              "value": false
            },
            {
              "name": "gridX",
              "type": "int",
              "value": 99
            },
            {
              "name": "gridY",
              "type": "int",
              "value": 70
            }
          ]
        },
        {
          "id": 66,
          "name": "RESOURCE_SPECIAL_FUNGUS_38",
          "point": true,
          "type": "resource",
          "visible": true,
          "x": 9792,
          "y": 8544,
          "properties": [
            {
              "name": "sourceIndex",
              "type": "int",
              "value": 38
            },
            {
              "name": "resourceType",
              "type": "int",
              "value": 4
            },
            {
              "name": "resourceName",
              "type": "string",
              "value": "SPECIAL_FUNGUS"
            },
            {
              "name": "baseYield",
              "type": "int",
              "value": 1
            },
            {
              "name": "respawnsRemaining",
              "type": "int",
              "value": 3
            },
            {
              "name": "special",
              "type": "bool",
              "value": false
            },
            {
              "name": "gridX",
              "type": "int",
              "value": 102
            },
            {
              "name": "gridY",
              "type": "int",
              "value": 89
            }
          ]
        },
        {
          "id": 67,
          "name": "RESOURCE_ALIEN_VINE_39",
          "point": true,
          "type": "resource",
          "visible": true,
          "x": 8736,
          "y": 4800,
          "properties": [
            {
              "name": "sourceIndex",
              "type": "int",
              "value": 39
            },
            {
              "name": "resourceType",
              "type": "int",
              "value": 7
            },
            {
              "name": "resourceName",
              "type": "string",
              "value": "ALIEN_VINE"
            },
            {
              "name": "baseYield",
              "type": "int",
              "value": 2
            },
            {
              "name": "respawnsRemaining",
              "type": "int",
              "value": 3
            },
            {
              "name": "special",
              "type": "bool",
              "value": false
            },
            {
              "name": "gridX",
              "type": "int",
              "value": 91
            },
            {
              "name": "gridY",
              "type": "int",
              "value": 50
            }
          ]
        },
        {
          "id": 68,
          "name": "RESOURCE_ALIEN_VINE_40",
          "point": true,
          "type": "resource",
          "visible": true,
          "x": 9312,
          "y": 6336,
          "properties": [
            {
              "name": "sourceIndex",
              "type": "int",
              "value": 40
            },
            {
              "name": "resourceType",
              "type": "int",
              "value": 7
            },
            {
              "name": "resourceName",
              "type": "string",
              "value": "ALIEN_VINE"
            },
            {
              "name": "baseYield",
              "type": "int",
              "value": 2
            },
            {
              "name": "respawnsRemaining",
              "type": "int",
              "value": 3
            },
            {
              "name": "special",
              "type": "bool",
              "value": false
            },
            {
              "name": "gridX",
              "type": "int",
              "value": 97
            },
            {
              "name": "gridY",
              "type": "int",
              "value": 66
            }
          ]
        },
        {
          "id": 69,
          "name": "RESOURCE_ALIEN_VINE_41",
          "point": true,
          "type": "resource",
          "visible": true,
          "x": 9600,
          "y": 8640,
          "properties": [
            {
              "name": "sourceIndex",
              "type": "int",
              "value": 41
            },
            {
              "name": "resourceType",
              "type": "int",
              "value": 7
            },
            {
              "name": "resourceName",
              "type": "string",
              "value": "ALIEN_VINE"
            },
            {
              "name": "baseYield",
              "type": "int",
              "value": 2
            },
            {
              "name": "respawnsRemaining",
              "type": "int",
              "value": 3
            },
            {
              "name": "special",
              "type": "bool",
              "value": false
            },
            {
              "name": "gridX",
              "type": "int",
              "value": 100
            },
            {
              "name": "gridY",
              "type": "int",
              "value": 90
            }
          ]
        },
        {
          "id": 70,
          "name": "RESOURCE_ALIEN_VINE_42",
          "point": true,
          "type": "resource",
          "visible": true,
          "x": 4608,
          "y": 7392,
          "properties": [
            {
              "name": "sourceIndex",
              "type": "int",
              "value": 42
            },
            {
              "name": "resourceType",
              "type": "int",
              "value": 7
            },
            {
              "name": "resourceName",
              "type": "string",
              "value": "ALIEN_VINE"
            },
            {
              "name": "baseYield",
              "type": "int",
              "value": 1
            },
            {
              "name": "respawnsRemaining",
              "type": "int",
              "value": 3
            },
            {
              "name": "special",
              "type": "bool",
              "value": false
            },
            {
              "name": "gridX",
              "type": "int",
              "value": 48
            },
            {
              "name": "gridY",
              "type": "int",
              "value": 77
            }
          ]
        },
        {
          "id": 71,
          "name": "RESOURCE_SHELL_FRUIT_43",
          "point": true,
          "type": "resource",
          "visible": true,
          "x": 9024,
          "y": 6144,
          "properties": [
            {
              "name": "sourceIndex",
              "type": "int",
              "value": 43
            },
            {
              "name": "resourceType",
              "type": "int",
              "value": 8
            },
            {
              "name": "resourceName",
              "type": "string",
              "value": "SHELL_FRUIT"
            },
            {
              "name": "baseYield",
              "type": "int",
              "value": 1
            },
            {
              "name": "respawnsRemaining",
              "type": "int",
              "value": 3
            },
            {
              "name": "special",
              "type": "bool",
              "value": false
            },
            {
              "name": "gridX",
              "type": "int",
              "value": 94
            },
            {
              "name": "gridY",
              "type": "int",
              "value": 64
            }
          ]
        },
        {
          "id": 72,
          "name": "RESOURCE_SHELL_FRUIT_44",
          "point": true,
          "type": "resource",
          "visible": true,
          "x": 9696,
          "y": 8928,
          "properties": [
            {
              "name": "sourceIndex",
              "type": "int",
              "value": 44
            },
            {
              "name": "resourceType",
              "type": "int",
              "value": 8
            },
            {
              "name": "resourceName",
              "type": "string",
              "value": "SHELL_FRUIT"
            },
            {
              "name": "baseYield",
              "type": "int",
              "value": 1
            },
            {
              "name": "respawnsRemaining",
              "type": "int",
              "value": 3
            },
            {
              "name": "special",
              "type": "bool",
              "value": false
            },
            {
              "name": "gridX",
              "type": "int",
              "value": 101
            },
            {
              "name": "gridY",
              "type": "int",
              "value": 93
            }
          ]
        },
        {
          "id": 73,
          "name": "RESOURCE_SHELL_FRUIT_45",
          "point": true,
          "type": "resource",
          "visible": true,
          "x": 4896,
          "y": 6816,
          "properties": [
            {
              "name": "sourceIndex",
              "type": "int",
              "value": 45
            },
            {
              "name": "resourceType",
              "type": "int",
              "value": 8
            },
            {
              "name": "resourceName",
              "type": "string",
              "value": "SHELL_FRUIT"
            },
            {
              "name": "baseYield",
              "type": "int",
              "value": 1
            },
            {
              "name": "respawnsRemaining",
              "type": "int",
              "value": 3
            },
            {
              "name": "special",
              "type": "bool",
              "value": false
            },
            {
              "name": "gridX",
              "type": "int",
              "value": 51
            },
            {
              "name": "gridY",
              "type": "int",
              "value": 71
            }
          ]
        },
        {
          "id": 74,
          "name": "RESOURCE_JUNK_METAL_46",
          "point": true,
          "type": "resource",
          "visible": true,
          "x": 8544,
          "y": 5280,
          "properties": [
            {
              "name": "sourceIndex",
              "type": "int",
              "value": 46
            },
            {
              "name": "resourceType",
              "type": "int",
              "value": 9
            },
            {
              "name": "resourceName",
              "type": "string",
              "value": "JUNK_METAL"
            },
            {
              "name": "baseYield",
              "type": "int",
              "value": 1
            },
            {
              "name": "respawnsRemaining",
              "type": "int",
              "value": 3
            },
            {
              "name": "special",
              "type": "bool",
              "value": false
            },
            {
              "name": "gridX",
              "type": "int",
              "value": 89
            },
            {
              "name": "gridY",
              "type": "int",
              "value": 55
            }
          ]
        },
        {
          "id": 75,
          "name": "RESOURCE_JUNK_METAL_47",
          "point": true,
          "type": "resource",
          "visible": true,
          "x": 8928,
          "y": 7872,
          "properties": [
            {
              "name": "sourceIndex",
              "type": "int",
              "value": 47
            },
            {
              "name": "resourceType",
              "type": "int",
              "value": 9
            },
            {
              "name": "resourceName",
              "type": "string",
              "value": "JUNK_METAL"
            },
            {
              "name": "baseYield",
              "type": "int",
              "value": 1
            },
            {
              "name": "respawnsRemaining",
              "type": "int",
              "value": 3
            },
            {
              "name": "special",
              "type": "bool",
              "value": false
            },
            {
              "name": "gridX",
              "type": "int",
              "value": 93
            },
            {
              "name": "gridY",
              "type": "int",
              "value": 82
            }
          ]
        },
        {
          "id": 76,
          "name": "RESOURCE_JUNK_METAL_48",
          "point": true,
          "type": "resource",
          "visible": true,
          "x": 9888,
          "y": 4800,
          "properties": [
            {
              "name": "sourceIndex",
              "type": "int",
              "value": 48
            },
            {
              "name": "resourceType",
              "type": "int",
              "value": 9
            },
            {
              "name": "resourceName",
              "type": "string",
              "value": "JUNK_METAL"
            },
            {
              "name": "baseYield",
              "type": "int",
              "value": 1
            },
            {
              "name": "respawnsRemaining",
              "type": "int",
              "value": 3
            },
            {
              "name": "special",
              "type": "bool",
              "value": false
            },
            {
              "name": "gridX",
              "type": "int",
              "value": 103
            },
            {
              "name": "gridY",
              "type": "int",
              "value": 50
            }
          ]
        },
        {
          "id": 77,
          "name": "RESOURCE_JUNK_METAL_49",
          "point": true,
          "type": "resource",
          "visible": true,
          "x": 3936,
          "y": 6528,
          "properties": [
            {
              "name": "sourceIndex",
              "type": "int",
              "value": 49
            },
            {
              "name": "resourceType",
              "type": "int",
              "value": 9
            },
            {
              "name": "resourceName",
              "type": "string",
              "value": "JUNK_METAL"
            },
            {
              "name": "baseYield",
              "type": "int",
              "value": 1
            },
            {
              "name": "respawnsRemaining",
              "type": "int",
              "value": 3
            },
            {
              "name": "special",
              "type": "bool",
              "value": false
            },
            {
              "name": "gridX",
              "type": "int",
              "value": 41
            },
            {
              "name": "gridY",
              "type": "int",
              "value": 68
            }
          ]
        },
        {
          "id": 78,
          "name": "RESOURCE_JUNK_METAL_50",
          "point": true,
          "type": "resource",
          "visible": true,
          "x": 4896,
          "y": 7872,
          "properties": [
            {
              "name": "sourceIndex",
              "type": "int",
              "value": 50
            },
            {
              "name": "resourceType",
              "type": "int",
              "value": 9
            },
            {
              "name": "resourceName",
              "type": "string",
              "value": "JUNK_METAL"
            },
            {
              "name": "baseYield",
              "type": "int",
              "value": 1
            },
            {
              "name": "respawnsRemaining",
              "type": "int",
              "value": 2
            },
            {
              "name": "special",
              "type": "bool",
              "value": false
            },
            {
              "name": "gridX",
              "type": "int",
              "value": 51
            },
            {
              "name": "gridY",
              "type": "int",
              "value": 82
            }
          ]
        },
        {
          "id": 79,
          "name": "RESOURCE_ENERGY_CRYSTAL_51",
          "point": true,
          "type": "resource",
          "visible": true,
          "x": 9792,
          "y": 5280,
          "properties": [
            {
              "name": "sourceIndex",
              "type": "int",
              "value": 51
            },
            {
              "name": "resourceType",
              "type": "int",
              "value": 10
            },
            {
              "name": "resourceName",
              "type": "string",
              "value": "ENERGY_CRYSTAL"
            },
            {
              "name": "baseYield",
              "type": "int",
              "value": 1
            },
            {
              "name": "respawnsRemaining",
              "type": "int",
              "value": 2
            },
            {
              "name": "special",
              "type": "bool",
              "value": false
            },
            {
              "name": "gridX",
              "type": "int",
              "value": 102
            },
            {
              "name": "gridY",
              "type": "int",
              "value": 55
            }
          ]
        },
        {
          "id": 80,
          "name": "RESOURCE_ENERGY_CRYSTAL_52",
          "point": true,
          "type": "resource",
          "visible": true,
          "x": 9984,
          "y": 7584,
          "properties": [
            {
              "name": "sourceIndex",
              "type": "int",
              "value": 52
            },
            {
              "name": "resourceType",
              "type": "int",
              "value": 10
            },
            {
              "name": "resourceName",
              "type": "string",
              "value": "ENERGY_CRYSTAL"
            },
            {
              "name": "baseYield",
              "type": "int",
              "value": 1
            },
            {
              "name": "respawnsRemaining",
              "type": "int",
              "value": 2
            },
            {
              "name": "special",
              "type": "bool",
              "value": false
            },
            {
              "name": "gridX",
              "type": "int",
              "value": 104
            },
            {
              "name": "gridY",
              "type": "int",
              "value": 79
            }
          ]
        },
        {
          "id": 81,
          "name": "RESOURCE_ENERGY_CRYSTAL_53",
          "point": true,
          "type": "resource",
          "visible": true,
          "x": 10464,
          "y": 8544,
          "properties": [
            {
              "name": "sourceIndex",
              "type": "int",
              "value": 53
            },
            {
              "name": "resourceType",
              "type": "int",
              "value": 10
            },
            {
              "name": "resourceName",
              "type": "string",
              "value": "ENERGY_CRYSTAL"
            },
            {
              "name": "baseYield",
              "type": "int",
              "value": 1
            },
            {
              "name": "respawnsRemaining",
              "type": "int",
              "value": 2
            },
            {
              "name": "special",
              "type": "bool",
              "value": false
            },
            {
              "name": "gridX",
              "type": "int",
              "value": 109
            },
            {
              "name": "gridY",
              "type": "int",
              "value": 89
            }
          ]
        },
        {
          "id": 82,
          "name": "RESOURCE_CALM_MUSHROOM_54",
          "point": true,
          "type": "resource",
          "visible": true,
          "x": 9696,
          "y": 6432,
          "properties": [
            {
              "name": "sourceIndex",
              "type": "int",
              "value": 54
            },
            {
              "name": "resourceType",
              "type": "int",
              "value": 11
            },
            {
              "name": "resourceName",
              "type": "string",
              "value": "CALM_MUSHROOM"
            },
            {
              "name": "baseYield",
              "type": "int",
              "value": 1
            },
            {
              "name": "respawnsRemaining",
              "type": "int",
              "value": 2
            },
            {
              "name": "special",
              "type": "bool",
              "value": false
            },
            {
              "name": "gridX",
              "type": "int",
              "value": 101
            },
            {
              "name": "gridY",
              "type": "int",
              "value": 67
            }
          ]
        },
        {
          "id": 83,
          "name": "RESOURCE_CALM_MUSHROOM_55",
          "point": true,
          "type": "resource",
          "visible": true,
          "x": 10080,
          "y": 8256,
          "properties": [
            {
              "name": "sourceIndex",
              "type": "int",
              "value": 55
            },
            {
              "name": "resourceType",
              "type": "int",
              "value": 11
            },
            {
              "name": "resourceName",
              "type": "string",
              "value": "CALM_MUSHROOM"
            },
            {
              "name": "baseYield",
              "type": "int",
              "value": 1
            },
            {
              "name": "respawnsRemaining",
              "type": "int",
              "value": 2
            },
            {
              "name": "special",
              "type": "bool",
              "value": false
            },
            {
              "name": "gridX",
              "type": "int",
              "value": 105
            },
            {
              "name": "gridY",
              "type": "int",
              "value": 86
            }
          ]
        },
        {
          "id": 84,
          "name": "RESOURCE_PROTECTIVE_FIBER_56",
          "point": true,
          "type": "resource",
          "visible": true,
          "x": 9600,
          "y": 7200,
          "properties": [
            {
              "name": "sourceIndex",
              "type": "int",
              "value": 56
            },
            {
              "name": "resourceType",
              "type": "int",
              "value": 12
            },
            {
              "name": "resourceName",
              "type": "string",
              "value": "PROTECTIVE_FIBER"
            },
            {
              "name": "baseYield",
              "type": "int",
              "value": 1
            },
            {
              "name": "respawnsRemaining",
              "type": "int",
              "value": 2
            },
            {
              "name": "special",
              "type": "bool",
              "value": false
            },
            {
              "name": "gridX",
              "type": "int",
              "value": 100
            },
            {
              "name": "gridY",
              "type": "int",
              "value": 75
            }
          ]
        },
        {
          "id": 85,
          "name": "RESOURCE_PROTECTIVE_FIBER_57",
          "point": true,
          "type": "resource",
          "visible": true,
          "x": 9984,
          "y": 8736,
          "properties": [
            {
              "name": "sourceIndex",
              "type": "int",
              "value": 57
            },
            {
              "name": "resourceType",
              "type": "int",
              "value": 12
            },
            {
              "name": "resourceName",
              "type": "string",
              "value": "PROTECTIVE_FIBER"
            },
            {
              "name": "baseYield",
              "type": "int",
              "value": 1
            },
            {
              "name": "respawnsRemaining",
              "type": "int",
              "value": 2
            },
            {
              "name": "special",
              "type": "bool",
              "value": false
            },
            {
              "name": "gridX",
              "type": "int",
              "value": 104
            },
            {
              "name": "gridY",
              "type": "int",
              "value": 91
            }
          ]
        },
        {
          "id": 86,
          "name": "RESOURCE_PROTECTIVE_FIBER_58",
          "point": true,
          "type": "resource",
          "visible": true,
          "x": 10656,
          "y": 8832,
          "properties": [
            {
              "name": "sourceIndex",
              "type": "int",
              "value": 58
            },
            {
              "name": "resourceType",
              "type": "int",
              "value": 12
            },
            {
              "name": "resourceName",
              "type": "string",
              "value": "PROTECTIVE_FIBER"
            },
            {
              "name": "baseYield",
              "type": "int",
              "value": 1
            },
            {
              "name": "respawnsRemaining",
              "type": "int",
              "value": 2
            },
            {
              "name": "special",
              "type": "bool",
              "value": false
            },
            {
              "name": "gridX",
              "type": "int",
              "value": 111
            },
            {
              "name": "gridY",
              "type": "int",
              "value": 92
            }
          ]
        },
        {
          "id": 87,
          "name": "RESOURCE_RELIC_FRAGMENT_59",
          "point": true,
          "type": "resource",
          "visible": true,
          "x": 6624,
          "y": 2400,
          "properties": [
            {
              "name": "sourceIndex",
              "type": "int",
              "value": 59
            },
            {
              "name": "resourceType",
              "type": "int",
              "value": 13
            },
            {
              "name": "resourceName",
              "type": "string",
              "value": "RELIC_FRAGMENT"
            },
            {
              "name": "baseYield",
              "type": "int",
              "value": 1
            },
            {
              "name": "respawnsRemaining",
              "type": "int",
              "value": 2
            },
            {
              "name": "special",
              "type": "bool",
              "value": true
            },
            {
              "name": "gridX",
              "type": "int",
              "value": 69
            },
            {
              "name": "gridY",
              "type": "int",
              "value": 25
            }
          ]
        },
        {
          "id": 88,
          "name": "RESOURCE_RELIC_FRAGMENT_60",
          "point": true,
          "type": "resource",
          "visible": true,
          "x": 7776,
          "y": 1920,
          "properties": [
            {
              "name": "sourceIndex",
              "type": "int",
              "value": 60
            },
            {
              "name": "resourceType",
              "type": "int",
              "value": 13
            },
            {
              "name": "resourceName",
              "type": "string",
              "value": "RELIC_FRAGMENT"
            },
            {
              "name": "baseYield",
              "type": "int",
              "value": 1
            },
            {
              "name": "respawnsRemaining",
              "type": "int",
              "value": 2
            },
            {
              "name": "special",
              "type": "bool",
              "value": true
            },
            {
              "name": "gridX",
              "type": "int",
              "value": 81
            },
            {
              "name": "gridY",
              "type": "int",
              "value": 20
            }
          ]
        },
        {
          "id": 89,
          "name": "RESOURCE_RELIC_FRAGMENT_61",
          "point": true,
          "type": "resource",
          "visible": true,
          "x": 7968,
          "y": 2400,
          "properties": [
            {
              "name": "sourceIndex",
              "type": "int",
              "value": 61
            },
            {
              "name": "resourceType",
              "type": "int",
              "value": 13
            },
            {
              "name": "resourceName",
              "type": "string",
              "value": "RELIC_FRAGMENT"
            },
            {
              "name": "baseYield",
              "type": "int",
              "value": 1
            },
            {
              "name": "respawnsRemaining",
              "type": "int",
              "value": 2
            },
            {
              "name": "special",
              "type": "bool",
              "value": true
            },
            {
              "name": "gridX",
              "type": "int",
              "value": 83
            },
            {
              "name": "gridY",
              "type": "int",
              "value": 25
            }
          ]
        },
        {
          "id": 90,
          "name": "RESOURCE_ALIEN_SLIME_62",
          "point": true,
          "type": "resource",
          "visible": true,
          "x": 5856,
          "y": 2784,
          "properties": [
            {
              "name": "sourceIndex",
              "type": "int",
              "value": 62
            },
            {
              "name": "resourceType",
              "type": "int",
              "value": 15
            },
            {
              "name": "resourceName",
              "type": "string",
              "value": "ALIEN_SLIME"
            },
            {
              "name": "baseYield",
              "type": "int",
              "value": 1
            },
            {
              "name": "respawnsRemaining",
              "type": "int",
              "value": 2
            },
            {
              "name": "special",
              "type": "bool",
              "value": true
            },
            {
              "name": "gridX",
              "type": "int",
              "value": 61
            },
            {
              "name": "gridY",
              "type": "int",
              "value": 29
            }
          ]
        },
        {
          "id": 91,
          "name": "RESOURCE_ALIEN_SLIME_63",
          "point": true,
          "type": "resource",
          "visible": true,
          "x": 6816,
          "y": 2112,
          "properties": [
            {
              "name": "sourceIndex",
              "type": "int",
              "value": 63
            },
            {
              "name": "resourceType",
              "type": "int",
              "value": 15
            },
            {
              "name": "resourceName",
              "type": "string",
              "value": "ALIEN_SLIME"
            },
            {
              "name": "baseYield",
              "type": "int",
              "value": 1
            },
            {
              "name": "respawnsRemaining",
              "type": "int",
              "value": 2
            },
            {
              "name": "special",
              "type": "bool",
              "value": true
            },
            {
              "name": "gridX",
              "type": "int",
              "value": 71
            },
            {
              "name": "gridY",
              "type": "int",
              "value": 22
            }
          ]
        },
        {
          "id": 92,
          "name": "RESOURCE_WOOD_64",
          "point": true,
          "type": "resource",
          "visible": true,
          "x": 3072,
          "y": 6528,
          "properties": [
            {
              "name": "sourceIndex",
              "type": "int",
              "value": 64
            },
            {
              "name": "resourceType",
              "type": "int",
              "value": 0
            },
            {
              "name": "resourceName",
              "type": "string",
              "value": "WOOD"
            },
            {
              "name": "baseYield",
              "type": "int",
              "value": 2
            },
            {
              "name": "respawnsRemaining",
              "type": "int",
              "value": 4
            },
            {
              "name": "special",
              "type": "bool",
              "value": false
            },
            {
              "name": "gridX",
              "type": "int",
              "value": 32
            },
            {
              "name": "gridY",
              "type": "int",
              "value": 68
            }
          ]
        }
      ],
      "opacity": 1,
      "type": "objectgroup",
      "visible": true,
      "x": 0,
      "y": 0
    },
    {
      "draworder": "topdown",
      "id": 7,
      "name": "Monsters",
      "objects": [
        {
          "id": 97,
          "name": "MONSTER_THORN_LARVA_00",
          "point": true,
          "type": "monster",
          "visible": true,
          "x": 2784,
          "y": 6528,
          "properties": [
            {
              "name": "sourceIndex",
              "type": "int",
              "value": 0
            },
            {
              "name": "monsterType",
              "type": "int",
              "value": 0
            },
            {
              "name": "monsterName",
              "type": "string",
              "value": "THORN_LARVA"
            },
            {
              "name": "unlockStage",
              "type": "int",
              "value": 4
            },
            {
              "name": "gridX",
              "type": "int",
              "value": 29
            },
            {
              "name": "gridY",
              "type": "int",
              "value": 68
            }
          ]
        },
        {
          "id": 98,
          "name": "MONSTER_WING_BUG_01",
          "point": true,
          "type": "monster",
          "visible": true,
          "x": 4320,
          "y": 6144,
          "properties": [
            {
              "name": "sourceIndex",
              "type": "int",
              "value": 1
            },
            {
              "name": "monsterType",
              "type": "int",
              "value": 1
            },
            {
              "name": "monsterName",
              "type": "string",
              "value": "WING_BUG"
            },
            {
              "name": "unlockStage",
              "type": "int",
              "value": 4
            },
            {
              "name": "gridX",
              "type": "int",
              "value": 45
            },
            {
              "name": "gridY",
              "type": "int",
              "value": 64
            }
          ]
        },
        {
          "id": 99,
          "name": "MONSTER_RAPTOR_02",
          "point": true,
          "type": "monster",
          "visible": true,
          "x": 3360,
          "y": 7776,
          "properties": [
            {
              "name": "sourceIndex",
              "type": "int",
              "value": 2
            },
            {
              "name": "monsterType",
              "type": "int",
              "value": 2
            },
            {
              "name": "monsterName",
              "type": "string",
              "value": "RAPTOR"
            },
            {
              "name": "unlockStage",
              "type": "int",
              "value": 4
            },
            {
              "name": "gridX",
              "type": "int",
              "value": 35
            },
            {
              "name": "gridY",
              "type": "int",
              "value": 81
            }
          ]
        },
        {
          "id": 100,
          "name": "MONSTER_SWAMP_STALKER_03",
          "point": true,
          "type": "monster",
          "visible": true,
          "x": 9696,
          "y": 4704,
          "properties": [
            {
              "name": "sourceIndex",
              "type": "int",
              "value": 3
            },
            {
              "name": "monsterType",
              "type": "int",
              "value": 3
            },
            {
              "name": "monsterName",
              "type": "string",
              "value": "SWAMP_STALKER"
            },
            {
              "name": "unlockStage",
              "type": "int",
              "value": 5
            },
            {
              "name": "gridX",
              "type": "int",
              "value": 101
            },
            {
              "name": "gridY",
              "type": "int",
              "value": 49
            }
          ]
        },
        {
          "id": 101,
          "name": "MONSTER_SENTINEL_JELLY_04",
          "point": true,
          "type": "monster",
          "visible": true,
          "x": 7488,
          "y": 8640,
          "properties": [
            {
              "name": "sourceIndex",
              "type": "int",
              "value": 4
            },
            {
              "name": "monsterType",
              "type": "int",
              "value": 4
            },
            {
              "name": "monsterName",
              "type": "string",
              "value": "SENTINEL_JELLY"
            },
            {
              "name": "unlockStage",
              "type": "int",
              "value": 6
            },
            {
              "name": "gridX",
              "type": "int",
              "value": 78
            },
            {
              "name": "gridY",
              "type": "int",
              "value": 90
            }
          ]
        },
        {
          "id": 102,
          "name": "MONSTER_FOG_WORM_05",
          "point": true,
          "type": "monster",
          "visible": true,
          "x": 10464,
          "y": 8736,
          "properties": [
            {
              "name": "sourceIndex",
              "type": "int",
              "value": 5
            },
            {
              "name": "monsterType",
              "type": "int",
              "value": 5
            },
            {
              "name": "monsterName",
              "type": "string",
              "value": "FOG_WORM"
            },
            {
              "name": "unlockStage",
              "type": "int",
              "value": 6
            },
            {
              "name": "gridX",
              "type": "int",
              "value": 109
            },
            {
              "name": "gridY",
              "type": "int",
              "value": 91
            }
          ]
        },
        {
          "id": 103,
          "name": "MONSTER_RELIC_GUARD_06",
          "point": true,
          "type": "monster",
          "visible": true,
          "x": 6912,
          "y": 2400,
          "properties": [
            {
              "name": "sourceIndex",
              "type": "int",
              "value": 6
            },
            {
              "name": "monsterType",
              "type": "int",
              "value": 6
            },
            {
              "name": "monsterName",
              "type": "string",
              "value": "RELIC_GUARD"
            },
            {
              "name": "unlockStage",
              "type": "int",
              "value": 7
            },
            {
              "name": "gridX",
              "type": "int",
              "value": 72
            },
            {
              "name": "gridY",
              "type": "int",
              "value": 25
            }
          ]
        },
        {
          "id": 104,
          "name": "MONSTER_FINAL_BOSS_07",
          "point": true,
          "type": "monster",
          "visible": true,
          "x": 2496,
          "y": 2304,
          "properties": [
            {
              "name": "sourceIndex",
              "type": "int",
              "value": 7
            },
            {
              "name": "monsterType",
              "type": "int",
              "value": 7
            },
            {
              "name": "monsterName",
              "type": "string",
              "value": "FINAL_BOSS"
            },
            {
              "name": "unlockStage",
              "type": "int",
              "value": 7
            },
            {
              "name": "gridX",
              "type": "int",
              "value": 26
            },
            {
              "name": "gridY",
              "type": "int",
              "value": 24
            }
          ]
        }
      ],
      "opacity": 1,
      "type": "objectgroup",
      "visible": true,
      "x": 0,
      "y": 0
    },
    {
      "draworder": "topdown",
      "id": 8,
      "name": "Logs",
      "objects": [
        {
          "id": 108,
          "name": "LOG_03_MAINLINE",
          "point": true,
          "type": "log",
          "visible": true,
          "x": 3072,
          "y": 6720,
          "properties": [
            {
              "name": "sourceIndex",
              "type": "int",
              "value": 3
            },
            {
              "name": "titleKey",
              "type": "string",
              "value": "LOG_03"
            },
            {
              "name": "logCategory",
              "type": "int",
              "value": 0
            },
            {
              "name": "logCategoryName",
              "type": "string",
              "value": "MAINLINE"
            },
            {
              "name": "gridX",
              "type": "int",
              "value": 32
            },
            {
              "name": "gridY",
              "type": "int",
              "value": 70
            }
          ]
        },
        {
          "id": 109,
          "name": "LOG_04_MAINLINE",
          "point": true,
          "type": "log",
          "visible": true,
          "x": 3936,
          "y": 6816,
          "properties": [
            {
              "name": "sourceIndex",
              "type": "int",
              "value": 4
            },
            {
              "name": "titleKey",
              "type": "string",
              "value": "LOG_04"
            },
            {
              "name": "logCategory",
              "type": "int",
              "value": 0
            },
            {
              "name": "logCategoryName",
              "type": "string",
              "value": "MAINLINE"
            },
            {
              "name": "gridX",
              "type": "int",
              "value": 41
            },
            {
              "name": "gridY",
              "type": "int",
              "value": 71
            }
          ]
        },
        {
          "id": 110,
          "name": "LOG_05_SUPPLEMENTAL",
          "point": true,
          "type": "log",
          "visible": true,
          "x": 4320,
          "y": 6144,
          "properties": [
            {
              "name": "sourceIndex",
              "type": "int",
              "value": 5
            },
            {
              "name": "titleKey",
              "type": "string",
              "value": "LOG_05"
            },
            {
              "name": "logCategory",
              "type": "int",
              "value": 1
            },
            {
              "name": "logCategoryName",
              "type": "string",
              "value": "SUPPLEMENTAL"
            },
            {
              "name": "gridX",
              "type": "int",
              "value": 45
            },
            {
              "name": "gridY",
              "type": "int",
              "value": 64
            }
          ]
        },
        {
          "id": 111,
          "name": "LOG_06_MAINLINE",
          "point": true,
          "type": "log",
          "visible": true,
          "x": 3168,
          "y": 7872,
          "properties": [
            {
              "name": "sourceIndex",
              "type": "int",
              "value": 6
            },
            {
              "name": "titleKey",
              "type": "string",
              "value": "LOG_06"
            },
            {
              "name": "logCategory",
              "type": "int",
              "value": 0
            },
            {
              "name": "logCategoryName",
              "type": "string",
              "value": "MAINLINE"
            },
            {
              "name": "gridX",
              "type": "int",
              "value": 33
            },
            {
              "name": "gridY",
              "type": "int",
              "value": 82
            }
          ]
        },
        {
          "id": 112,
          "name": "LOG_07_SUPPLEMENTAL",
          "point": true,
          "type": "log",
          "visible": true,
          "x": 4704,
          "y": 7488,
          "properties": [
            {
              "name": "sourceIndex",
              "type": "int",
              "value": 7
            },
            {
              "name": "titleKey",
              "type": "string",
              "value": "LOG_07"
            },
            {
              "name": "logCategory",
              "type": "int",
              "value": 1
            },
            {
              "name": "logCategoryName",
              "type": "string",
              "value": "SUPPLEMENTAL"
            },
            {
              "name": "gridX",
              "type": "int",
              "value": 49
            },
            {
              "name": "gridY",
              "type": "int",
              "value": 78
            }
          ]
        },
        {
          "id": 113,
          "name": "LOG_08_MAINLINE",
          "point": true,
          "type": "log",
          "visible": true,
          "x": 10272,
          "y": 4224,
          "properties": [
            {
              "name": "sourceIndex",
              "type": "int",
              "value": 8
            },
            {
              "name": "titleKey",
              "type": "string",
              "value": "LOG_08"
            },
            {
              "name": "logCategory",
              "type": "int",
              "value": 0
            },
            {
              "name": "logCategoryName",
              "type": "string",
              "value": "MAINLINE"
            },
            {
              "name": "gridX",
              "type": "int",
              "value": 107
            },
            {
              "name": "gridY",
              "type": "int",
              "value": 44
            }
          ]
        },
        {
          "id": 114,
          "name": "LOG_09_MAINLINE",
          "point": true,
          "type": "log",
          "visible": true,
          "x": 7392,
          "y": 8544,
          "properties": [
            {
              "name": "sourceIndex",
              "type": "int",
              "value": 9
            },
            {
              "name": "titleKey",
              "type": "string",
              "value": "LOG_09"
            },
            {
              "name": "logCategory",
              "type": "int",
              "value": 0
            },
            {
              "name": "logCategoryName",
              "type": "string",
              "value": "MAINLINE"
            },
            {
              "name": "gridX",
              "type": "int",
              "value": 77
            },
            {
              "name": "gridY",
              "type": "int",
              "value": 89
            }
          ]
        },
        {
          "id": 115,
          "name": "LOG_10_SUPPLEMENTAL",
          "point": true,
          "type": "log",
          "visible": true,
          "x": 7968,
          "y": 8352,
          "properties": [
            {
              "name": "sourceIndex",
              "type": "int",
              "value": 10
            },
            {
              "name": "titleKey",
              "type": "string",
              "value": "LOG_10"
            },
            {
              "name": "logCategory",
              "type": "int",
              "value": 1
            },
            {
              "name": "logCategoryName",
              "type": "string",
              "value": "SUPPLEMENTAL"
            },
            {
              "name": "gridX",
              "type": "int",
              "value": 83
            },
            {
              "name": "gridY",
              "type": "int",
              "value": 87
            }
          ]
        },
        {
          "id": 116,
          "name": "LOG_11_MAINLINE",
          "point": true,
          "type": "log",
          "visible": true,
          "x": 9312,
          "y": 8640,
          "properties": [
            {
              "name": "sourceIndex",
              "type": "int",
              "value": 11
            },
            {
              "name": "titleKey",
              "type": "string",
              "value": "LOG_11"
            },
            {
              "name": "logCategory",
              "type": "int",
              "value": 0
            },
            {
              "name": "logCategoryName",
              "type": "string",
              "value": "MAINLINE"
            },
            {
              "name": "gridX",
              "type": "int",
              "value": 97
            },
            {
              "name": "gridY",
              "type": "int",
              "value": 90
            }
          ]
        },
        {
          "id": 117,
          "name": "LOG_12_SUPPLEMENTAL",
          "point": true,
          "type": "log",
          "visible": true,
          "x": 10176,
          "y": 8256,
          "properties": [
            {
              "name": "sourceIndex",
              "type": "int",
              "value": 12
            },
            {
              "name": "titleKey",
              "type": "string",
              "value": "LOG_12"
            },
            {
              "name": "logCategory",
              "type": "int",
              "value": 1
            },
            {
              "name": "logCategoryName",
              "type": "string",
              "value": "SUPPLEMENTAL"
            },
            {
              "name": "gridX",
              "type": "int",
              "value": 106
            },
            {
              "name": "gridY",
              "type": "int",
              "value": 86
            }
          ]
        },
        {
          "id": 118,
          "name": "LOG_13_MAINLINE",
          "point": true,
          "type": "log",
          "visible": true,
          "x": 10560,
          "y": 8832,
          "properties": [
            {
              "name": "sourceIndex",
              "type": "int",
              "value": 13
            },
            {
              "name": "titleKey",
              "type": "string",
              "value": "LOG_13"
            },
            {
              "name": "logCategory",
              "type": "int",
              "value": 0
            },
            {
              "name": "logCategoryName",
              "type": "string",
              "value": "MAINLINE"
            },
            {
              "name": "gridX",
              "type": "int",
              "value": 110
            },
            {
              "name": "gridY",
              "type": "int",
              "value": 92
            }
          ]
        }
      ],
      "opacity": 1,
      "type": "objectgroup",
      "visible": true,
      "x": 0,
      "y": 0
    },
    {
      "id": 100,
      "name": "Regions",
      "type": "objectgroup",
      "draworder": "topdown",
      "opacity": 1,
      "visible": true,
      "x": 0,
      "y": 0,
      "objects": [
        {
          "id": 1001,
          "name": "Landing Safety Zone",
          "type": "region",
          "x": 7296,
          "y": 4032,
          "width": 2016,
          "height": 2208,
          "rotation": 0,
          "visible": true,
          "properties": [
            {
              "name": "regionName",
              "type": "string",
              "value": "Landing Safety Zone"
            },
            {
              "name": "priority",
              "type": "int",
              "value": 300
            },
            {
              "name": "area",
              "type": "int",
              "value": 0
            },
            {
              "name": "gridX",
              "type": "int",
              "value": 76
            },
            {
              "name": "gridY",
              "type": "int",
              "value": 42
            },
            {
              "name": "gridWidth",
              "type": "int",
              "value": 21
            },
            {
              "name": "gridHeight",
              "type": "int",
              "value": 23
            }
          ]
        },
        {
          "id": 1002,
          "name": "Canopy Loop",
          "type": "region",
          "x": 4608,
          "y": 4032,
          "width": 4128,
          "height": 3072,
          "rotation": 0,
          "visible": true,
          "properties": [
            {
              "name": "regionName",
              "type": "string",
              "value": "Canopy Loop"
            },
            {
              "name": "priority",
              "type": "int",
              "value": 170
            },
            {
              "name": "area",
              "type": "int",
              "value": 1
            },
            {
              "name": "gridX",
              "type": "int",
              "value": 48
            },
            {
              "name": "gridY",
              "type": "int",
              "value": 42
            },
            {
              "name": "gridWidth",
              "type": "int",
              "value": 43
            },
            {
              "name": "gridHeight",
              "type": "int",
              "value": 32
            }
          ]
        },
        {
          "id": 1003,
          "name": "Echo Basin",
          "type": "region",
          "x": 1920,
          "y": 6528,
          "width": 3744,
          "height": 2400,
          "rotation": 0,
          "visible": true,
          "properties": [
            {
              "name": "regionName",
              "type": "string",
              "value": "Echo Basin"
            },
            {
              "name": "priority",
              "type": "int",
              "value": 160
            },
            {
              "name": "area",
              "type": "int",
              "value": 1
            },
            {
              "name": "gridX",
              "type": "int",
              "value": 20
            },
            {
              "name": "gridY",
              "type": "int",
              "value": 68
            },
            {
              "name": "gridWidth",
              "type": "int",
              "value": 39
            },
            {
              "name": "gridHeight",
              "type": "int",
              "value": 25
            }
          ]
        },
        {
          "id": 1004,
          "name": "South Survey Facility",
          "type": "region",
          "x": 6048,
          "y": 7392,
          "width": 2976,
          "height": 1632,
          "rotation": 0,
          "visible": true,
          "properties": [
            {
              "name": "regionName",
              "type": "string",
              "value": "South Survey Facility"
            },
            {
              "name": "priority",
              "type": "int",
              "value": 180
            },
            {
              "name": "area",
              "type": "int",
              "value": 4
            },
            {
              "name": "gridX",
              "type": "int",
              "value": 63
            },
            {
              "name": "gridY",
              "type": "int",
              "value": 77
            },
            {
              "name": "gridWidth",
              "type": "int",
              "value": 31
            },
            {
              "name": "gridHeight",
              "type": "int",
              "value": 17
            }
          ]
        },
        {
          "id": 1005,
          "name": "Outer Mire",
          "type": "region",
          "x": 8256,
          "y": 3552,
          "width": 1440,
          "height": 4032,
          "rotation": 0,
          "visible": true,
          "properties": [
            {
              "name": "regionName",
              "type": "string",
              "value": "Outer Mire"
            },
            {
              "name": "priority",
              "type": "int",
              "value": 190
            },
            {
              "name": "area",
              "type": "int",
              "value": 2
            },
            {
              "name": "gridX",
              "type": "int",
              "value": 86
            },
            {
              "name": "gridY",
              "type": "int",
              "value": 37
            },
            {
              "name": "gridWidth",
              "type": "int",
              "value": 15
            },
            {
              "name": "gridHeight",
              "type": "int",
              "value": 42
            }
          ]
        },
        {
          "id": 1006,
          "name": "Deep Mire",
          "type": "region",
          "x": 9504,
          "y": 2496,
          "width": 1536,
          "height": 4992,
          "rotation": 0,
          "visible": true,
          "properties": [
            {
              "name": "regionName",
              "type": "string",
              "value": "Deep Mire"
            },
            {
              "name": "priority",
              "type": "int",
              "value": 210
            },
            {
              "name": "area",
              "type": "int",
              "value": 3
            },
            {
              "name": "gridX",
              "type": "int",
              "value": 99
            },
            {
              "name": "gridY",
              "type": "int",
              "value": 26
            },
            {
              "name": "gridWidth",
              "type": "int",
              "value": 16
            },
            {
              "name": "gridHeight",
              "type": "int",
              "value": 52
            }
          ]
        },
        {
          "id": 1007,
          "name": "Ruins Approach",
          "type": "region",
          "x": 4608,
          "y": 2688,
          "width": 3168,
          "height": 1056,
          "rotation": 0,
          "visible": true,
          "properties": [
            {
              "name": "regionName",
              "type": "string",
              "value": "Ruins Approach"
            },
            {
              "name": "priority",
              "type": "int",
              "value": 200
            },
            {
              "name": "area",
              "type": "int",
              "value": 4
            },
            {
              "name": "gridX",
              "type": "int",
              "value": 48
            },
            {
              "name": "gridY",
              "type": "int",
              "value": 28
            },
            {
              "name": "gridWidth",
              "type": "int",
              "value": 33
            },
            {
              "name": "gridHeight",
              "type": "int",
              "value": 11
            }
          ]
        },
        {
          "id": 1008,
          "name": "Monolith Ring",
          "type": "region",
          "x": 4320,
          "y": 1344,
          "width": 4032,
          "height": 1920,
          "rotation": 0,
          "visible": true,
          "properties": [
            {
              "name": "regionName",
              "type": "string",
              "value": "Monolith Ring"
            },
            {
              "name": "priority",
              "type": "int",
              "value": 220
            },
            {
              "name": "area",
              "type": "int",
              "value": 4
            },
            {
              "name": "gridX",
              "type": "int",
              "value": 45
            },
            {
              "name": "gridY",
              "type": "int",
              "value": 14
            },
            {
              "name": "gridWidth",
              "type": "int",
              "value": 42
            },
            {
              "name": "gridHeight",
              "type": "int",
              "value": 20
            }
          ]
        },
        {
          "id": 1009,
          "name": "Signal Tower Plateau",
          "type": "region",
          "x": 5568,
          "y": 1152,
          "width": 1344,
          "height": 1248,
          "rotation": 0,
          "visible": true,
          "properties": [
            {
              "name": "regionName",
              "type": "string",
              "value": "Signal Tower Plateau"
            },
            {
              "name": "priority",
              "type": "int",
              "value": 240
            },
            {
              "name": "area",
              "type": "int",
              "value": 4
            },
            {
              "name": "gridX",
              "type": "int",
              "value": 58
            },
            {
              "name": "gridY",
              "type": "int",
              "value": 12
            },
            {
              "name": "gridWidth",
              "type": "int",
              "value": 14
            },
            {
              "name": "gridHeight",
              "type": "int",
              "value": 13
            }
          ]
        },
        {
          "id": 1010,
          "name": "Northwest Hunt Grounds",
          "type": "region",
          "x": 1728,
          "y": 1536,
          "width": 2112,
          "height": 1920,
          "rotation": 0,
          "visible": true,
          "properties": [
            {
              "name": "regionName",
              "type": "string",
              "value": "Northwest Hunt Grounds"
            },
            {
              "name": "priority",
              "type": "int",
              "value": 230
            },
            {
              "name": "area",
              "type": "int",
              "value": 5
            },
            {
              "name": "gridX",
              "type": "int",
              "value": 18
            },
            {
              "name": "gridY",
              "type": "int",
              "value": 16
            },
            {
              "name": "gridWidth",
              "type": "int",
              "value": 22
            },
            {
              "name": "gridHeight",
              "type": "int",
              "value": 20
            }
          ]
        },
        {
          "id": 1011,
          "name": "Crash Investigation Ridge",
          "type": "region",
          "x": 9792,
          "y": 2688,
          "width": 1344,
          "height": 1728,
          "rotation": 0,
          "visible": true,
          "properties": [
            {
              "name": "regionName",
              "type": "string",
              "value": "Crash Investigation Ridge"
            },
            {
              "name": "priority",
              "type": "int",
              "value": 250
            },
            {
              "name": "area",
              "type": "int",
              "value": 3
            },
            {
              "name": "gridX",
              "type": "int",
              "value": 102
            },
            {
              "name": "gridY",
              "type": "int",
              "value": 28
            },
            {
              "name": "gridWidth",
              "type": "int",
              "value": 14
            },
            {
              "name": "gridHeight",
              "type": "int",
              "value": 18
            }
          ]
        }
      ]
    },
    {
      "id": 101,
      "name": "Unlocks",
      "type": "objectgroup",
      "draworder": "topdown",
      "opacity": 1,
      "visible": true,
      "x": 0,
      "y": 0,
      "objects": [
        {
          "id": 1101,
          "name": "ROPE_BARRIER_A",
          "type": "unlock",
          "x": 9120,
          "y": 5472,
          "width": 96,
          "height": 96,
          "rotation": 0,
          "visible": true,
          "properties": [
            {
              "name": "unlockId",
              "type": "string",
              "value": "ROPE_BARRIER_A"
            },
            {
              "name": "unlockType",
              "type": "string",
              "value": "rope_barrier"
            },
            {
              "name": "gridX",
              "type": "int",
              "value": 95
            },
            {
              "name": "gridY",
              "type": "int",
              "value": 57
            },
            {
              "name": "gridWidth",
              "type": "int",
              "value": 1
            },
            {
              "name": "gridHeight",
              "type": "int",
              "value": 1
            },
            {
              "name": "clearsTile",
              "type": "int",
              "value": 22
            }
          ]
        },
        {
          "id": 1102,
          "name": "ROPE_BARRIER_B",
          "type": "unlock",
          "x": 9120,
          "y": 5568,
          "width": 96,
          "height": 96,
          "rotation": 0,
          "visible": true,
          "properties": [
            {
              "name": "unlockId",
              "type": "string",
              "value": "ROPE_BARRIER_B"
            },
            {
              "name": "unlockType",
              "type": "string",
              "value": "rope_barrier"
            },
            {
              "name": "gridX",
              "type": "int",
              "value": 95
            },
            {
              "name": "gridY",
              "type": "int",
              "value": 58
            },
            {
              "name": "gridWidth",
              "type": "int",
              "value": 1
            },
            {
              "name": "gridHeight",
              "type": "int",
              "value": 1
            },
            {
              "name": "clearsTile",
              "type": "int",
              "value": 22
            }
          ]
        },
        {
          "id": 1103,
          "name": "ROPE_BARRIER_C",
          "type": "unlock",
          "x": 9120,
          "y": 5664,
          "width": 96,
          "height": 96,
          "rotation": 0,
          "visible": true,
          "properties": [
            {
              "name": "unlockId",
              "type": "string",
              "value": "ROPE_BARRIER_C"
            },
            {
              "name": "unlockType",
              "type": "string",
              "value": "rope_barrier"
            },
            {
              "name": "gridX",
              "type": "int",
              "value": 95
            },
            {
              "name": "gridY",
              "type": "int",
              "value": 59
            },
            {
              "name": "gridWidth",
              "type": "int",
              "value": 1
            },
            {
              "name": "gridHeight",
              "type": "int",
              "value": 1
            },
            {
              "name": "clearsTile",
              "type": "int",
              "value": 22
            }
          ]
        },
        {
          "id": 1104,
          "name": "SWAMP_DEEP_GATE",
          "type": "unlock",
          "x": 9408,
          "y": 4800,
          "width": 96,
          "height": 480,
          "rotation": 0,
          "visible": true,
          "properties": [
            {
              "name": "unlockId",
              "type": "string",
              "value": "SWAMP_DEEP_GATE"
            },
            {
              "name": "unlockType",
              "type": "string",
              "value": "gate"
            },
            {
              "name": "gridX",
              "type": "int",
              "value": 98
            },
            {
              "name": "gridY",
              "type": "int",
              "value": 50
            },
            {
              "name": "gridWidth",
              "type": "int",
              "value": 1
            },
            {
              "name": "gridHeight",
              "type": "int",
              "value": 5
            },
            {
              "name": "clearsTile",
              "type": "int",
              "value": 23
            }
          ]
        },
        {
          "id": 1105,
          "name": "RUINS_GATE",
          "type": "unlock",
          "x": 6336,
          "y": 3456,
          "width": 384,
          "height": 96,
          "rotation": 0,
          "visible": true,
          "properties": [
            {
              "name": "unlockId",
              "type": "string",
              "value": "RUINS_GATE"
            },
            {
              "name": "unlockType",
              "type": "string",
              "value": "gate"
            },
            {
              "name": "gridX",
              "type": "int",
              "value": 66
            },
            {
              "name": "gridY",
              "type": "int",
              "value": 36
            },
            {
              "name": "gridWidth",
              "type": "int",
              "value": 4
            },
            {
              "name": "gridHeight",
              "type": "int",
              "value": 1
            },
            {
              "name": "clearsTile",
              "type": "int",
              "value": 24
            }
          ]
        }
      ]
    },
    {
      "draworder": "topdown",
      "id": 12,
      "name": "Portals",
      "objects": [
        {
          "height": 192,
          "id": 122,
          "name": "SHIP_EXTERIOR_ENTRY",
          "properties": [
            {
              "name": "interactionRadius",
              "type": "int",
              "value": 1
            },
            {
              "name": "portalId",
              "type": "string",
              "value": "SHIP_EXTERIOR_ENTRY"
            },
            {
              "name": "promptKey",
              "type": "string",
              "value": "ENTER_SHIP"
            },
            {
              "name": "requiresFlag",
              "type": "string",
              "value": ""
            },
            {
              "name": "targetAnchor",
              "type": "string",
              "value": "SHIP_INTERIOR_RETURN"
            },
            {
              "name": "targetMapId",
              "type": "string",
              "value": "ship_interior"
            },
            {
              "name": "transitionId",
              "type": "string",
              "value": "enter_ship"
            }
          ],
          "rotation": 0,
          "type": "portal",
          "visible": true,
          "width": 96,
          "x": 7872,
          "y": 4896
        }
      ],
      "opacity": 1,
      "type": "objectgroup",
      "visible": true,
      "x": 0,
      "y": 0
    },
    {
      "draworder": "topdown",
      "id": 13,
      "name": "Entities",
      "objects": [
        {
          "height": 576,
          "id": 123,
          "name": "PLAYER_SHIP",
          "properties": [
            {
              "name": "drawLayer",
              "type": "string",
              "value": "above_props"
            },
            {
              "name": "entityId",
              "type": "string",
              "value": "PLAYER_SHIP"
            },
            {
              "name": "entityType",
              "type": "string",
              "value": "ship_exterior"
            },
            {
              "name": "originAnchor",
              "type": "string",
              "value": "SHIP_EXTERIOR_ORIGIN"
            },
            {
              "name": "portalId",
              "type": "string",
              "value": "SHIP_EXTERIOR_ENTRY"
            },
            {
              "name": "textureKey",
              "type": "string",
              "value": "ship_exterior_default"
            },
            {
              "name": "blocksMovement",
              "type": "bool",
              "value": true
            }
          ],
          "rotation": 0,
          "type": "entity",
          "visible": true,
          "width": 576,
          "x": 7296,
          "y": 4704
        }
      ],
      "opacity": 1,
      "type": "objectgroup",
      "visible": true,
      "x": 0,
      "y": 0
    }
  ]
}
